;FLAVOR:Marlin
;TIME:1483
;Filament used: 0.851965m
;Layer height: 0.12
;MINX:90.719
;MINY:79.219
;MINZ:0.144
;MAXX:129.28
;MAXY:140.78
;MAXZ:5.834
;Generated with Cura_SteamEngine 4.2.1
M140 S60
M105
M190 S60
M104 S200
M105
M109 S200
M82 ;absolute extrusion mode
M201 X500.00 Y500.00 Z100.00 E5000.00 ;Setup machine max acceleration
M203 X500.00 Y500.00 Z10.00 E50.00 ;Setup machine max feedrate
M204 P500.00 R1000.00 T500.00 ;Setup Print/Retract/Travel acceleration
M205 X8.00 Y8.00 Z0.40 E5.00 ;Setup Jerk
M220 S100 ;Reset Feedrate
M221 S100 ;Reset Flowrate

G28 ;Home

G92 E0 ;Reset Extruder
G1 Z2.0 F3000 ;Move Z Axis up
G1 X10.1 Y20 Z0.28 F5000.0 ;Move to start position
G1 X10.1 Y200.0 Z0.28 F1500.0 E15 ;Draw the first line
G1 X10.4 Y200.0 Z0.28 F5000.0 ;Move to side a little
G1 X10.4 Y20 Z0.28 F1500.0 E30 ;Draw the second line
G92 E0 ;Reset Extruder
G1 Z2.0 F3000 ;Move Z Axis up

G92 E0
G92 E0
G1 F2700 E-5
;LAYER_COUNT:41
;LAYER:-6
M107
G0 F12000 X94.673 Y84.338 Z0.144
;TYPE:SUPPORT-INTERFACE
G1 F2700 E0
G1 F1800 X95.324 Y83.658 E0.04509
G1 X96.02 Y83.012 E0.09057
G1 X96.159 Y82.893 E0.09933
G1 X96.85 Y82.339 E0.14175
G1 X96.989 Y82.235 E0.15006
G1 X97.704 Y81.742 E0.19166
G1 X97.888 Y81.626 E0.20208
G1 X98.644 Y81.183 E0.24404
G1 X98.786 Y81.106 E0.25178
G1 X99.731 Y80.647 E0.3021
G1 X100.581 Y80.304 E0.346
G1 X100.754 Y80.242 E0.3548
G1 X101.592 Y79.973 E0.39695
G1 X101.756 Y79.927 E0.40511
G1 X102.628 Y79.715 E0.44809
G1 X102.79 Y79.682 E0.45601
G1 X103.683 Y79.534 E0.49936
G1 X103.86 Y79.511 E0.50791
G1 X104.754 Y79.428 E0.55091
G1 X104.896 Y79.421 E0.55772
G1 X105.637 Y79.4 E0.59323
G1 X114.374 Y79.401 E1.01168
G1 X115.498 Y79.446 E1.06556
G1 X116.415 Y79.548 E1.10975
G1 X116.59 Y79.573 E1.11822
G1 X117.479 Y79.737 E1.16151
G1 X117.602 Y79.765 E1.16755
G1 X118.496 Y79.999 E1.21181
G1 X118.659 Y80.048 E1.21997
G1 X119.501 Y80.335 E1.26257
G1 X119.667 Y80.398 E1.27108
G1 X120.47 Y80.739 E1.31286
G1 X120.659 Y80.827 E1.32284
G1 X121.57 Y81.301 E1.37203
G1 X122.349 Y81.776 E1.41573
G1 X122.5 Y81.876 E1.4244
G1 X123.214 Y82.387 E1.46645
G1 X123.362 Y82.5 E1.47537
G1 X124.162 Y83.173 E1.52544
G1 X124.842 Y83.824 E1.57053
G1 X125.488 Y84.52 E1.61601
G1 X125.607 Y84.659 E1.62477
G1 X126.161 Y85.35 E1.66719
G1 X126.265 Y85.489 E1.67551
G1 X126.758 Y86.204 E1.7171
G1 X126.874 Y86.388 E1.72752
G1 X127.387 Y87.271 E1.77643
G1 X127.792 Y88.094 E1.82036
G1 X127.853 Y88.231 E1.82755
G1 X128.195 Y89.076 E1.87121
G1 X128.254 Y89.242 E1.87964
G1 X128.525 Y90.084 E1.92201
G1 X128.572 Y90.25 E1.93027
G1 X128.783 Y91.119 E1.9731
G1 X128.817 Y91.282 E1.98108
G1 X128.965 Y92.174 E2.02438
G1 X128.989 Y92.36 E2.03336
G1 X129.079 Y93.396 E2.08317
G1 X129.1 Y94.129 E2.11829
G1 X129.1 Y125.857 E3.63789
G1 X129.064 Y126.863 E3.6861
G1 X129.054 Y126.998 E3.69259
G1 X128.952 Y127.915 E3.73678
G1 X128.927 Y128.09 E3.74524
G1 X128.765 Y128.968 E3.788
G1 X128.735 Y129.102 E3.79458
G1 X128.504 Y129.987 E3.83839
G1 X128.452 Y130.159 E3.84699
G1 X128.165 Y131.001 E3.8896
G1 X128.102 Y131.167 E3.8981
G1 X127.761 Y131.97 E3.93989
G1 X127.68 Y132.145 E3.94912
G1 X127.276 Y132.931 E3.99145
G1 X127.198 Y133.07 E3.99908
G1 X126.724 Y133.849 E4.04276
G1 X126.624 Y134 E4.05143
G1 X126.113 Y134.714 E4.09348
G1 X126 Y134.862 E4.1024
G1 X125.327 Y135.662 E4.15247
G1 X124.676 Y136.342 E4.19756
G1 X123.991 Y136.978 E4.24233
G1 X123.843 Y137.105 E4.25167
G1 X123.15 Y137.661 E4.29422
G1 X123.011 Y137.765 E4.30254
G1 X122.296 Y138.258 E4.34413
G1 X122.112 Y138.374 E4.35455
G1 X121.356 Y138.817 E4.39652
G1 X121.214 Y138.894 E4.40425
G1 X120.269 Y139.353 E4.45457
G1 X119.414 Y139.698 E4.49873
G1 X119.251 Y139.756 E4.50701
G1 X118.408 Y140.027 E4.54942
G1 X118.244 Y140.073 E4.55758
G1 X117.372 Y140.285 E4.60056
G1 X117.21 Y140.318 E4.60848
G1 X116.317 Y140.466 E4.65183
G1 X116.14 Y140.489 E4.66038
G1 X115.246 Y140.572 E4.70339
G1 X115.104 Y140.579 E4.71019
G1 X114.363 Y140.6 E4.7457
G1 X105.626 Y140.599 E5.16415
G1 X104.502 Y140.554 E5.21803
G1 X103.585 Y140.452 E5.26222
G1 X103.41 Y140.427 E5.27069
G1 X102.521 Y140.263 E5.31398
G1 X102.398 Y140.235 E5.32003
G1 X101.504 Y140.001 E5.36429
G1 X101.341 Y139.952 E5.37244
G1 X100.499 Y139.665 E5.41504
G1 X100.333 Y139.602 E5.42355
G1 X99.53 Y139.261 E5.46533
G1 X99.341 Y139.173 E5.47532
G1 X98.43 Y138.699 E5.5245
G1 X97.651 Y138.224 E5.5682
G1 X97.5 Y138.124 E5.57687
G1 X96.786 Y137.613 E5.61893
G1 X96.638 Y137.5 E5.62784
G1 X95.838 Y136.827 E5.67791
G1 X95.154 Y136.172 E5.72327
G1 X94.51 Y135.478 E5.76862
G1 X94.393 Y135.341 E5.77725
G1 X93.843 Y134.655 E5.81936
G1 X93.727 Y134.499 E5.82867
G1 X93.242 Y133.796 E5.86957
G1 X93.126 Y133.612 E5.87999
G1 X92.683 Y132.856 E5.92196
G1 X92.606 Y132.714 E5.9297
G1 X92.147 Y131.769 E5.98001
G1 X91.798 Y130.905 E6.02464
G1 X91.742 Y130.747 E6.03267
G1 X91.47 Y129.899 E6.07532
G1 X91.428 Y129.749 E6.08278
G1 X91.212 Y128.861 E6.12655
G1 X91.183 Y128.718 E6.13354
G1 X91.033 Y127.812 E6.17753
G1 X91.011 Y127.64 E6.18583
G1 X90.928 Y126.741 E6.22907
G1 X90.921 Y126.604 E6.23564
G1 X90.9 Y125.871 E6.27076
G1 X90.9 Y94.143 E7.79036
G1 X90.936 Y93.137 E7.83857
G1 X90.946 Y93.002 E7.84506
G1 X91.047 Y92.087 E7.88915
G1 X91.073 Y91.912 E7.89762
G1 X91.235 Y91.032 E7.94048
G1 X91.265 Y90.898 E7.94705
G1 X91.496 Y90.012 E7.99091
G1 X91.548 Y89.841 E7.99947
G1 X91.835 Y88.999 E8.04207
G1 X91.898 Y88.833 E8.05058
G1 X92.239 Y88.03 E8.09236
G1 X92.32 Y87.855 E8.1016
G1 X92.801 Y86.93 E8.15153
G1 X93.276 Y86.151 E8.19523
G1 X93.376 Y86 E8.2039
G1 X93.892 Y85.279 E8.24637
G1 X94 Y85.138 E8.25487
G1 X94.673 Y84.338 E8.30494
G0 F12000 X94.4 Y84.662
G1 F1800 X94.4 Y135.349 E10.73258
G1 F2700 E5.73258
G1 F600 Z0.344
G0 F12000 X96 Y136.963 Z0.344
G1 F600 Z0.144
G1 F2700 E10.73258
G1 F1800 X96 Y83.03 E13.31568
G1 F2700 E8.31568
G1 F600 Z0.344
G0 F12000 X97.6 Y81.813 Z0.344
G1 F600 Z0.144
G1 F2700 E13.31568
G1 F1800 X97.6 Y138.19 E16.01583
G1 F2700 E11.01583
G1 F600 Z0.344
G0 F12000 X99.2 Y139.099 Z0.344
G1 F600 Z0.144
G1 F2700 E16.01583
G1 F1800 X99.2 Y80.904 E18.80306
G1 F2700 E13.80306
G1 F600 Z0.344
G0 F12000 X100.8 Y80.227 Z0.344
G1 F600 Z0.144
G1 F2700 E18.80306
G1 F1800 X100.8 Y139.767 E21.6547
G1 F2700 E16.6547
G1 F600 Z0.344
G0 F12000 X102.4 Y140.235 Z0.344
G1 F600 Z0.144
G1 F2700 E21.6547
G1 F1800 X102.4 Y79.77 E24.55065
G1 F2700 E19.55065
G1 F600 Z0.344
G0 F12000 X104 Y79.498 Z0.344
G1 F600 Z0.144
G1 F2700 E24.55065
G1 F1800 X104 Y140.498 E27.47222
G1 F2700 E22.47222
G1 F600 Z0.344
G0 F12000 X105.6 Y140.597 Z0.344
G1 F600 Z0.144
G1 F2700 E27.47222
G1 F1800 X105.6 Y79.401 E30.40318
G1 F2700 E25.40318
G1 F600 Z0.344
G0 F12000 X107.2 Y79.401 Z0.344
G1 F600 Z0.144
G1 F2700 E30.40318
G1 F1800 X107.2 Y140.599 E33.33423
G1 F2700 E28.33423
G1 F600 Z0.344
G0 F12000 X108.8 Y140.599 Z0.344
G1 F600 Z0.144
G1 F2700 E33.33423
G1 F1800 X108.8 Y79.401 E36.26528
G1 F2700 E31.26528
G1 F600 Z0.344
G0 F12000 X110.4 Y79.401 Z0.344
G1 F600 Z0.144
G1 F2700 E36.26528
G1 F1800 X110.4 Y140.599 E39.19634
G1 F2700 E34.19634
G1 F600 Z0.344
G0 F12000 X112 Y140.599 Z0.344
G1 F600 Z0.144
G1 F2700 E39.19634
G1 F1800 X112 Y79.401 E42.12739
G1 F2700 E37.12739
G1 F600 Z0.344
G0 F12000 X113.6 Y79.401 Z0.344
G1 F600 Z0.144
G1 F2700 E42.12739
G1 F1800 X113.6 Y140.599 E45.05844
G1 F2700 E40.05844
G1 F600 Z0.344
G0 F12000 X115.2 Y140.575 Z0.344
G1 F600 Z0.144
G1 F2700 E45.05844
G1 F1800 X115.2 Y79.435 E47.98672
G1 F2700 E42.98672
G1 F600 Z0.344
G0 F12000 X116.8 Y79.612 Z0.344
G1 F600 Z0.144
G1 F2700 E47.98672
G1 F1800 X116.8 Y140.386 E50.89746
G1 F2700 E45.89746
G1 F600 Z0.344
G0 F12000 X118.4 Y140.03 Z0.344
G1 F600 Z0.144
G1 F2700 E50.89746
G1 F1800 X118.4 Y79.974 E53.77382
G1 F2700 E48.77382
G1 F600 Z0.344
G0 F12000 X120 Y80.54 Z0.344
G1 F600 Z0.144
G1 F2700 E53.77382
G1 F1800 X120 Y139.462 E56.59587
G1 F2700 E51.59587
G1 F600 Z0.344
G0 F12000 X121.6 Y138.675 Z0.344
G1 F600 Z0.144
G1 F2700 E56.59587
G1 F1800 X121.6 Y81.32 E59.34286
G1 F2700 E54.34286
G1 F600 Z0.344
G0 F12000 X123.2 Y82.377 Z0.344
G1 F600 Z0.144
G1 F2700 E59.34286
G1 F1800 X123.2 Y137.621 E61.98875
G1 F2700 E56.98875
G1 F600 Z0.344
G0 F12000 X124.8 Y136.213 Z0.344
G1 F600 Z0.144
G1 F2700 E61.98875
G1 F1800 X124.8 Y83.784 E64.49982
G1 F2700 E59.49982
G1 F600 Z0.344
G0 F12000 X126.4 Y85.685 Z0.344
G1 F600 Z0.144
G1 F2700 E64.49982
G1 F1800 X126.4 Y134.313 E66.82883
G1 F2700 E61.82883
G1 F600 Z0.344
G0 F12000 X128 Y131.408 Z0.344
G1 F600 Z0.144
G1 F2700 E66.82883
G1 F1800 X128 Y88.595 E68.87935
G1 F2700 E63.87935
G1 F600 Z0.344
G0 F12000 X92.8 Y86.931 Z0.344
G1 F600 Z0.144
G1 F2700 E68.87935
G1 F1800 X92.8 Y133.055 E71.08844
G1 F2700 E66.08844
G1 F600 Z0.344
G0 F12000 X91.2 Y128.801 Z0.344
G1 F600 Z0.144
G1 F2700 E71.08844
G1 F1800 X91.2 Y91.222 E72.88827
G1 F2700 E67.88827
G1 F600 Z0.344
G0 F12000 X127.358 Y87.305 Z0.344
;TIME_ELAPSED:66.826703
;LAYER:-5
M140 S60
G0 X127.358 Y87.305 Z0.524
;TYPE:SUPPORT
G1 F600 Z0.324
G1 F2700 E72.88827
G1 F1800 X127.277 Y87.155 E72.89949
G1 X126.831 Y86.395 E72.95753
G1 X126.731 Y86.238 E72.96978
G1 X126.24 Y85.525 E73.02679
G1 X126.119 Y85.363 E73.04011
G1 X125.567 Y84.673 E73.0983
G1 X125.468 Y84.559 E73.10825
G1 X124.805 Y83.843 E73.17251
G1 X124.134 Y83.201 E73.23366
G1 X123.33 Y82.527 E73.30276
G1 X123.189 Y82.418 E73.31449
G1 X122.475 Y81.909 E73.37224
G1 X122.327 Y81.81 E73.38396
G1 X121.548 Y81.336 E73.44402
G1 X121.425 Y81.265 E73.45337
G1 X120.641 Y80.862 E73.51142
G1 X120.515 Y80.804 E73.52056
G1 X127.69 Y87.978 E74.18874
G1 X127.754 Y88.109 E74.19834
G1 X127.815 Y88.245 E74.20816
G1 X128.156 Y89.089 E74.2681
G1 X128.218 Y89.267 E74.28052
G1 X128.486 Y90.096 E74.33789
G1 X128.532 Y90.26 E74.34911
G1 X128.561 Y90.378 E74.35711
G1 X118.128 Y79.944 E75.32882
G1 X117.591 Y79.804 E75.36536
G1 X116.579 Y79.611 E75.43321
G1 X116.395 Y79.584 E75.44546
G1 X116.222 Y79.565 E75.45692
G1 X128.938 Y92.282 E76.64124
G1 X128.947 Y92.348 E76.64563
G1 X129.038 Y93.397 E76.71497
G1 X129.053 Y93.924 E76.74969
G1 X114.578 Y79.449 E78.09779
G1 X114.37 Y79.441 E78.1115
G1 X113.043 Y79.441 E78.19889
G1 X129.059 Y95.458 E79.69056
G1 X129.059 Y96.985 E79.79112
G1 X111.515 Y79.441 E81.42505
G1 X109.987 Y79.44 E81.52567
G1 X129.059 Y98.512 E83.30191
G1 X129.059 Y100.04 E83.40254
G1 X108.46 Y79.44 E85.32103
G1 X106.932 Y79.44 E85.42166
G1 X129.059 Y101.567 E87.48241
G1 X129.059 Y103.094 E87.58297
G1 X105.411 Y79.446 E89.78539
G1 X104.895 Y79.461 E89.81938
G1 X104.758 Y79.468 E89.82842
G1 X103.978 Y79.541 E89.88001
G1 X129.059 Y104.622 E92.21588
G1 X129.059 Y106.149 E92.31644
G1 X102.659 Y79.749 E94.77516
G1 X102.646 Y79.751 E94.77602
G1 X101.759 Y79.967 E94.83614
G1 X101.612 Y80.007 E94.84617
G1 X101.445 Y80.062 E94.85775
G1 X129.059 Y107.676 E97.42953
G1 X129.059 Y109.204 E97.53016
G1 X100.311 Y80.456 E100.20755
G1 X99.751 Y80.682 E100.24732
G1 X99.628 Y80.736 E100.25616
G1 X99.25 Y80.922 E100.28391
G1 X129.059 Y110.731 E103.06011
G1 X129.059 Y112.258 E103.16067
G1 X98.257 Y81.456 E106.02936
G1 X97.894 Y81.668 E106.05705
G1 X97.737 Y81.766 E106.06923
G1 X97.325 Y82.051 E106.10222
G1 X129.059 Y113.786 E109.05776
G1 X129.059 Y115.313 E109.15832
G1 X96.454 Y82.708 E112.19492
G1 X96.173 Y82.932 E112.21859
G1 X96.058 Y83.03 E112.22854
G1 X95.639 Y83.42 E112.26624
G1 X129.059 Y116.84 E115.37875
G1 X129.059 Y118.368 E115.47937
G1 X94.874 Y84.183 E118.66313
G1 X94.701 Y84.364 E118.67962
G1 X94.166 Y85.002 E118.73445
G1 X129.059 Y119.895 E121.98414
G1 X129.059 Y121.422 E122.0847
G1 X93.512 Y85.875 E125.39531
G1 X93.408 Y86.023 E125.40722
G1 X93.309 Y86.171 E125.41895
G1 X92.92 Y86.81 E125.46821
G1 X129.059 Y122.95 E128.834
G1 X129.059 Y124.477 E128.93456
G1 X92.388 Y87.806 E132.34984
G1 X92.362 Y87.858 E132.35367
G1 X92.273 Y88.046 E132.36737
G1 X91.94 Y88.834 E132.42371
G1 X91.926 Y88.871 E132.42631
G1 X129.054 Y126 E135.8842
G1 X129.023 Y126.859 E135.94081
G1 X129.012 Y127.009 E135.95072
G1 X128.964 Y127.437 E135.97908
G1 X91.537 Y90.009 E139.46482
G1 X91.303 Y90.907 E139.52593
G1 X91.24 Y91.24 E139.54825
G1 X128.759 Y128.759 E143.04251
G1 X128.695 Y129.091 E143.06478
G1 X128.462 Y129.989 E143.12587
G1 X91.033 Y92.56 E146.61175
G1 X90.986 Y92.989 E146.64018
G1 X90.975 Y93.139 E146.65008
G1 X90.944 Y93.999 E146.70675
G1 X128.073 Y131.128 E150.16469
G1 X128.059 Y131.164 E150.16724
G1 X127.725 Y131.952 E150.2236
G1 X127.637 Y132.141 E150.23733
G1 X127.61 Y132.192 E150.24113
G1 X90.939 Y95.521 E153.65641
G1 X90.939 Y97.048 E153.75697
G1 X127.079 Y133.188 E157.12281
G1 X126.691 Y133.826 E157.17198
G1 X126.591 Y133.976 E157.18385
G1 X126.486 Y134.123 E157.19575
G1 X90.939 Y98.576 E160.50635
G1 X90.939 Y100.103 E160.60691
G1 X125.833 Y134.997 E163.8567
G1 X125.297 Y135.634 E163.91153
G1 X125.124 Y135.816 E163.92806
G1 X90.939 Y101.631 E167.11182
G1 X90.939 Y103.158 E167.21238
G1 X124.359 Y136.578 E170.32489
G1 X123.952 Y136.956 E170.36147
G1 X123.825 Y137.066 E170.37253
G1 X123.544 Y137.291 E170.39624
G1 X90.939 Y104.685 E173.43289
G1 X90.939 Y106.213 E173.53352
G1 X122.673 Y137.947 E176.489
G1 X122.263 Y138.23 E176.52181
G1 X122.104 Y138.331 E176.53422
G1 X121.741 Y138.542 E176.56187
G1 X90.939 Y107.74 E179.43055
G1 X90.939 Y109.267 E179.53112
G1 X120.748 Y139.076 E182.30732
G1 X120.37 Y139.263 E182.33509
G1 X120.247 Y139.317 E182.34394
G1 X119.687 Y139.543 E182.38371
G1 X90.939 Y110.795 E185.0611
G1 X90.939 Y112.322 E185.16166
G1 X118.554 Y139.937 E187.73353
G1 X118.388 Y139.991 E187.74503
G1 X118.24 Y140.031 E187.75512
G1 X117.352 Y140.247 E187.81531
G1 X117.339 Y140.249 E187.81618
G1 X90.939 Y113.849 E190.27489
G1 X90.939 Y115.377 E190.37552
G1 X116.02 Y140.458 E192.71139
G1 X115.24 Y140.531 E192.76298
G1 X115.103 Y140.538 E192.77201
G1 X114.587 Y140.552 E192.80601
G1 X90.939 Y116.904 E195.00842
G1 X90.939 Y118.431 E195.10898
G1 X113.066 Y140.558 E197.16974
G1 X111.539 Y140.558 E197.2703
G1 X90.939 Y119.959 E199.18879
G1 X90.939 Y121.486 E199.28935
G1 X110.011 Y140.558 E201.06559
G1 X108.483 Y140.557 E201.16622
G1 X90.939 Y123.013 E202.80014
G1 X90.939 Y124.541 E202.90077
G1 X106.956 Y140.557 E204.39244
G1 X105.628 Y140.557 E204.47989
G1 X105.42 Y140.549 E204.4936
G1 X90.945 Y126.075 E205.84166
G1 X90.96 Y126.601 E205.87631
G1 X90.967 Y126.737 E205.88528
G1 X91.052 Y127.647 E205.94547
G1 X91.06 Y127.716 E205.95004
G1 X103.777 Y140.433 E207.13442
G1 X103.603 Y140.414 E207.14594
G1 X103.42 Y140.387 E207.15812
G1 X102.407 Y140.195 E207.22602
G1 X101.87 Y140.054 E207.26259
G1 X91.437 Y129.621 E208.23424
G1 X91.466 Y129.739 E208.24225
G1 X91.507 Y129.886 E208.2523
G1 X91.783 Y130.746 E208.31178
G1 X91.834 Y130.889 E208.32177
G1 X92.177 Y131.738 E208.38208
G1 X92.232 Y131.863 E208.39107
G1 X92.309 Y132.021 E208.40264
G1 X99.484 Y139.195 E209.07083
G1 X99.357 Y139.136 E209.08005
G1 X98.574 Y138.733 E209.13804
G1 X98.451 Y138.662 E209.1474
G1 X97.671 Y138.189 E209.20747
G1 X97.523 Y138.09 E209.2192
G1 X96.806 Y137.578 E209.27722
G1 X96.669 Y137.472 E209.28862
G1 X95.855 Y136.788 E209.35864
G1 X95.182 Y136.142 E209.42008
G1 X94.53 Y135.439 E209.48322
G1 X94.422 Y135.314 E209.4941
G1 X93.875 Y134.63 E209.55178
G1 X93.758 Y134.474 E209.56462
G1 X93.267 Y133.76 E209.62168
G1 X93.167 Y133.604 E209.63389
G1 X92.711 Y132.824 E209.69339
G1 X92.64 Y132.694 E209.70314
G1 F2700 E204.70314
G1 F600 Z0.524
G0 F12000 X102.164 Y140.36 Z0.524
;TIME_ELAPSED:139.983002
;LAYER:-4
G0 X102.164 Y140.36 Z0.644
;TYPE:SUPPORT-INTERFACE
G1 F600 Z0.444
G1 F2700 E209.70314
G1 F2400 X117.825 Y140.36 E210.04693
G1 X117.404 Y140.462 E210.05644
G1 X117.246 Y140.495 E210.05998
G1 X116.339 Y140.645 E210.08016
