;FLAVOR:Marlin
;TIME:2147
;Filament used: 0.892712m
;Layer height: 0.12
;MINX:87.762
;MINY:87.765
;MINZ:0.144
;MAXX:132.232
;MAXY:132.234
;MAXZ:16.874
;Generated with Cura_SteamEngine 4.2.1
M140 S60
M105
M190 S60
M104 S200
M105
M109 S200
M82 ;absolute extrusion mode
M201 X500.00 Y500.00 Z100.00 E5000.00 ;Setup machine max acceleration
M203 X500.00 Y500.00 Z10.00 E50.00 ;Setup machine max feedrate
M204 P500.00 R1000.00 T500.00 ;Setup Print/Retract/Travel acceleration
M205 X8.00 Y8.00 Z0.40 E5.00 ;Setup Jerk
M220 S100 ;Reset Feedrate
M221 S100 ;Reset Flowrate

G28 ;Home

G92 E0 ;Reset Extruder
G1 Z2.0 F3000 ;Move Z Axis up
G1 X10.1 Y20 Z0.28 F5000.0 ;Move to start position
G1 X10.1 Y200.0 Z0.28 F1500.0 E15 ;Draw the first line
G1 X10.4 Y200.0 Z0.28 F5000.0 ;Move to side a little
G1 X10.4 Y20 Z0.28 F1500.0 E30 ;Draw the second line
G92 E0 ;Reset Extruder
G1 Z2.0 F3000 ;Move Z Axis up

G92 E0
G92 E0
G1 F2700 E-5
;LAYER_COUNT:133
;LAYER:-6
M107
G0 F12000 X94.476 Y94.34 Z0.144
;TYPE:SUPPORT-INTERFACE
G1 F2700 E0
G1 F1800 X95.515 Y93.366 E0.06821
G1 X95.606 Y93.289 E0.07392
G1 X96.223 Y92.786 E0.11204
G1 X97.294 Y91.971 E0.1765
G1 X97.441 Y91.869 E0.18507
G1 X98.183 Y91.383 E0.22755
G1 X99.411 Y90.652 E0.296
G1 X100.057 Y90.318 E0.33083
G1 X101.387 Y89.692 E0.40123
G1 X101.61 Y89.602 E0.41275
G1 X102.382 Y89.307 E0.45233
G1 X103.536 Y88.912 E0.51075
G1 X103.769 Y88.843 E0.52239
G1 X104.587 Y88.623 E0.56296
G1 X105.864 Y88.333 E0.62568
G1 X106.019 Y88.305 E0.63322
G1 X107.004 Y88.156 E0.68094
G1 X108.128 Y88.021 E0.73516
G1 X108.992 Y87.967 E0.77662
G1 X109.637 Y87.945 E0.80753
G1 X110.413 Y87.946 E0.8447
G1 X110.679 Y87.954 E0.85744
G1 X111.579 Y88.006 E0.90062
G1 X112.904 Y88.133 E0.96437
G1 X113.932 Y88.303 E1.01427
G1 X115.181 Y88.558 E1.07533
G1 X115.34 Y88.598 E1.08318
G1 X116.356 Y88.889 E1.1338
G1 X117.317 Y89.191 E1.18204
G1 X117.535 Y89.27 E1.19315
G1 X118.405 Y89.615 E1.23797
G1 X118.771 Y89.798 E1.25757
G1 X118.778 Y89.778 E1.25859
G1 X119.604 Y90.142 E1.30182
G1 X119.76 Y90.219 E1.31015
G1 X120.552 Y90.635 E1.353
G1 X121.664 Y91.279 E1.41454
G1 X121.86 Y91.404 E1.42568
G1 X122.485 Y91.822 E1.46169
G1 X123.641 Y92.666 E1.53024
G1 X123.754 Y92.757 E1.53719
G1 X124.389 Y93.289 E1.57687
G1 X125.352 Y94.159 E1.63902
G1 X125.5 Y94.307 E1.64905
G1 X126.052 Y94.879 E1.68712
G1 X126.945 Y95.877 E1.75126
G1 X127.05 Y96.005 E1.75919
G1 X127.566 Y96.668 E1.79943
G1 X128.294 Y97.676 E1.85898
G1 X128.501 Y97.989 E1.87695
G1 X128.878 Y98.599 E1.9113
G1 X129.565 Y99.812 E1.97807
G1 X129.893 Y100.473 E2.01341
G1 X130.158 Y101.045 E2.0436
G1 X130.48 Y101.806 E2.08318
G1 X130.564 Y102.022 E2.09428
G1 X130.884 Y102.918 E2.13984
G1 X131.293 Y104.237 E2.20598
G1 X131.528 Y105.238 E2.25523
G1 X131.771 Y106.446 E2.31425
G1 X131.794 Y106.605 E2.32194
G1 X131.9 Y107.419 E2.36126
G1 X132.019 Y108.656 E2.42078
G1 X132.03 Y108.889 E2.43195
G1 X132.052 Y109.813 E2.47621
G1 X132.029 Y111.144 E2.53997
G1 X132.021 Y111.275 E2.54626
G1 X131.947 Y112.169 E2.58922
G1 X131.802 Y113.359 E2.64664
G1 X131.77 Y113.556 E2.6562
G1 X131.606 Y114.422 E2.69841
G1 X131.321 Y115.662 E2.75935
G1 X131.254 Y115.9 E2.77119
G1 X130.994 Y116.753 E2.8139
G1 X130.518 Y118.096 E2.88214
G1 X130.192 Y118.866 E2.92219
G1 X129.65 Y120.026 E2.98351
G1 X129.568 Y120.183 E2.992
G1 X129.113 Y121.003 E3.03691
G1 X128.475 Y122.05 E3.09563
G1 X128.355 Y122.233 E3.10612
G1 X128.31 Y122.299 E3.10994
G1 X127.822 Y122.99 E3.15046
G1 X127.039 Y124.011 E3.21208
G1 X126.935 Y124.136 E3.21987
G1 X126.401 Y124.742 E3.25855
G1 X125.455 Y125.74 E3.32442
G1 X125.294 Y125.894 E3.33509
G1 X124.656 Y126.478 E3.37651
G1 X123.709 Y127.282 E3.43601
G1 X123.581 Y127.382 E3.44379
G1 X122.879 Y127.903 E3.48566
G1 X121.78 Y128.651 E3.54933
G1 X121.573 Y128.777 E3.56094
G1 X120.908 Y129.167 E3.59786
G1 X119.726 Y129.8 E3.66208
G1 X119.536 Y129.89 E3.67215
G1 X118.833 Y130.205 E3.70904
G1 X117.474 Y130.753 E3.77922
G1 X117.257 Y130.828 E3.79022
G1 X116.5 Y131.072 E3.82831
G1 X115.346 Y131.4 E3.88577
G1 X115.159 Y131.445 E3.89498
G1 X114.277 Y131.633 E3.93818
G1 X113.037 Y131.849 E3.99846
G1 X112.869 Y131.87 E4.00657
G1 X111.911 Y131.969 E4.0527
G1 X110.825 Y132.042 E4.10483
G1 X110.388 Y132.054 E4.12576
G1 X109.54 Y132.053 E4.16638
G1 X109.195 Y132.044 E4.18291
G1 X108.164 Y131.98 E4.23238
G1 X107.218 Y131.876 E4.27796
G1 X106.118 Y131.715 E4.33121
G1 X105.936 Y131.681 E4.34008
G1 X104.934 Y131.462 E4.3892
G1 X103.696 Y131.138 E4.45049
G1 X103.484 Y131.072 E4.46113
G1 X102.757 Y130.827 E4.49787
G1 X101.425 Y130.323 E4.56608
G1 X101.229 Y130.237 E4.57633
G1 X100.478 Y129.891 E4.61593
G1 X99.478 Y129.386 E4.66959
G1 X99.267 Y129.268 E4.68117
G1 X98.342 Y128.711 E4.73288
G1 X97.376 Y128.088 E4.78793
G1 X97.191 Y127.956 E4.79882
G1 X96.501 Y127.437 E4.84017
G1 X95.494 Y126.616 E4.9024
G1 X95.321 Y126.461 E4.91352
G1 X94.801 Y125.975 E4.94761
G1 X93.852 Y125.025 E5.01193
G1 X93.701 Y124.859 E5.02267
G1 X93.189 Y124.271 E5.06002
G1 X92.347 Y123.226 E5.12429
G1 X92.225 Y123.059 E5.1342
G1 X91.727 Y122.344 E5.17593
G1 X91.043 Y121.277 E5.23663
G1 X90.93 Y121.083 E5.24738
G1 X90.529 Y120.35 E5.2874
G1 X89.966 Y119.228 E5.34752
G1 X89.731 Y118.692 E5.37555
G1 X89.37 Y117.8 E5.42164
G1 X89.036 Y116.851 E5.46983
G1 X88.787 Y116.018 E5.51147
G1 X88.431 Y114.603 E5.58135
G1 X88.326 Y114.084 E5.60671
G1 X88.163 Y113.103 E5.65434
G1 X88.063 Y112.275 E5.69429
G1 X87.992 Y111.307 E5.74077
G1 X87.943 Y110.109 E5.7982
G1 X87.955 Y109.329 E5.83556
G1 X87.989 Y108.562 E5.87233
G1 X88.07 Y107.648 E5.91628
G1 X88.148 Y107.01 E5.94706
G1 X88.255 Y106.299 E5.9815
G1 X88.399 Y105.536 E6.01869
G1 X88.6 Y104.662 E6.06164
G1 X88.802 Y103.908 E6.09903
G1 X89.046 Y103.114 E6.13881
G1 X89.302 Y102.384 E6.17586
G1 X89.548 Y101.742 E6.20879
G1 X89.922 Y100.869 E6.25428
G1 X90.156 Y100.378 E6.28033
G1 X90.419 Y99.853 E6.30845
G1 X90.952 Y98.879 E6.36163
G1 X91.363 Y98.206 E6.3994
G1 X91.777 Y97.573 E6.43562
G1 X92.158 Y97.032 E6.46731
G1 X92.294 Y96.848 E6.47827
G1 X92.905 Y96.076 E6.52543
G1 X93.802 Y95.028 E6.59149
G1 X93.906 Y94.919 E6.59871
G1 X94.476 Y94.34 E6.63762
G0 F12000 X94.4 Y94.417
G1 F1800 X94.4 Y125.573 E8.12983
G1 F2700 E3.12983
G1 F600 Z0.344
G0 F12000 X96 Y127.028 Z0.344
G1 F600 Z0.144
G1 F2700 E8.12983
G1 F1800 X96 Y92.967 E9.76117
G1 F2700 E4.76117
G1 F600 Z0.344
G0 F12000 X97.6 Y91.764 Z0.344
G1 F600 Z0.144
G1 F2700 E9.76117
G1 F1800 X97.6 Y128.232 E11.50779
G1 F2700 E6.50779
G1 F600 Z0.344
G0 F12000 X99.2 Y129.227 Z0.344
G1 F600 Z0.144
G1 F2700 E11.50779
G1 F1800 X99.2 Y90.777 E13.34933
G1 F2700 E8.34933
G1 F600 Z0.344
G0 F12000 X100.8 Y89.968 Z0.344
G1 F600 Z0.144
G1 F2700 E13.34933
G1 F1800 X100.8 Y130.039 E15.26852
G1 F2700 E10.26852
G1 F600 Z0.344
G0 F12000 X102.4 Y130.691 Z0.344
G1 F600 Z0.144
G1 F2700 E15.26852
G1 F1800 X102.4 Y89.3 E17.25092
G1 F2700 E12.25092
G1 F600 Z0.344
G0 F12000 X104 Y88.78 Z0.344
G1 F600 Z0.144
G1 F2700 E17.25092
G1 F1800 X104 Y131.217 E19.28342
G1 F2700 E14.28342
G1 F600 Z0.344
G0 F12000 X105.6 Y131.607 Z0.344
G1 F600 Z0.144
G1 F2700 E19.28342
G1 F1800 X105.6 Y88.392 E21.35319
G1 F2700 E16.35319
G1 F600 Z0.344
G0 F12000 X107.2 Y88.132 Z0.344
G1 F600 Z0.144
G1 F2700 E21.35319
G1 F1800 X107.2 Y131.873 E23.44815
G1 F2700 E18.44815
G1 F600 Z0.344
G0 F12000 X108.8 Y132.019 Z0.344
G1 F600 Z0.144
G1 F2700 E23.44815
G1 F1800 X108.8 Y87.979 E25.55743
G1 F2700 E20.55743
G1 F600 Z0.344
G0 F12000 X110.4 Y87.946 Z0.344
G1 F600 Z0.144
G1 F2700 E25.55743
G1 F1800 X110.4 Y132.054 E27.66996
G1 F2700 E22.66996
G1 F600 Z0.344
G0 F12000 X112 Y131.96 Z0.344
G1 F600 Z0.144
G1 F2700 E27.66996
G1 F1800 X112 Y88.047 E29.77316
G1 F2700 E24.77316
G1 F600 Z0.344
G0 F12000 X113.6 Y88.249 Z0.344
G1 F600 Z0.144
G1 F2700 E29.77316
G1 F1800 X113.6 Y131.751 E31.85667
G1 F2700 E26.85667
G1 F600 Z0.344
G0 F12000 X115.2 Y131.436 Z0.344
G1 F600 Z0.144
G1 F2700 E31.85667
G1 F1800 X115.2 Y88.563 E33.91005
G1 F2700 E28.91005
G1 F600 Z0.344
G0 F12000 X116.8 Y89.029 Z0.344
G1 F600 Z0.144
G1 F2700 E33.91005
G1 F1800 X116.8 Y130.976 E35.91909
G1 F2700 E30.91909
G1 F600 Z0.344
G0 F12000 X118.4 Y130.38 Z0.344
G1 F600 Z0.144
G1 F2700 E35.91909
G1 F1800 X118.4 Y89.614 E37.87156
G1 F2700 E32.87156
G1 F600 Z0.344
G0 F12000 X120 Y90.346 Z0.344
G1 F600 Z0.144
G1 F2700 E37.87156
G1 F1800 X120 Y129.654 E39.7542
G1 F2700 E34.7542
G1 F600 Z0.344
G0 F12000 X121.6 Y128.761 Z0.344
G1 F600 Z0.144
G1 F2700 E39.7542
G1 F1800 X121.6 Y91.242 E41.55115
G1 F2700 E36.55115
G1 F600 Z0.344
G0 F12000 X123.2 Y92.345 Z0.344
G1 F600 Z0.144
G1 F2700 E41.55115
G1 F1800 X123.2 Y127.665 E43.24279
G1 F2700 E38.24279
G1 F600 Z0.344
G0 F12000 X124.8 Y126.347 Z0.344
G1 F600 Z0.144
G1 F2700 E43.24279
G1 F1800 X124.8 Y93.661 E44.80827
G1 F2700 E39.80827
G1 F600 Z0.344
G0 F12000 X126.4 Y95.268 Z0.344
G1 F600 Z0.144
G1 F2700 E44.80827
G1 F1800 X126.4 Y124.744 E46.22002
G1 F2700 E41.22002
G1 F600 Z0.344
G0 F12000 X128 Y122.738 Z0.344
G1 F600 Z0.144
G1 F2700 E46.22002
G1 F1800 X128 Y97.269 E47.43984
G1 F2700 E42.43984
G1 F600 Z0.344
G0 F12000 X129.6 Y99.883 Z0.344
G1 F600 Z0.144
G1 F2700 E47.43984
G1 F1800 X129.6 Y120.122 E48.40918
G1 F2700 E43.40918
G1 F600 Z0.344
G0 F12000 X131.2 Y116.078 Z0.344
G1 F600 Z0.144
G1 F2700 E48.40918
G1 F1800 X131.2 Y103.938 E48.99062
G1 F2700 E43.99062
G1 F600 Z0.344
G0 F12000 X92.8 Y96.208 Z0.344
G1 F600 Z0.144
G1 F2700 E48.99062
G1 F1800 X92.8 Y123.788 E50.31155
G1 F2700 E45.31155
G1 F600 Z0.344
G0 F12000 X91.2 Y121.521 Z0.344
G1 F600 Z0.144
G1 F2700 E50.31155
G1 F1800 X91.2 Y98.472 E51.41548
G1 F2700 E46.41548
G1 F600 Z0.344
G0 F12000 X89.6 Y101.62 Z0.344
G1 F600 Z0.144
G1 F2700 E51.41548
G1 F1800 X89.6 Y118.368 E52.21762
G1 F2700 E47.21762
G1 F600 Z0.344
G0 F12000 X88 Y111.416 Z0.344
G1 F600 Z0.144
G1 F2700 E52.21762
G1 F1800 X88 Y108.437 E52.36029
G1 F2700 E47.36029
G1 F600 Z0.344
G0 F12000 X91.76 Y122.32 Z0.344
;TIME_ELAPSED:54.373846
;LAYER:-5
M140 S60
G0 X91.76 Y122.32 Z0.524
;TYPE:SUPPORT
G1 F600 Z0.324
G1 F2700 E52.36029
G1 F1800 X92.257 Y123.035 E52.41764
G1 X92.379 Y123.2 E52.43115
G1 X93.22 Y124.243 E52.51939
G1 X93.731 Y124.831 E52.57069
G1 X93.889 Y125.006 E52.58622
G1 X94.827 Y125.944 E52.67357
G1 X95.352 Y126.435 E52.72091
G1 X95.429 Y126.504 E52.72772
G1 X96.525 Y127.404 E52.82112
G1 X97.213 Y127.921 E52.87779
G1 X97.399 Y128.054 E52.89285
G1 X97.705 Y128.252 E52.91685
G1 X91.737 Y122.284 E53.47267
G1 X91.077 Y121.255 E53.55318
G1 X90.964 Y121.06 E53.56802
G1 X90.564 Y120.33 E53.62284
G1 X89.998 Y119.203 E53.70589
G1 X89.924 Y119.035 E53.71798
G1 X89.854 Y118.874 E53.72954
G1 X101.123 Y130.143 E54.77906
G1 X101.249 Y130.201 E54.78819
G1 X101.45 Y130.288 E54.80261
G1 X102.77 Y130.787 E54.89555
G1 X103.497 Y131.033 E54.94609
G1 X103.56 Y131.053 E54.95044
G1 X88.958 Y116.45 E56.31042
G1 X88.826 Y116.007 E56.34086
G1 X88.469 Y114.593 E56.4369
G1 X88.429 Y114.394 E56.45027
G1 X105.601 Y131.566 E58.04955
G1 X105.92 Y131.636 E58.07106
G1 X106.124 Y131.673 E58.08471
G1 X107.222 Y131.835 E58.1578
G1 X107.419 Y131.857 E58.17086
G1 X88.139 Y112.577 E59.96647
G1 X88.102 Y112.27 E59.98683
G1 X88.031 Y111.304 E60.05062
G1 X88.016 Y110.926 E60.07553
G1 X109.086 Y131.996 E62.03784
G1 X109.197 Y132.003 E62.04517
G1 X109.54 Y132.012 E62.06777
G1 X110.387 Y132.013 E62.12354
G1 X110.623 Y132.006 E62.13909
G1 X87.993 Y109.376 E64.2467
G1 X87.994 Y109.329 E64.24979
G1 X88.028 Y108.564 E64.30022
G1 X88.084 Y107.939 E64.34154
G1 X112.056 Y131.912 E66.57418
G1 X112.864 Y131.829 E66.62767
G1 X113.409 Y131.737 E66.66407
G1 X88.251 Y106.579 E69.00711
G1 X88.291 Y106.314 E69.02476
G1 X88.437 Y105.542 E69.0765
G1 X88.492 Y105.293 E69.0933
G1 X114.7 Y131.501 E71.53413
G1 X115.147 Y131.406 E71.56422
G1 X115.335 Y131.361 E71.57695
G1 X115.92 Y131.194 E71.61702
G1 X88.798 Y104.071 E74.14302
G1 X88.839 Y103.919 E74.15339
G1 X89.084 Y103.125 E74.20811
G1 X89.16 Y102.906 E74.22338
G1 X117.091 Y130.838 E76.82472
G1 X117.243 Y130.789 E76.83524
G1 X117.451 Y130.718 E76.84972
G1 X118.198 Y130.417 E76.90275
G1 X89.572 Y101.79 E79.56883
G1 X89.587 Y101.751 E79.57158
G1 X89.958 Y100.885 E79.63362
G1 X90.033 Y100.725 E79.64526
G1 X119.271 Y129.963 E82.36829
G1 X119.527 Y129.848 E82.38677
G1 X119.702 Y129.766 E82.3995
G1 X120.287 Y129.451 E82.44325
G1 X90.542 Y99.707 E85.21345
G1 X90.985 Y98.899 E85.27413
G1 X91.09 Y98.726 E85.28746
G1 X121.269 Y128.906 E88.09817
G1 X121.555 Y128.738 E88.12002
G1 X121.748 Y128.622 E88.13484
G1 X122.202 Y128.312 E88.17105
G1 X91.68 Y97.79 E91.01366
G1 X91.805 Y97.599 E91.02869
G1 X92.19 Y97.055 E91.07258
G1 X92.309 Y96.892 E91.08587
G1 X123.103 Y127.685 E93.95377
G1 X123.557 Y127.349 E93.99096
G1 X123.69 Y127.244 E94.00212
G1 X123.96 Y127.014 E94.02548
G1 X92.986 Y96.041 E96.91014
G1 X93.69 Y95.218 E96.98146
G1 X124.781 Y126.308 E99.87702
G1 X125.263 Y125.866 E99.92008
G1 X125.427 Y125.711 E99.93494
G1 X125.565 Y125.565 E99.94817
G1 X94.436 Y94.436 E102.84731
G1 X94.51 Y94.361 E102.85425
G1 X95.222 Y93.695 E102.91846
G1 X126.309 Y124.781 E105.81364
G1 X126.374 Y124.712 E105.81988
G1 X126.903 Y124.111 E105.87261
G1 X127.021 Y123.966 E105.88492
G1 X96.041 Y92.986 E108.77019
G1 X96.286 Y92.787 E108.79097
G1 X96.901 Y92.319 E108.84187
G1 X127.683 Y123.101 E111.70869
G1 X127.853 Y122.878 E111.72716
G1 X128.276 Y122.275 E111.77566
G1 X128.317 Y122.208 E111.78084
G1 X97.794 Y91.684 E114.62359
G1 X98.195 Y91.421 E114.65517
G1 X98.736 Y91.1 E114.69659
G1 X128.902 Y121.265 E117.506
G1 X129.078 Y120.981 E117.528
G1 X129.459 Y120.295 E117.57968
G1 X99.707 Y90.543 E120.35058
G1 X100.054 Y90.363 E120.37632
G1 X100.735 Y90.044 E120.42584
G1 X129.959 Y119.267 E123.14752
G1 X130.154 Y118.849 E123.1779
G1 X130.426 Y118.207 E123.22381
G1 X101.793 Y89.574 E125.89049
G1 X102.394 Y89.345 E125.93285
G1 X102.913 Y89.167 E125.96898
G1 X130.835 Y117.089 E128.56945
G1 X130.956 Y116.739 E128.59383
G1 X131.202 Y115.929 E128.64958
G1 X104.074 Y88.801 E131.1761
G1 X104.585 Y88.664 E131.21094
G1 X105.302 Y88.501 E131.25936
G1 X131.5 Y114.699 E133.69926
G1 X131.566 Y114.413 E133.71859
G1 X131.728 Y113.555 E133.77609
G1 X131.746 Y113.417 E133.78526
G1 X106.584 Y88.256 E136.12863
G1 X106.839 Y88.215 E136.14564
G1 X107.939 Y88.083 E136.2186
G1 X131.915 Y112.06 E138.4516
G1 X131.98 Y111.271 E138.50374
G1 X131.988 Y111.143 E138.51218
G1 X131.998 Y110.615 E138.54696
G1 X109.377 Y87.994 E140.65373
G1 X109.638 Y87.985 E140.67093
G1 X110.411 Y87.986 E140.72183
G1 X110.676 Y87.993 E140.73929
G1 X110.918 Y88.007 E140.75525
G1 X131.994 Y109.083 E142.71813
G1 X131.989 Y108.889 E142.73091
G1 X131.977 Y108.658 E142.74614
G1 X131.86 Y107.422 E142.8279
G1 X112.576 Y88.138 E144.62388
G1 X112.767 Y88.155 E144.63651
G1 X112.987 Y88.186 E144.65114
G1 X113.899 Y88.337 E144.71202
G1 X114.409 Y88.444 E144.74633
G1 X131.555 Y105.59 E146.34319
G1 X131.487 Y105.245 E146.36635
G1 X131.283 Y104.365 E146.42584
G1 X131.219 Y104.121 E146.44245
G1 X131.038 Y103.546 E146.48215
G1 X116.454 Y88.961 E147.84045
G1 X117.294 Y89.224 E147.89842
G1 X117.519 Y89.306 E147.91419
G1 X118.379 Y89.648 E147.97514
G1 X118.793 Y89.854 E148.00559
G1 X118.8 Y89.831 E148.00717
G1 X118.891 Y89.871 E148.01372
G1 X130.15 Y101.131 E149.06235
G1 X130.121 Y101.061 E149.06734
G1 X129.855 Y100.489 E149.10889
G1 X129.524 Y99.821 E149.15798
G1 X128.848 Y98.629 E149.24822
G1 X128.469 Y98.015 E149.29574
G1 X128.407 Y97.919 E149.30327
G1 X128.26 Y97.713 E149.31993
G1 X122.284 Y91.737 E149.8765
G1 X122.468 Y91.86 E149.89107
G1 X123.616 Y92.697 E149.98464
G1 X123.728 Y92.786 E149.99406
G1 X124.36 Y93.319 E150.0485
G1 X125.323 Y94.186 E150.13384
