;FLAVOR:Marlin
;TIME:2203
;Filament used: 0.889882m
;Layer height: 0.12
;MINX:87.772
;MINY:87.767
;MINZ:0.144
;MAXX:132.235
;MAXY:132.224
;MAXZ:15.674
;Generated with Cura_SteamEngine 4.2.1
M140 S60
M105
M190 S60
M104 S200
M105
M109 S200
M82 ;absolute extrusion mode
M201 X500.00 Y500.00 Z100.00 E5000.00 ;Setup machine max acceleration
M203 X500.00 Y500.00 Z10.00 E50.00 ;Setup machine max feedrate
M204 P500.00 R1000.00 T500.00 ;Setup Print/Retract/Travel acceleration
M205 X8.00 Y8.00 Z0.40 E5.00 ;Setup Jerk
M220 S100 ;Reset Feedrate
M221 S100 ;Reset Flowrate

G28 ;Home

G92 E0 ;Reset Extruder
G1 Z2.0 F3000 ;Move Z Axis up
G1 X10.1 Y20 Z0.28 F5000.0 ;Move to start position
G1 X10.1 Y200.0 Z0.28 F1500.0 E15 ;Draw the first line
G1 X10.4 Y200.0 Z0.28 F5000.0 ;Move to side a little
G1 X10.4 Y20 Z0.28 F1500.0 E30 ;Draw the second line
G92 E0 ;Reset Extruder
G1 Z2.0 F3000 ;Move Z Axis up

G92 E0
G92 E0
G1 F2700 E-5
;LAYER_COUNT:123
;LAYER:-6
M107
G0 F12000 X94.608 Y94.204 Z0.144
;TYPE:SUPPORT-INTERFACE
G1 F2700 E0
G1 F1800 X94.972 Y93.863 E0.02389
G1 X95.622 Y93.281 E0.06568
G1 X96.358 Y92.667 E0.11158
G1 X96.481 Y92.571 E0.11905
G1 X96.952 Y92.223 E0.1471
G1 X97.644 Y91.735 E0.18766
G1 X98.582 Y91.129 E0.24114
G1 X99.023 Y90.875 E0.26552
G1 X99.789 Y90.456 E0.30733
G1 X100.773 Y89.964 E0.36003
G1 X101.286 Y89.743 E0.38678
G1 X102.08 Y89.42 E0.42783
G1 X103.12 Y89.042 E0.48083
G1 X103.651 Y88.882 E0.50739
G1 X104.512 Y88.643 E0.55019
G1 X105.564 Y88.393 E0.60198
G1 X106.117 Y88.293 E0.62889
G1 X106.948 Y88.161 E0.66919
G1 X108.015 Y88.031 E0.72067
G1 X108.554 Y87.995 E0.74655
G1 X109.41 Y87.956 E0.78759
G1 X110.533 Y87.948 E0.84137
G1 X111.105 Y87.975 E0.8688
G1 X111.962 Y88.034 E0.90994
G1 X113.08 Y88.158 E0.96382
G1 X113.639 Y88.251 E0.99096
G1 X114.55 Y88.425 E1.03538
G1 X115.608 Y88.666 E1.08735
G1 X116.175 Y88.831 E1.11563
G1 X117.046 Y89.106 E1.15938
G1 X118.058 Y89.468 E1.21086
G1 X118.623 Y89.706 E1.24022
G1 X119.404 Y90.056 E1.28121
G1 X120.369 Y90.533 E1.33277
G1 X120.803 Y90.777 E1.35661
G1 X121.556 Y91.22 E1.39845
G1 X122.503 Y91.827 E1.45233
G1 X123.002 Y92.19 E1.48188
G1 X123.668 Y92.696 E1.52194
G1 X124.528 Y93.403 E1.57526
G1 X124.943 Y93.783 E1.60221
G1 X125.541 Y94.356 E1.64188
G1 X126.323 Y95.163 E1.6957
G1 X126.675 Y95.57 E1.72147
G1 X127.236 Y96.247 E1.76358
G1 X128.187 Y97.527 E1.83996
G1 X128.607 Y98.161 E1.87638
G1 X129.16 Y99.067 E1.92722
G1 X129.453 Y99.608 E1.95668
G1 X129.807 Y100.3 E1.99391
G1 X130.28 Y101.315 E2.04755
G1 X130.531 Y101.941 E2.07985
G1 X130.782 Y102.614 E2.11425
G1 X131.105 Y103.578 E2.16294
G1 X131.313 Y104.327 E2.20017
G1 X131.492 Y105.053 E2.23599
G1 X131.683 Y105.935 E2.27921
G1 X131.827 Y106.846 E2.32338
G1 X131.919 Y107.557 E2.35772
G1 X132.014 Y108.59 E2.4074
G1 X132.047 Y109.483 E2.4502
G1 X132.055 Y110.052 E2.47746
G1 X132.039 Y110.974 E2.52162
G1 X131.975 Y111.883 E2.56527
G1 X131.907 Y112.556 E2.59766
G1 X131.778 Y113.526 E2.64453
G1 X131.622 Y114.349 E2.68465
G1 X131.467 Y115.059 E2.71945
G1 X131.254 Y115.912 E2.76156
G1 X130.991 Y116.766 E2.80436
G1 X130.757 Y117.453 E2.83912
G1 X130.424 Y118.337 E2.88436
G1 X130.124 Y119.032 E2.92062
G1 X129.825 Y119.666 E2.95419
G1 X129.672 Y119.974 E2.97066
G1 X129.365 Y120.564 E3.00252
G1 X128.951 Y121.281 E3.04217
G1 X128.49 Y122.025 E3.08409
G1 X127.965 Y122.802 E3.129
G1 X127.537 Y123.376 E3.1633
G1 X127.249 Y123.742 E3.1856
G1 X126.63 Y124.476 E3.23159
G1 X126.532 Y124.583 E3.23854
G1 X125.894 Y125.236 E3.28226
G1 X125.759 Y125.363 E3.29114
G1 X125.408 Y125.702 E3.31451
G1 X125.017 Y126.115 E3.34175
G1 X124.864 Y126.263 E3.35195
G1 X123.726 Y127.263 E3.4245
G1 X123.462 Y127.473 E3.44066
G1 X122.448 Y128.211 E3.50073
G1 X121.867 Y128.586 E3.53385
G1 X121.524 Y128.801 E3.55323
G1 X120.294 Y129.509 E3.62121
G1 X119.323 Y129.983 E3.67296
G1 X118.242 Y130.462 E3.72959
G1 X118.134 Y130.504 E3.73514
G1 X116.922 Y130.936 E3.79676
G1 X115.571 Y131.343 E3.86434
G1 X114.482 Y131.59 E3.91782
G1 X113.333 Y131.806 E3.97382
G1 X112.529 Y131.908 E4.01263
G1 X111.883 Y131.974 E4.04373
G1 X110.833 Y132.043 E4.09413
G1 X109.462 Y132.044 E4.1598
G1 X108.314 Y131.995 E4.21483
G1 X108.176 Y131.982 E4.22147
G1 X106.974 Y131.842 E4.27943
G1 X105.711 Y131.636 E4.34072
G1 X104.505 Y131.354 E4.40003
G1 X103.264 Y131.006 E4.46176
G1 X102.66 Y130.796 E4.49239
G1 X101.966 Y130.538 E4.52785
G1 X100.906 Y130.096 E4.58286
G1 X100.292 Y129.801 E4.61548
G1 X99.63 Y129.462 E4.6511
G1 X98.693 Y128.94 E4.70248
G1 X98.063 Y128.54 E4.73822
G1 X97.625 Y128.25 E4.76338
G1 X96.549 Y127.483 E4.82666
G1 X96.088 Y127.111 E4.85504
G1 X95.495 Y126.612 E4.89215
G1 X94.588 Y125.78 E4.9511
G1 X93.829 Y124.989 E5.00361
G1 X92.873 Y123.902 E5.07294
G1 X92.468 Y123.374 E5.10481
G1 X92.117 Y122.904 E5.13291
G1 X91.37 Y121.808 E5.19643
G1 X91.107 Y121.37 E5.2209
G1 X90.685 Y120.638 E5.26137
G1 X90.182 Y119.686 E5.31294
G1 X89.932 Y119.141 E5.34165
G1 X89.599 Y118.367 E5.38201
G1 X89.258 Y117.498 E5.42672
G1 X89.195 Y117.322 E5.43567
G1 X89.036 Y116.833 E5.4603
G1 X88.78 Y115.991 E5.50245
G1 X88.513 Y114.983 E5.55239
G1 X88.411 Y114.492 E5.57641
G1 X88.255 Y113.653 E5.61728
G1 X88.053 Y112.15 E5.68992
G1 X88.005 Y111.56 E5.71827
G1 X87.974 Y111.027 E5.74384
G1 X87.953 Y109.58 E5.81315
G1 X87.971 Y109.046 E5.83874
G1 X88.001 Y108.511 E5.8644
G1 X88.156 Y106.994 E5.93744
G1 X88.291 Y106.146 E5.97856
G1 X88.617 Y104.607 E6.05391
G1 X88.905 Y103.58 E6.10499
G1 X89.424 Y102.076 E6.1812
G1 X89.726 Y101.331 E6.2197
G1 X90.172 Y100.338 E6.27183
G1 X90.433 Y99.835 E6.29898
G1 X90.869 Y99.038 E6.34249
G1 X91.411 Y98.128 E6.39321
G1 X91.705 Y97.692 E6.4184
G1 X92.229 Y96.948 E6.46199
G1 X92.881 Y96.09 E6.5136
G1 X93.235 Y95.676 E6.53969
G1 X93.828 Y95.011 E6.58236
G1 X94.608 Y94.204 E6.63611
G0 F12000 X94.4 Y94.419
G1 F1800 X94.4 Y125.584 E8.12875
G1 F2700 E3.12875
G1 F600 Z0.344
G0 F12000 X96 Y127.036 Z0.344
G1 F600 Z0.144
G1 F2700 E8.12875
G1 F1800 X96 Y92.965 E9.76057
G1 F2700 E4.76057
G1 F600 Z0.344
G0 F12000 X97.6 Y91.766 Z0.344
G1 F600 Z0.144
G1 F2700 E9.76057
G1 F1800 X97.6 Y128.232 E11.50709
G1 F2700 E6.50709
G1 F600 Z0.344
G0 F12000 X99.2 Y129.222 Z0.344
G1 F600 Z0.144
G1 F2700 E11.50709
G1 F1800 X99.2 Y90.778 E13.34835
G1 F2700 E8.34835
G1 F600 Z0.344
G0 F12000 X100.8 Y89.952 Z0.344
G1 F600 Z0.144
G1 F2700 E13.34835
G1 F1800 X100.8 Y130.045 E15.26859
G1 F2700 E10.26859
G1 F600 Z0.344
G0 F12000 X102.4 Y130.699 Z0.344
G1 F600 Z0.144
G1 F2700 E15.26859
G1 F1800 X102.4 Y89.303 E17.25123
G1 F2700 E12.25123
G1 F600 Z0.344
G0 F12000 X104 Y88.785 Z0.344
G1 F600 Z0.144
G1 F2700 E17.25123
G1 F1800 X104 Y131.212 E19.28326
G1 F2700 E14.28326
G1 F600 Z0.344
G0 F12000 X105.6 Y131.61 Z0.344
G1 F600 Z0.144
G1 F2700 E19.28326
G1 F1800 X105.6 Y88.386 E21.35345
G1 F2700 E16.35345
G1 F600 Z0.344
G0 F12000 X107.2 Y88.13 Z0.344
G1 F600 Z0.144
G1 F2700 E21.35345
G1 F1800 X107.2 Y131.868 E23.44827
G1 F2700 E18.44827
G1 F600 Z0.344
G0 F12000 X108.8 Y132.015 Z0.344
G1 F600 Z0.144
G1 F2700 E23.44827
G1 F1800 X108.8 Y87.983 E25.55716
G1 F2700 E20.55716
G1 F600 Z0.344
G0 F12000 X110.4 Y87.948 Z0.344
G1 F600 Z0.144
G1 F2700 E25.55716
G1 F1800 X110.4 Y132.044 E27.66912
G1 F2700 E22.66912
G1 F600 Z0.344
G0 F12000 X112 Y131.963 Z0.344
G1 F600 Z0.144
G1 F2700 E27.66912
G1 F1800 X112 Y88.039 E29.77284
G1 F2700 E24.77284
G1 F600 Z0.344
G0 F12000 X113.6 Y88.245 Z0.344
G1 F600 Z0.144
G1 F2700 E29.77284
G1 F1800 X113.6 Y131.756 E31.85679
G1 F2700 E26.85679
G1 F600 Z0.344
G0 F12000 X115.2 Y131.428 Z0.344
G1 F600 Z0.144
G1 F2700 E31.85679
G1 F1800 X115.2 Y88.574 E33.90926
G1 F2700 E28.90926
G1 F600 Z0.344
G0 F12000 X116.8 Y89.029 Z0.344
G1 F600 Z0.144
G1 F2700 E33.90926
G1 F1800 X116.8 Y130.973 E35.91815
G1 F2700 E30.91815
G1 F600 Z0.344
G0 F12000 X118.4 Y130.392 Z0.344
G1 F600 Z0.144
G1 F2700 E35.91815
G1 F1800 X118.4 Y89.613 E37.87124
G1 F2700 E32.87124
G1 F600 Z0.344
G0 F12000 X120 Y90.351 Z0.344
G1 F600 Z0.144
G1 F2700 E37.87124
G1 F1800 X120 Y129.653 E39.7536
G1 F2700 E34.7536
G1 F600 Z0.344
G0 F12000 X121.6 Y128.754 Z0.344
G1 F600 Z0.144
G1 F2700 E39.7536
G1 F1800 X121.6 Y91.249 E41.54988
G1 F2700 E36.54988
G1 F600 Z0.344
G0 F12000 X123.2 Y92.341 Z0.344
G1 F600 Z0.144
G1 F2700 E41.54988
G1 F1800 X123.2 Y127.664 E43.24167
G1 F2700 E38.24167
G1 F600 Z0.344
G0 F12000 X124.8 Y126.32 Z0.344
G1 F600 Z0.144
G1 F2700 E43.24167
G1 F1800 X124.8 Y93.653 E44.80624
G1 F2700 E39.80624
G1 F600 Z0.344
G0 F12000 X126.4 Y95.253 Z0.344
G1 F600 Z0.144
G1 F2700 E44.80624
G1 F1800 X126.4 Y124.719 E46.2175
G1 F2700 E41.2175
G1 F600 Z0.344
G0 F12000 X128 Y122.751 Z0.344
G1 F600 Z0.144
G1 F2700 E46.2175
G1 F1800 X128 Y97.276 E47.43762
G1 F2700 E42.43762
G1 F600 Z0.344
G0 F12000 X129.6 Y99.896 Z0.344
G1 F600 Z0.144
G1 F2700 E47.43762
G1 F1800 X129.6 Y120.113 E48.4059
G1 F2700 E43.4059
G1 F600 Z0.344
G0 F12000 X131.2 Y116.088 Z0.344
G1 F600 Z0.144
G1 F2700 E48.4059
G1 F1800 X131.2 Y103.921 E48.98863
G1 F2700 E43.98863
G1 F600 Z0.344
G0 F12000 X92.8 Y96.196 Z0.344
G1 F600 Z0.144
G1 F2700 E48.98863
G1 F1800 X92.8 Y123.806 E50.311
G1 F2700 E45.311
G1 F600 Z0.344
G0 F12000 X91.2 Y121.524 Z0.344
G1 F600 Z0.144
G1 F2700 E50.311
G1 F1800 X91.2 Y98.482 E51.41459
G1 F2700 E46.41459
G1 F600 Z0.344
G0 F12000 X89.6 Y101.641 Z0.344
G1 F600 Z0.144
G1 F2700 E51.41459
G1 F1800 X89.6 Y118.369 E52.21577
G1 F2700 E47.21577
G1 F600 Z0.344
G0 F12000 X88 Y111.474 Z0.344
G1 F600 Z0.144
G1 F2700 E52.21577
G1 F1800 X88 Y108.528 E52.35687
G1 F2700 E47.35687
G1 F600 Z0.344
G0 F12000 X92.155 Y122.888 Z0.344
;TIME_ELAPSED:54.354882
;LAYER:-5
M140 S60
G0 X92.155 Y122.888 Z0.524
;TYPE:SUPPORT
G1 F600 Z0.324
G1 F2700 E52.35687
G1 F1800 X92.903 Y123.875 E52.43842
G1 X93.859 Y124.962 E52.53376
G1 X94.615 Y125.751 E52.60572
G1 X95.522 Y126.581 E52.68668
G1 X96.112 Y127.077 E52.73744
G1 X96.572 Y127.45 E52.77644
G1 X97.647 Y128.216 E52.86337
G1 X97.71 Y128.257 E52.86832
G1 X91.754 Y122.301 E53.42302
G1 X91.403 Y121.786 E53.46407
G1 X91.138 Y121.343 E53.49806
G1 X90.719 Y120.617 E53.55326
G1 X90.217 Y119.667 E53.62402
G1 X89.969 Y119.123 E53.6634
G1 X89.866 Y118.886 E53.68041
G1 X101.121 Y130.141 E54.72863
G1 X101.973 Y130.497 E54.78944
G1 X102.674 Y130.757 E54.83867
G1 X103.282 Y130.968 E54.88106
G1 X103.551 Y131.043 E54.89945
G1 X88.963 Y116.455 E56.25807
G1 X88.818 Y115.978 E56.29091
G1 X88.552 Y114.974 E56.35931
G1 X88.45 Y114.483 E56.39233
G1 X88.434 Y114.399 E56.39796
G1 X105.604 Y131.569 E57.99706
G1 X105.718 Y131.596 E58.00477
G1 X106.98 Y131.801 E58.08897
G1 X107.418 Y131.859 E58.11807
G1 X107.421 Y131.859 E58.11827
G1 X88.151 Y112.589 E59.91294
G1 X88.092 Y112.145 E59.94244
G1 X88.044 Y111.555 E59.98142
G1 X88.014 Y111.024 E60.01645
G1 X88.012 Y110.922 E60.02316
G1 X109.076 Y131.986 E61.98492
G1 X109.463 Y132.003 E62.01043
G1 X110.619 Y132.002 E62.08656
G1 X87.999 Y109.382 E64.19323
G1 X88.01 Y109.047 E64.2153
G1 X88.041 Y108.514 E64.25046
G1 X88.098 Y107.953 E64.2876
G1 X112.058 Y131.914 E66.51911
G1 X112.525 Y131.866 E66.55003
G1 X113.316 Y131.766 E66.60254
G1 X113.418 Y131.746 E66.60938
G1 X88.26 Y106.588 E68.95243
G1 X88.328 Y106.165 E68.98064
G1 X88.508 Y105.309 E69.03824
G1 X114.697 Y131.498 E71.47731
G1 X115.561 Y131.302 E71.53565
G1 X115.92 Y131.193 E71.56036
G1 X88.805 Y104.079 E74.08562
G1 X88.939 Y103.603 E74.11818
G1 X89.173 Y102.92 E74.16573
G1 X117.086 Y130.833 E76.76535
G1 X118.125 Y130.463 E76.83799
G1 X118.211 Y130.43 E76.84405
G1 X89.579 Y101.797 E79.51069
G1 X89.76 Y101.351 E79.54239
G1 X90.038 Y100.73 E79.58719
G1 X119.269 Y129.96 E82.30952
G1 X119.305 Y129.945 E82.31209
G1 X120.276 Y129.472 E82.38322
G1 X120.296 Y129.46 E82.38475
G1 X90.545 Y99.709 E85.15556
G1 X90.904 Y99.057 E85.20457
G1 X91.096 Y98.733 E85.22938
G1 X121.265 Y128.902 E88.03911
G1 X121.495 Y128.771 E88.05654
G1 X122.207 Y128.316 E88.11219
G1 X91.683 Y97.792 E90.95498
G1 X91.742 Y97.707 E90.96179
G1 X92.257 Y96.975 E91.02074
G1 X92.315 Y96.897 E91.02714
G1 X123.101 Y127.683 E93.89433
G1 X123.438 Y127.439 E93.92173
G1 X123.692 Y127.238 E93.94306
G1 X123.953 Y127.008 E93.96597
G1 X92.979 Y96.034 E96.85068
G1 X93.263 Y95.701 E96.8795
G1 X93.693 Y95.22 E96.92199
G1 X124.766 Y126.294 E99.81596
G1 X124.838 Y126.231 E99.82226
G1 X124.988 Y126.086 E99.836
G1 X125.379 Y125.671 E99.87355
G1 X125.527 Y125.527 E99.88715
G1 X94.436 Y94.436 E102.78275
G1 X94.634 Y94.232 E102.80147
G1 X94.998 Y93.892 E102.83428
G1 X95.221 Y93.693 E102.85396
G1 X126.293 Y124.766 E105.74784
G1 X126.61 Y124.436 E105.77797
G1 X127.013 Y123.958 E105.81915
G1 X96.039 Y92.984 E108.70385
G1 X96.392 Y92.688 E108.73419
G1 X96.504 Y92.602 E108.74349
G1 X96.895 Y92.313 E108.77551
G1 X127.687 Y123.105 E111.64326
G1 X127.931 Y122.777 E111.67019
G1 X128.317 Y122.208 E111.71547
G1 X97.794 Y91.685 E114.55817
G1 X98.612 Y91.156 E114.62232
G1 X98.727 Y91.09 E114.63105
G1 X128.909 Y121.272 E117.442
G1 X128.916 Y121.259 E117.44297
G1 X129.325 Y120.551 E117.49682
G1 X129.459 Y120.295 E117.51584
G1 X99.709 Y90.545 E120.28655
G1 X99.803 Y90.493 E120.29363
G1 X100.723 Y90.032 E120.3614
G1 X129.965 Y119.274 E123.0848
G1 X130.087 Y119.015 E123.10365
G1 X130.386 Y118.321 E123.15341
G1 X130.428 Y118.209 E123.16129
G1 X101.797 Y89.578 E125.82779
G1 X102.103 Y89.453 E125.84955
G1 X102.908 Y89.162 E125.90593
G1 X130.837 Y117.091 E128.50704
G1 X130.951 Y116.753 E128.53053
G1 X131.205 Y115.931 E128.58719
G1 X104.078 Y88.804 E131.11361
G1 X104.52 Y88.681 E131.14383
G1 X105.298 Y88.497 E131.19647
G1 X131.503 Y114.702 E133.63703
G1 X131.584 Y114.33 E133.6621
G1 X131.738 Y113.517 E133.71659
G1 X131.75 Y113.422 E133.7229
G1 X106.587 Y88.258 E136.06645
G1 X106.942 Y88.202 E136.09012
G1 X107.937 Y88.081 E136.15613
G1 X131.916 Y112.06 E138.38937
G1 X131.934 Y111.879 E138.40135
G1 X131.998 Y110.97 E138.46136
G1 X132.004 Y110.621 E138.48435
G1 X109.38 Y87.997 E140.59139
G1 X109.411 Y87.995 E140.59344
G1 X110.53 Y87.988 E140.66713
G1 X110.916 Y88.006 E140.69258
G1 X131.992 Y109.081 E142.6554
G1 X131.973 Y108.591 E142.6877
G1 X131.878 Y107.56 E142.75588
G1 X131.861 Y107.423 E142.76497
G1 X112.582 Y88.144 E144.56049
G1 X113.077 Y88.198 E144.59328
G1 X113.638 Y88.291 E144.63073
G1 X114.402 Y88.437 E144.68195
G1 X131.569 Y105.604 E146.28077
G1 X131.452 Y105.061 E146.31735
G1 X131.273 Y104.335 E146.36659
G1 X131.062 Y103.579 E146.41828
G1 X131.058 Y103.566 E146.41917
G1 X116.453 Y88.961 E147.77938
G1 X117.026 Y89.142 E147.81896
G1 X118.042 Y89.504 E147.88999
G1 X118.605 Y89.743 E147.93026
G1 X118.889 Y89.869 E147.95072
G1 X130.15 Y101.13 E148.9995
G1 X129.77 Y100.316 E149.05866
G1 X129.421 Y99.634 E149.10911
G1 X129.123 Y99.085 E149.15025
G1 X128.571 Y98.181 E149.22
G1 X128.267 Y97.72 E149.25637
G1 X122.277 Y91.73 E149.81423
G1 X122.489 Y91.866 E149.83082
G1 X122.977 Y92.222 E149.8706
G1 X123.635 Y92.72 E149.92494
G1 X124.367 Y93.318 E149.98719
G1 X124.5 Y93.432 E149.99873
G1 X124.914 Y93.811 E150.03569
G1 X125.517 Y94.39 E150.09074
G1 X126.183 Y95.07 E150.15343
G1 X126.299 Y95.197 E150.16475
G1 X126.644 Y95.595 E150.19944
G1 X127.202 Y96.271 E150.25717
G1 X128.153 Y97.548 E150.36202
G1 F2700 E145.36202
G1 F600 Z0.524
G0 F12000 X113.11 Y87.981 Z0.524
;TIME_ELAPSED:107.225898
;LAYER:-4
G0 X113.11 Y87.981 Z0.644
;TYPE:SUPPORT-INTERFACE
G1 F600 Z0.444
G1 F2700 E150.36202
G1 F2400 X111.981 Y87.856 E150.38696
G1 X111.094 Y87.794 E150.40647
G1 X110.542 Y87.768 E150.4186
G1 X109.405 Y87.776 E150.44356
G1 X108.518 Y87.818 E150.46306
G1 X108.004 Y87.851 E150.47436
G1 X106.922 Y87.983 E150.49829
G1 X106.816 Y88 E150.50065
G1 X113.225 Y88 E150.64134
G1 X113.64 Y88.069 E150.65057
