;FLAVOR:Marlin
;TIME:1580
;Filament used: 0.782872m
;Layer height: 0.12
;MINX:87.761
;MINY:87.761
;MINZ:0.144
;MAXX:132.236
;MAXY:132.227
;MAXZ:16.874
;Generated with Cura_SteamEngine 4.2.1
M140 S60
M105
M190 S60
M104 S200
M105
M109 S200
M82 ;absolute extrusion mode
M201 X500.00 Y500.00 Z100.00 E5000.00 ;Setup machine max acceleration
M203 X500.00 Y500.00 Z10.00 E50.00 ;Setup machine max feedrate
M204 P500.00 R1000.00 T500.00 ;Setup Print/Retract/Travel acceleration
M205 X8.00 Y8.00 Z0.40 E5.00 ;Setup Jerk
M220 S100 ;Reset Feedrate
M221 S100 ;Reset Flowrate

G28 ;Home

G92 E0 ;Reset Extruder
G1 Z2.0 F3000 ;Move Z Axis up
G1 X10.1 Y20 Z0.28 F5000.0 ;Move to start position
G1 X10.1 Y200.0 Z0.28 F1500.0 E15 ;Draw the first line
G1 X10.4 Y200.0 Z0.28 F5000.0 ;Move to side a little
G1 X10.4 Y20 Z0.28 F1500.0 E30 ;Draw the second line
G92 E0 ;Reset Extruder
G1 Z2.0 F3000 ;Move Z Axis up

G92 E0
G92 E0
G1 F2700 E-5
;LAYER_COUNT:133
;LAYER:-6
M107
G0 F12000 X94.772 Y94.042 Z0.144
;TYPE:SUPPORT-INTERFACE
G1 F2700 E0
G1 F1800 X94.924 Y93.899 E0.01
G1 X95.366 Y93.501 E0.03848
G1 X95.798 Y93.128 E0.06582
G1 X96.87 Y92.277 E0.13137
G1 X97.446 Y91.866 E0.16526
G1 X97.978 Y91.507 E0.196
G1 X98.783 Y91.007 E0.24139
G1 X99.367 Y90.676 E0.27354
G1 X99.623 Y90.537 E0.28749
G1 X100.122 Y90.277 E0.31444
G1 X101.01 Y89.859 E0.36145
G1 X101.222 Y89.766 E0.37253
G1 X101.871 Y89.497 E0.40618
G1 X102.628 Y89.211 E0.44494
G1 X103.353 Y88.967 E0.48158
G1 X103.565 Y88.902 E0.4922
G1 X104.287 Y88.696 E0.52816
G1 X104.993 Y88.518 E0.56303
G1 X105.823 Y88.34 E0.60368
G1 X106.066 Y88.295 E0.61552
G1 X106.714 Y88.188 E0.64698
G1 X107.63 Y88.069 E0.69122
G1 X108.528 Y87.991 E0.73439
G1 X109.345 Y87.953 E0.77356
G1 X110.079 Y87.942 E0.80872
G1 X110.84 Y87.959 E0.84518
G1 X111.767 Y88.014 E0.88965
G1 X112.699 Y88.108 E0.93452
G1 X113.31 Y88.192 E0.96406
G1 X113.974 Y88.305 E0.99631
G1 X114.302 Y88.366 E1.01229
G1 X115.127 Y88.544 E1.05272
G1 X115.863 Y88.737 E1.08916
G1 X116.49 Y88.921 E1.12045
G1 X116.768 Y89.008 E1.13441
G1 X117.493 Y89.253 E1.17106
G1 X118.211 Y89.528 E1.20788
G1 X118.463 Y89.632 E1.22094
G1 X119.159 Y89.935 E1.2573
G1 X119.757 Y90.217 E1.28896
G1 X120.641 Y90.678 E1.33671
G1 X121.088 Y90.933 E1.36136
G1 X121.385 Y91.109 E1.37789
G1 X122 Y91.491 E1.41257
G1 X122.809 Y92.044 E1.4595
G1 X123.179 Y92.315 E1.48147
G1 X123.446 Y92.517 E1.4975
G1 X124.057 Y93.002 E1.53487
G1 X124.678 Y93.535 E1.57406
G1 X124.88 Y93.718 E1.58712
G1 X125.377 Y94.188 E1.61988
G1 X125.903 Y94.714 E1.65551
G1 X126.428 Y95.281 E1.69252
G1 X126.634 Y95.516 E1.70748
G1 X127.035 Y95.994 E1.73737
G1 X127.347 Y96.38 E1.76114
G1 X128.072 Y97.355 E1.81933
G1 X128.562 Y98.087 E1.86152
G1 X128.862 Y98.562 E1.88843
G1 X128.972 Y98.747 E1.89873
G1 X129.405 Y99.515 E1.94096
G1 X129.517 Y99.725 E1.95236
G1 X129.835 Y100.356 E1.9862
G1 X130.135 Y100.99 E2.01979
G1 X130.457 Y101.753 E2.05946
G1 X130.566 Y102.03 E2.07372
G1 X130.808 Y102.684 E2.10712
G1 X131.018 Y103.303 E2.13842
G1 X131.305 Y104.295 E2.18788
G1 X131.463 Y104.923 E2.2189
G1 X131.666 Y105.849 E2.2643
G1 X131.814 Y106.75 E2.30803
G1 X131.905 Y107.44 E2.34136
G1 X132.004 Y108.444 E2.38968
G1 X132.04 Y109.133 E2.42273
G1 X132.056 Y110.054 E2.46685
G1 X132.041 Y110.898 E2.50728
G1 X131.975 Y111.873 E2.55408
G1 X131.903 Y112.573 E2.58778
G1 X131.787 Y113.457 E2.63048
G1 X131.643 Y114.247 E2.66894
G1 X131.452 Y115.124 E2.71193
G1 X131.274 Y115.829 E2.74676
G1 X130.969 Y116.833 E2.79701
G1 X130.767 Y117.425 E2.82697
G1 X130.41 Y118.366 E2.87518
G1 X130.13 Y119.012 E2.9089
G1 X129.718 Y119.88 E2.95492
G1 X129.325 Y120.636 E2.99572
G1 X128.968 Y121.254 E3.02991
G1 X128.484 Y122.034 E3.07387
G1 X128.034 Y122.704 E3.11253
G1 X127.532 Y123.383 E3.15297
G1 X127.266 Y123.72 E3.17353
G1 X126.64 Y124.462 E3.22003
G1 X126.524 Y124.59 E3.2283
G1 X125.755 Y125.364 E3.28056
G1 X125.406 Y125.701 E3.30379
G1 X125.012 Y126.118 E3.33127
G1 X124.869 Y126.258 E3.34086
G1 X123.703 Y127.28 E3.41512
G1 X123.475 Y127.459 E3.429
G1 X122.674 Y128.053 E3.47676
G1 X122.498 Y128.176 E3.48705
G1 X121.503 Y128.812 E3.5436
G1 X120.296 Y129.507 E3.61031
G1 X119.264 Y130.008 E3.66525
G1 X118.135 Y130.504 E3.72432
G1 X118.022 Y130.547 E3.73011
G1 X116.963 Y130.922 E3.78391
G1 X115.551 Y131.346 E3.85452
G1 X114.695 Y131.545 E3.89661
G1 X114.508 Y131.583 E3.90575
G1 X113.11 Y131.837 E3.97381
G1 X111.947 Y131.963 E4.02983
G1 X110.634 Y132.047 E4.09285
G1 X109.48 Y132.045 E4.14812
G1 X108.155 Y131.981 E4.21165
G1 X108.024 Y131.968 E4.21796
G1 X106.923 Y131.833 E4.27109
G1 X105.537 Y131.601 E4.33839
G1 X105.428 Y131.577 E4.34374
G1 X104.481 Y131.347 E4.39041
G1 X103.167 Y130.973 E4.45584
G1 X102.047 Y130.565 E4.51293
G1 X100.708 Y130.003 E4.58248
G1 X99.828 Y129.562 E4.62963
G1 X98.626 Y128.9 E4.69535
G1 X98.508 Y128.828 E4.70197
G1 X97.589 Y128.226 E4.75459
G1 X96.471 Y127.421 E4.82057
G1 X96.371 Y127.342 E4.82668
G1 X95.598 Y126.699 E4.87483
G1 X94.606 Y125.797 E4.93905
G1 X94.45 Y125.641 E4.94961
G1 X94.025 Y125.199 E4.97898
G1 X93.749 Y124.903 E4.99837
G1 X92.923 Y123.962 E5.05834
G1 X92.825 Y123.84 E5.06583
G1 X92.186 Y122.995 E5.11657
G1 X91.342 Y121.766 E5.18798
G1 X91.249 Y121.614 E5.19651
G1 X90.786 Y120.819 E5.24057
G1 X90.201 Y119.724 E5.30003
G1 X90.121 Y119.556 E5.30895
G1 X89.802 Y118.846 E5.34622
G1 X89.682 Y118.565 E5.36086
G1 X89.147 Y117.19 E5.43152
G1 X88.827 Y116.162 E5.48309
G1 X88.501 Y114.935 E5.54389
G1 X88.46 Y114.741 E5.55339
G1 X88.275 Y113.773 E5.60059
G1 X88.073 Y112.4 E5.66706
G1 X88.054 Y112.195 E5.67692
G1 X87.988 Y111.292 E5.72028
G1 X87.942 Y109.897 E5.78713
G1 X87.944 Y109.725 E5.79537
G1 X87.988 Y108.705 E5.84427
G1 X88.103 Y107.338 E5.90997
G1 X88.122 Y107.199 E5.91669
G1 X88.278 Y106.207 E5.96479
G1 X88.574 Y104.757 E6.03567
G1 X88.851 Y103.762 E6.08513
G1 X89.274 Y102.452 E6.15107
G1 X89.352 Y102.246 E6.16162
G1 X89.691 Y101.412 E6.20473
G1 X90.282 Y100.112 E6.27313
G1 X90.37 Y99.942 E6.2823
G1 X90.837 Y99.09 E6.32883
G1 X91.508 Y97.974 E6.3912
G1 X91.629 Y97.792 E6.40167
G1 X92.219 Y96.962 E6.45044
G1 X93.026 Y95.915 E6.51375
G1 X93.184 Y95.729 E6.52544
G1 X93.813 Y95.025 E6.57066
G1 X94.772 Y94.042 E6.63643
G0 F12000 X94.4 Y94.423
G1 F1800 X94.4 Y125.589 E8.12911
G1 F2700 E3.12911
G1 F600 Z0.344
G0 F12000 X96 Y127.033 Z0.344
G1 F600 Z0.144
G1 F2700 E8.12911
G1 F1800 X96 Y92.967 E9.76069
G1 F2700 E4.76069
G1 F600 Z0.344
G0 F12000 X97.6 Y91.762 Z0.344
G1 F600 Z0.144
G1 F2700 E9.76069
G1 F1800 X97.6 Y128.233 E11.50745
G1 F2700 E6.50745
G1 F600 Z0.344
G0 F12000 X99.2 Y129.216 Z0.344
G1 F600 Z0.144
G1 F2700 E11.50745
G1 F1800 X99.2 Y90.77 E13.34881
G1 F2700 E8.34881
G1 F600 Z0.344
G0 F12000 X100.8 Y89.957 Z0.344
G1 F600 Z0.144
G1 F2700 E13.34881
G1 F1800 X100.8 Y130.041 E15.26862
G1 F2700 E10.26862
G1 F600 Z0.344
G0 F12000 X102.4 Y130.693 Z0.344
G1 F600 Z0.144
G1 F2700 E15.26862
G1 F1800 X102.4 Y89.297 E17.25126
G1 F2700 E12.25126
G1 F600 Z0.344
G0 F12000 X104 Y88.777 Z0.344
G1 F600 Z0.144
G1 F2700 E17.25126
G1 F1800 X104 Y131.21 E19.28357
G1 F2700 E14.28357
G1 F600 Z0.344
G0 F12000 X105.6 Y131.611 Z0.344
G1 F600 Z0.144
G1 F2700 E19.28357
G1 F1800 X105.6 Y88.387 E21.35377
G1 F2700 E16.35377
G1 F600 Z0.344
G0 F12000 X107.2 Y88.124 Z0.344
G1 F600 Z0.144
G1 F2700 E21.35377
G1 F1800 X107.2 Y131.866 E23.44877
G1 F2700 E18.44877
G1 F600 Z0.344
G0 F12000 X108.8 Y132.012 Z0.344
G1 F600 Z0.144
G1 F2700 E23.44877
G1 F1800 X108.8 Y87.978 E25.55776
G1 F2700 E20.55776
G1 F600 Z0.344
G0 F12000 X110.4 Y87.95 Z0.344
G1 F600 Z0.144
G1 F2700 E25.55776
G1 F1800 X110.4 Y132.046 E27.66972
G1 F2700 E22.66972
G1 F600 Z0.344
G0 F12000 X112 Y131.958 Z0.344
G1 F600 Z0.144
G1 F2700 E27.66972
G1 F1800 X112 Y88.038 E29.77325
G1 F2700 E24.77325
G1 F600 Z0.344
G0 F12000 X113.6 Y88.242 Z0.344
G1 F600 Z0.144
G1 F2700 E29.77325
G1 F1800 X113.6 Y131.748 E31.85696
G1 F2700 E26.85696
G1 F600 Z0.344
G0 F12000 X115.2 Y131.428 Z0.344
G1 F600 Z0.144
G1 F2700 E31.85696
G1 F1800 X115.2 Y88.564 E33.90991
G1 F2700 E28.90991
G1 F600 Z0.344
G0 F12000 X116.8 Y89.019 Z0.344
G1 F600 Z0.144
G1 F2700 E33.90991
G1 F1800 X116.8 Y130.971 E35.91919
G1 F2700 E30.91919
G1 F600 Z0.344
G0 F12000 X118.4 Y130.388 Z0.344
G1 F600 Z0.144
G1 F2700 E35.91919
G1 F1800 X118.4 Y89.606 E37.87242
G1 F2700 E32.87242
G1 F600 Z0.344
G0 F12000 X120 Y90.344 Z0.344
G1 F600 Z0.144
G1 F2700 E37.87242
G1 F1800 X120 Y129.651 E39.75502
G1 F2700 E34.75502
G1 F600 Z0.344
G0 F12000 X121.6 Y128.75 Z0.344
G1 F600 Z0.144
G1 F2700 E39.75502
G1 F1800 X121.6 Y91.243 E41.5514
G1 F2700 E36.5514
G1 F600 Z0.344
G0 F12000 X123.2 Y92.331 Z0.344
G1 F600 Z0.144
G1 F2700 E41.5514
G1 F1800 X123.2 Y127.663 E43.24361
G1 F2700 E38.24361
G1 F600 Z0.344
G0 F12000 X124.8 Y126.319 Z0.344
G1 F600 Z0.144
G1 F2700 E43.24361
G1 F1800 X124.8 Y93.646 E44.80847
G1 F2700 E39.80847
G1 F600 Z0.344
G0 F12000 X126.4 Y95.251 Z0.344
G1 F600 Z0.144
G1 F2700 E44.80847
G1 F1800 X126.4 Y124.715 E46.21964
G1 F2700 E41.21964
G1 F600 Z0.344
G0 F12000 X128 Y122.75 Z0.344
G1 F600 Z0.144
G1 F2700 E46.21964
G1 F1800 X128 Y97.259 E47.44052
G1 F2700 E42.44052
G1 F600 Z0.344
G0 F12000 X129.6 Y99.89 Z0.344
G1 F600 Z0.144
G1 F2700 E47.44052
G1 F1800 X129.6 Y120.107 E48.4088
G1 F2700 E43.4088
G1 F600 Z0.344
G0 F12000 X131.2 Y116.073 Z0.344
G1 F600 Z0.144
G1 F2700 E48.4088
G1 F1800 X131.2 Y103.933 E48.99024
G1 F2700 E43.99024
G1 F600 Z0.344
G0 F12000 X92.8 Y96.208 Z0.344
G1 F600 Z0.144
G1 F2700 E48.99024
G1 F1800 X92.8 Y123.806 E50.31204
G1 F2700 E45.31204
G1 F600 Z0.344
G0 F12000 X91.2 Y121.529 Z0.344
G1 F600 Z0.144
G1 F2700 E50.31204
G1 F1800 X91.2 Y98.486 E51.41567
G1 F2700 E46.41567
G1 F600 Z0.344
G0 F12000 X89.6 Y101.635 Z0.344
G1 F600 Z0.144
G1 F2700 E51.41567
G1 F1800 X89.6 Y118.354 E52.21642
G1 F2700 E47.21642
G1 F600 Z0.344
G0 F12000 X88 Y111.456 Z0.344
G1 F600 Z0.144
G1 F2700 E52.21642
G1 F1800 X88 Y108.562 E52.35503
G1 F2700 E47.35503
G1 F600 Z0.344
G0 F12000 X92.219 Y122.971 Z0.344
;TIME_ELAPSED:54.369155
;LAYER:-5
M140 S60
G0 X92.219 Y122.971 Z0.524
;TYPE:SUPPORT
G1 F600 Z0.324
G1 F2700 E52.35503
G1 F1800 X92.858 Y123.818 E52.4249
G1 X92.958 Y123.942 E52.43539
G1 X93.78 Y124.877 E52.51738
G1 X94.054 Y125.171 E52.54385
G1 X94.479 Y125.613 E52.58423
G1 X94.631 Y125.765 E52.59838
G1 X95.629 Y126.672 E52.68719
G1 X96.397 Y127.31 E52.75294
G1 X97.611 Y128.192 E52.85177
G1 X97.709 Y128.256 E52.85947
G1 X91.769 Y122.316 E53.41268
G1 X91.375 Y121.743 E53.45848
G1 X91.283 Y121.591 E53.47018
G1 X90.825 Y120.806 E53.53003
G1 X90.241 Y119.715 E53.61153
G1 X90.157 Y119.539 E53.62437
G1 X89.869 Y118.888 E53.67125
G1 X101.106 Y130.126 E54.71783
G1 X102.061 Y130.526 E54.78602
G1 X102.976 Y130.863 E54.85023
G1 X103.18 Y130.934 E54.86446
G1 X103.545 Y131.038 E54.88945
G1 X88.959 Y116.452 E56.24789
G1 X88.866 Y116.149 E56.26876
G1 X88.541 Y114.926 E56.3521
G1 X88.498 Y114.732 E56.36518
G1 X88.435 Y114.399 E56.3875
G1 X105.606 Y131.571 E57.98674
G1 X106.92 Y131.791 E58.07448
G1 X107.413 Y131.851 E58.10718
G1 X88.14 Y112.577 E59.90218
G1 X88.113 Y112.393 E59.91443
G1 X88.092 Y112.195 E59.92754
G1 X88.028 Y111.289 E59.98736
G1 X88.016 Y110.926 E60.01128
G1 X109.074 Y131.985 E61.97252
G1 X109.482 Y132.004 E61.99942
G1 X110.622 Y132.005 E62.07449
G1 X87.998 Y109.381 E64.18154
G1 X88.028 Y108.707 E64.22597
G1 X88.091 Y107.946 E64.27625
G1 X112.055 Y131.91 E66.5081
G1 X113.104 Y131.796 E66.57758
G1 X113.412 Y131.74 E66.5982
G1 X88.258 Y106.586 E68.94087
G1 X88.316 Y106.213 E68.96573
G1 X88.502 Y105.303 E69.0269
G1 X114.7 Y131.501 E71.4668
G1 X115.539 Y131.307 E71.52351
G1 X115.919 Y131.193 E71.54964
G1 X88.804 Y104.077 E74.07499
G1 X88.889 Y103.774 E74.09571
G1 X89.166 Y102.913 E74.15528
G1 X117.088 Y130.834 E76.75569
G1 X118.014 Y130.507 E76.82036
G1 X118.204 Y130.423 E76.83405
G1 X89.576 Y101.795 E79.50026
G1 X89.722 Y101.438 E79.52566
G1 X90.042 Y100.733 E79.57665
G1 X119.269 Y129.96 E82.29865
G1 X120.278 Y129.47 E82.37252
G1 X120.295 Y129.459 E82.37385
G1 X90.543 Y99.707 E85.14475
G1 X90.872 Y99.11 E85.18964
G1 X91.097 Y98.734 E85.21849
G1 X121.265 Y128.902 E88.02814
G1 X121.481 Y128.777 E88.04457
G1 X122.205 Y128.314 E88.10117
G1 X91.679 Y97.788 E90.94415
G1 X92.244 Y96.992 E91.00843
G1 X92.316 Y96.898 E91.01623
G1 X123.102 Y127.684 E93.88342
G1 X123.342 Y127.509 E93.90299
G1 X123.677 Y127.248 E93.93095
G1 X123.952 Y127.006 E93.95508
G1 X92.981 Y96.036 E96.83946
G1 X93.055 Y95.94 E96.84744
G1 X93.212 Y95.754 E96.86347
G1 X93.691 Y95.218 E96.91081
G1 X124.765 Y126.292 E99.80483
G1 X124.841 Y126.226 E99.81145
G1 X124.988 Y126.085 E99.82487
G1 X125.377 Y125.671 E99.86228
G1 X125.527 Y125.527 E99.87597
G1 X94.439 Y94.439 E102.7713
G1 X94.798 Y94.07 E102.8052
G1 X94.95 Y93.929 E102.81885
G1 X95.216 Y93.689 E102.84245
G1 X126.292 Y124.765 E105.73665
G1 X126.494 Y124.562 E105.75551
G1 X126.618 Y124.423 E105.76778
G1 X127.012 Y123.957 E105.80797
G1 X96.039 Y92.984 E108.69258
G1 X96.717 Y92.439 E108.74986
G1 X96.892 Y92.309 E108.76422
G1 X127.686 Y123.104 E111.63221
G1 X128.001 Y122.679 E111.66705
G1 X128.317 Y122.208 E111.7044
G1 X97.79 Y91.681 E114.54747
G1 X97.998 Y91.539 E114.56406
G1 X98.726 Y91.089 E114.62042
G1 X128.909 Y121.272 E117.43146
G1 X128.927 Y121.242 E117.43376
G1 X129.29 Y120.615 E117.48148
G1 X129.457 Y120.293 E117.50536
G1 X99.704 Y90.54 E120.27635
G1 X100.149 Y90.308 E120.3094
G1 X100.727 Y90.035 E120.3515
G1 X129.961 Y119.27 E123.0742
G1 X130.092 Y118.996 E123.0942
G1 X130.372 Y118.349 E123.14063
G1 X130.426 Y118.207 E123.15063
G1 X101.792 Y89.573 E125.81741
G1 X101.885 Y89.533 E125.82407
G1 X102.64 Y89.248 E125.87722
G1 X102.905 Y89.159 E125.89563
G1 X130.838 Y117.091 E128.49707
G1 X130.933 Y116.812 E128.51648
G1 X131.202 Y115.928 E128.57733
G1 X104.07 Y88.797 E131.10417
G1 X104.296 Y88.735 E131.1196
G1 X105.001 Y88.556 E131.1675
G1 X105.295 Y88.494 E131.18729
G1 X131.504 Y114.703 E133.62822
G1 X131.55 Y114.491 E133.6425
G1 X131.733 Y113.528 E133.70706
G1 X131.75 Y113.422 E133.71413
G1 X106.58 Y88.252 E136.05829
G1 X106.719 Y88.228 E136.06758
G1 X107.633 Y88.109 E136.12828
G1 X107.938 Y88.082 E136.14844
G1 X131.915 Y112.059 E138.38149
G1 X131.934 Y111.869 E138.39407
G1 X132 Y110.896 E138.45829
G1 X132.005 Y110.622 E138.47634
G1 X109.375 Y87.993 E140.5839
G1 X110.077 Y87.981 E140.63013
G1 X110.843 Y87.998 E140.68059
G1 X110.913 Y88.002 E140.68521
G1 X131.997 Y109.086 E142.64883
G1 X131.963 Y108.446 E142.69103
G1 X131.864 Y107.444 E142.75734
G1 X131.861 Y107.424 E142.75867
G1 X112.572 Y88.135 E144.55512
G1 X112.69 Y88.146 E144.56292
G1 X113.313 Y88.233 E144.60435
G1 X113.551 Y88.27 E144.62021
G1 X114.285 Y88.402 E144.66932
G1 X114.39 Y88.425 E144.6764
G1 X131.571 Y105.606 E146.27652
G1 X131.422 Y104.931 E146.32205
G1 X131.265 Y104.303 E146.36468
G1 X131.049 Y103.557 E146.41582
G1 X116.442 Y88.95 E147.77622
G1 X116.754 Y89.045 E147.7977
G1 X117.487 Y89.294 E147.84868
G1 X118.185 Y89.561 E147.89789
G1 X118.451 Y89.671 E147.91685
G1 X118.839 Y89.837 E147.94464
G1 X118.871 Y89.852 E147.94697
G1 X130.152 Y101.132 E148.99756
G1 X130.098 Y101.005 E149.00664
G1 X129.797 Y100.373 E149.05274
G1 X129.628 Y100.031 E149.07787
G1 X129.365 Y99.528 E149.11525
G1 X128.931 Y98.757 E149.17351
G1 X128.527 Y98.108 E149.22386
G1 X128.346 Y97.831 E149.24565
G1 X128.277 Y97.73 E149.2537
G1 X122.273 Y91.726 E149.81287
G1 X122.785 Y92.077 E149.85375
G1 X123.153 Y92.346 E149.88377
G1 X123.421 Y92.548 E149.90587
G1 X124.032 Y93.034 E149.95729
G1 X124.65 Y93.565 E150.01095
G1 X125.111 Y93.99 E150.05224
G1 X125.348 Y94.215 E150.07376
G1 X125.873 Y94.74 E150.12265
G1 X126.397 Y95.307 E150.1735
