;FLAVOR:Marlin
;TIME:4054
;Filament used: 2.64986m
;Layer height: 0.12
;MINX:67.219
;MINY:70.219
;MINZ:0.144
;MAXX:152.78
;MAXY:149.78
;MAXZ:4.874
;Generated with Cura_SteamEngine 4.2.1
M140 S60
M105
M190 S60
M104 S200
M105
M109 S200
M82 ;absolute extrusion mode
M201 X500.00 Y500.00 Z100.00 E5000.00 ;Setup machine max acceleration
M203 X500.00 Y500.00 Z10.00 E50.00 ;Setup machine max feedrate
M204 P500.00 R1000.00 T500.00 ;Setup Print/Retract/Travel acceleration
M205 X8.00 Y8.00 Z0.40 E5.00 ;Setup Jerk
M220 S100 ;Reset Feedrate
M221 S100 ;Reset Flowrate

G28 ;Home

G92 E0 ;Reset Extruder
G1 Z2.0 F3000 ;Move Z Axis up
G1 X10.1 Y20 Z0.28 F5000.0 ;Move to start position
G1 X10.1 Y200.0 Z0.28 F1500.0 E15 ;Draw the first line
G1 X10.4 Y200.0 Z0.28 F5000.0 ;Move to side a little
G1 X10.4 Y20 Z0.28 F1500.0 E30 ;Draw the second line
G92 E0 ;Reset Extruder
G1 Z2.0 F3000 ;Move Z Axis up

G92 E0
G92 E0
G1 F2700 E-5
;LAYER_COUNT:33
;LAYER:-6
M107
G0 F12000 X71.824 Y74.658 Z0.144
;TYPE:SUPPORT-INTERFACE
G1 F2700 E0
G1 F1800 X72.52 Y74.012 E0.04548
G1 X72.659 Y73.893 E0.05424
G1 X73.35 Y73.339 E0.09666
G1 X73.489 Y73.235 E0.10498
G1 X74.204 Y72.742 E0.14657
G1 X74.388 Y72.626 E0.15699
G1 X75.144 Y72.183 E0.19896
G1 X75.286 Y72.106 E0.20669
G1 X76.231 Y71.647 E0.25701
G1 X77.081 Y71.304 E0.30091
G1 X77.254 Y71.242 E0.30971
G1 X78.092 Y70.973 E0.35187
G1 X78.256 Y70.927 E0.36002
G1 X79.128 Y70.715 E0.403
G1 X79.29 Y70.682 E0.41092
G1 X80.183 Y70.534 E0.45428
G1 X80.36 Y70.511 E0.46282
G1 X81.254 Y70.428 E0.50583
G1 X81.396 Y70.421 E0.51264
G1 X82.137 Y70.4 E0.54814
G1 X137.839 Y70.4 E3.21596
G1 X137.874 Y70.401 E3.21764
G1 X138.998 Y70.446 E3.27152
G1 X139.915 Y70.548 E3.31571
G1 X140.09 Y70.573 E3.32417
G1 X140.979 Y70.737 E3.36747
G1 X141.102 Y70.765 E3.37351
G1 X141.996 Y70.999 E3.41777
G1 X142.159 Y71.048 E3.42593
G1 X143.001 Y71.335 E3.46853
G1 X143.167 Y71.398 E3.47703
G1 X143.97 Y71.739 E3.51882
G1 X144.159 Y71.827 E3.5288
G1 X145.07 Y72.301 E3.57799
G1 X145.849 Y72.776 E3.62169
G1 X146 Y72.876 E3.63036
G1 X146.714 Y73.387 E3.67241
G1 X146.862 Y73.5 E3.68133
G1 X147.662 Y74.173 E3.7314
G1 X148.342 Y74.824 E3.77649
G1 X148.988 Y75.52 E3.82197
G1 X149.107 Y75.659 E3.83073
G1 X149.661 Y76.35 E3.87315
G1 X149.765 Y76.489 E3.88147
G1 X150.258 Y77.204 E3.92306
G1 X150.374 Y77.388 E3.93348
G1 X150.887 Y78.271 E3.98239
G1 X151.292 Y79.094 E4.02632
G1 X151.353 Y79.231 E4.0335
G1 X151.695 Y80.076 E4.07716
G1 X151.754 Y80.242 E4.0856
G1 X152.025 Y81.084 E4.12797
G1 X152.072 Y81.25 E4.13623
G1 X152.283 Y82.119 E4.17906
G1 X152.317 Y82.282 E4.18703
G1 X152.465 Y83.174 E4.23034
G1 X152.489 Y83.36 E4.23932
G1 X152.579 Y84.396 E4.28913
G1 X152.6 Y85.129 E4.32425
G1 X152.6 Y134.857 E6.70595
G1 X152.564 Y135.863 E6.75416
G1 X152.554 Y135.998 E6.76065
G1 X152.452 Y136.915 E6.80484
G1 X152.427 Y137.09 E6.81331
G1 X152.265 Y137.968 E6.85607
G1 X152.235 Y138.102 E6.86264
G1 X152.004 Y138.987 E6.90645
G1 X151.952 Y139.159 E6.91506
G1 X151.665 Y140.001 E6.95766
G1 X151.602 Y140.167 E6.96617
G1 X151.261 Y140.97 E7.00795
G1 X151.18 Y141.145 E7.01718
G1 X150.776 Y141.931 E7.05951
G1 X150.698 Y142.07 E7.06715
G1 X150.224 Y142.849 E7.11082
G1 X150.124 Y143 E7.11949
G1 X149.613 Y143.714 E7.16155
G1 X149.5 Y143.862 E7.17046
G1 X148.827 Y144.662 E7.22053
G1 X148.176 Y145.342 E7.26562
G1 X147.491 Y145.978 E7.31039
G1 X147.343 Y146.105 E7.31973
G1 X146.65 Y146.661 E7.36228
G1 X146.511 Y146.765 E7.3706
G1 X145.796 Y147.258 E7.41219
G1 X145.612 Y147.374 E7.42261
G1 X144.856 Y147.817 E7.46458
G1 X144.714 Y147.894 E7.47232
G1 X143.769 Y148.353 E7.52263
G1 X142.914 Y148.698 E7.56679
G1 X142.751 Y148.756 E7.57508
G1 X141.908 Y149.027 E7.61749
G1 X141.744 Y149.073 E7.62564
G1 X140.872 Y149.285 E7.66863
G1 X140.71 Y149.318 E7.67654
G1 X139.817 Y149.466 E7.7199
G1 X139.64 Y149.489 E7.72845
G1 X138.746 Y149.572 E7.77145
G1 X138.604 Y149.579 E7.77826
G1 X137.863 Y149.6 E7.81376
G1 X82.161 Y149.6 E10.48159
G1 X82.126 Y149.599 E10.48326
G1 X81.002 Y149.554 E10.53714
G1 X80.085 Y149.452 E10.58133
G1 X79.91 Y149.427 E10.5898
G1 X79.021 Y149.263 E10.63309
G1 X78.898 Y149.235 E10.63913
G1 X78.004 Y149.001 E10.68339
G1 X77.841 Y148.952 E10.69155
G1 X76.999 Y148.665 E10.73415
G1 X76.833 Y148.602 E10.74266
G1 X76.03 Y148.261 E10.78444
G1 X75.841 Y148.173 E10.79442
G1 X74.93 Y147.699 E10.84361
G1 X74.151 Y147.224 E10.88731
G1 X74 Y147.124 E10.89598
G1 X73.286 Y146.613 E10.93803
G1 X73.138 Y146.5 E10.94695
G1 X72.338 Y145.827 E10.99702
G1 X71.654 Y145.172 E11.04238
G1 X71.01 Y144.478 E11.08773
G1 X70.893 Y144.341 E11.09636
G1 X70.343 Y143.655 E11.13847
G1 X70.227 Y143.499 E11.14778
G1 X69.742 Y142.796 E11.18868
G1 X69.626 Y142.612 E11.1991
G1 X69.183 Y141.856 E11.24107
G1 X69.106 Y141.714 E11.2488
G1 X68.647 Y140.769 E11.29912
G1 X68.298 Y139.905 E11.34375
G1 X68.242 Y139.747 E11.35178
G1 X67.97 Y138.899 E11.39443
G1 X67.928 Y138.749 E11.40189
G1 X67.712 Y137.861 E11.44566
G1 X67.683 Y137.718 E11.45265
G1 X67.533 Y136.812 E11.49663
G1 X67.511 Y136.64 E11.50494
G1 X67.428 Y135.741 E11.54818
G1 X67.421 Y135.604 E11.55475
G1 X67.4 Y134.871 E11.58987
G1 X67.4 Y85.143 E13.97157
G1 X67.436 Y84.137 E14.01979
G1 X67.446 Y84.002 E14.02627
G1 X67.547 Y83.087 E14.07036
G1 X67.573 Y82.912 E14.07883
G1 X67.735 Y82.032 E14.12169
G1 X67.765 Y81.898 E14.12827
G1 X67.996 Y81.012 E14.17212
G1 X68.048 Y80.841 E14.18068
G1 X68.335 Y79.999 E14.22328
G1 X68.398 Y79.833 E14.23179
G1 X68.739 Y79.03 E14.27357
G1 X68.82 Y78.855 E14.28281
G1 X69.301 Y77.93 E14.33274
G1 X69.776 Y77.151 E14.37644
G1 X69.876 Y77 E14.38511
G1 X70.392 Y76.279 E14.42758
G1 X70.5 Y76.138 E14.43609
G1 X71.173 Y75.338 E14.48616
G1 X71.824 Y74.658 E14.53124
G1 F2700 E9.53124
G1 F600 Z0.344
G0 F12000 X102.763 Y105.082 Z0.344
G1 F600 Z0.144
G1 F2700 E14.53124
G1 F1800 X102.299 Y105.582 E14.56391
G1 X101.9 Y106.138 E14.59669
G1 X101.576 Y106.738 E14.62935
G1 X101.33 Y107.374 E14.66201
G1 X101.164 Y108.043 E14.69502
G1 X101.08 Y108.982 E14.74018
G1 X101.08 Y111.013 E14.83745
G1 X101.122 Y111.681 E14.86951
G1 X101.251 Y112.352 E14.90223
G1 X101.464 Y113.001 E14.93495
G1 X101.756 Y113.618 E14.96764
G1 X102.124 Y114.193 E15.00034
G1 X102.562 Y114.717 E15.03305
G1 X103.062 Y115.181 E15.06572
G1 X103.618 Y115.58 E15.09849
G1 X104.218 Y115.904 E15.13115
G1 X104.854 Y116.15 E15.16381
G1 X105.523 Y116.316 E15.19682
G1 X106.462 Y116.4 E15.24198
G1 X113.533 Y116.4 E15.58064
G1 X114.201 Y116.358 E15.6127
G1 X114.872 Y116.229 E15.64542
G1 X115.521 Y116.016 E15.67814
G1 X116.138 Y115.724 E15.71083
G1 X116.713 Y115.356 E15.74353
G1 X117.237 Y114.918 E15.77624
G1 X117.701 Y114.418 E15.80891
G1 X118.1 Y113.862 E15.84168
G1 X118.424 Y113.262 E15.87434
G1 X118.67 Y112.626 E15.907
G1 X118.836 Y111.957 E15.94002
G1 X118.92 Y111.018 E15.98517
G1 X118.92 Y108.987 E16.08244
G1 X118.878 Y108.319 E16.1145
G1 X118.749 Y107.648 E16.14723
G1 X118.536 Y106.999 E16.17994
G1 X118.244 Y106.382 E16.21263
G1 X117.876 Y105.807 E16.24533
G1 X117.438 Y105.283 E16.27804
G1 X116.938 Y104.819 E16.31071
G1 X116.382 Y104.42 E16.34349
G1 X115.782 Y104.096 E16.37615
G1 X115.146 Y103.85 E16.40881
G1 X114.477 Y103.684 E16.44182
G1 X113.538 Y103.6 E16.48697
G1 X106.467 Y103.6 E16.82563
G1 X105.799 Y103.642 E16.85769
G1 X105.128 Y103.771 E16.89042
G1 X104.479 Y103.984 E16.92313
G1 X103.862 Y104.276 E16.95582
G1 X103.287 Y104.644 E16.98852
G1 X102.763 Y105.082 E17.02123
G0 F12000 X102.4 Y105.474
G1 F1800 X102.4 Y70.4 E18.70109
G1 F2700 E13.70109
G1 F600 Z0.344
G0 F12000 X100.8 Y70.4 Z0.344
G1 F600 Z0.144
G1 F2700 E18.70109
G1 F1800 X100.8 Y149.6 E22.49434
G1 F2700 E17.49434
G1 F600 Z0.344
G0 F12000 X99.2 Y149.6 Z0.344
G1 F600 Z0.144
G1 F2700 E22.49434
G1 F1800 X99.2 Y70.4 E26.28759
G1 F2700 E21.28759
G1 F600 Z0.344
G0 F12000 X97.6 Y70.4 Z0.344
G1 F600 Z0.144
G1 F2700 E26.28759
G1 F1800 X97.6 Y149.6 E30.08084
G1 F2700 E25.08084
G1 F600 Z0.344
G0 F12000 X96 Y149.6 Z0.344
G1 F600 Z0.144
G1 F2700 E30.08084
G1 F1800 X96 Y70.4 E33.87409
G1 F2700 E28.87409
G1 F600 Z0.344
G0 F12000 X94.4 Y70.4 Z0.344
G1 F600 Z0.144
G1 F2700 E33.87409
G1 F1800 X94.4 Y149.6 E37.66735
G1 F2700 E32.66735
G1 F600 Z0.344
G0 F12000 X92.8 Y149.6 Z0.344
G1 F600 Z0.144
G1 F2700 E37.66735
G1 F1800 X92.8 Y70.4 E41.4606
G1 F2700 E36.4606
G1 F600 Z0.344
G0 F12000 X91.2 Y70.4 Z0.344
G1 F600 Z0.144
G1 F2700 E41.4606
G1 F1800 X91.2 Y149.6 E45.25385
G1 F2700 E40.25385
G1 F600 Z0.344
G0 F12000 X89.6 Y149.6 Z0.344
G1 F600 Z0.144
G1 F2700 E45.25385
G1 F1800 X89.6 Y70.4 E49.0471
G1 F2700 E44.0471
G1 F600 Z0.344
G0 F12000 X88 Y70.4 Z0.344
G1 F600 Z0.144
G1 F2700 E49.0471
G1 F1800 X88 Y149.6 E52.84035
G1 F2700 E47.84035
G1 F600 Z0.344
G0 F12000 X86.4 Y149.6 Z0.344
G1 F600 Z0.144
G1 F2700 E52.84035
G1 F1800 X86.4 Y70.4 E56.6336
G1 F2700 E51.6336
G1 F600 Z0.344
G0 F12000 X84.8 Y70.4 Z0.344
G1 F600 Z0.144
G1 F2700 E56.6336
G1 F1800 X84.8 Y149.6 E60.42686
G1 F2700 E55.42686
G1 F600 Z0.344
G0 F12000 X83.2 Y149.6 Z0.344
G1 F600 Z0.144
G1 F2700 E60.42686
G1 F1800 X83.2 Y70.4 E64.22011
G1 F2700 E59.22011
G1 F600 Z0.344
G0 F12000 X81.6 Y70.415 Z0.344
G1 F600 Z0.144
G1 F2700 E64.22011
G1 F1800 X81.6 Y149.577 E68.01154
G1 F2700 E63.01154
G1 F600 Z0.344
G0 F12000 X80 Y149.439 Z0.344
G1 F600 Z0.144
G1 F2700 E68.01154
G1 F1800 X80 Y70.564 E71.78923
G1 F2700 E66.78923
G1 F600 Z0.344
G0 F12000 X78.4 Y70.891 Z0.344
G1 F600 Z0.144
G1 F2700 E71.78923
G1 F1800 X78.4 Y149.104 E75.53521
G1 F2700 E70.53521
G1 F600 Z0.344
G0 F12000 X76.8 Y148.587 Z0.344
G1 F600 Z0.144
G1 F2700 E75.53521
G1 F1800 X76.8 Y71.417 E79.23123
G1 F2700 E74.23123
G1 F600 Z0.344
G0 F12000 X75.2 Y72.152 Z0.344
G1 F600 Z0.144
G1 F2700 E79.23123
G1 F1800 X75.2 Y147.839 E82.85623
G1 F2700 E77.85623
G1 F600 Z0.344
G0 F12000 X73.6 Y146.837 Z0.344
G1 F600 Z0.144
G1 F2700 E82.85623
G1 F1800 X73.6 Y73.158 E86.38506
G1 F2700 E81.38506
G1 F600 Z0.344
G0 F12000 X72 Y74.494 Z0.344
G1 F600 Z0.144
G1 F2700 E86.38506
G1 F1800 X72 Y145.503 E89.786
G1 F2700 E84.786
G1 F600 Z0.344
G0 F12000 X70.4 Y143.726 Z0.344
G1 F600 Z0.144
G1 F2700 E89.786
G1 F1800 X70.4 Y76.268 E93.01688
G1 F2700 E88.01688
G1 F600 Z0.344
G0 F12000 X68.8 Y78.898 Z0.344
G1 F600 Z0.144
G1 F2700 E93.01688
G1 F1800 X68.8 Y141.084 E95.99525
G1 F2700 E90.99525
G1 F600 Z0.344
G0 F12000 X102.4 Y149.6 Z0.344
G1 F600 Z0.144
G1 F2700 E95.99525
G1 F1800 X102.4 Y114.524 E97.6752
G1 F2700 E92.6752
G1 F600 Z0.344
G0 F12000 X104 Y115.787 Z0.344
G1 F600 Z0.144
G1 F2700 E97.6752
G1 F1800 X104 Y149.6 E99.29466
G1 F2700 E94.29466
G1 F600 Z0.344
G0 F12000 X105.6 Y149.6 Z0.344
G1 F600 Z0.144
G1 F2700 E99.29466
G1 F1800 X105.6 Y116.323 E100.88845
G1 F2700 E95.88845
G1 F600 Z0.344
G0 F12000 X107.2 Y116.4 Z0.344
G1 F600 Z0.144
G1 F2700 E100.88845
G1 F1800 X107.2 Y149.6 E102.47855
G1 F2700 E97.47855
G1 F600 Z0.344
G0 F12000 X108.8 Y149.6 Z0.344
G1 F600 Z0.144
G1 F2700 E102.47855
G1 F1800 X108.8 Y116.4 E104.06865
G1 F2700 E99.06865
G1 F600 Z0.344
G0 F12000 X110.4 Y116.4 Z0.344
G1 F600 Z0.144
G1 F2700 E104.06865
G1 F1800 X110.4 Y149.6 E105.65875
G1 F2700 E100.65875
G1 F600 Z0.344
G0 F12000 X112 Y149.6 Z0.344
G1 F600 Z0.144
G1 F2700 E105.65875
G1 F1800 X112 Y116.4 E107.24885
G1 F2700 E102.24885
G1 F600 Z0.344
G0 F12000 X113.6 Y116.395 Z0.344
G1 F600 Z0.144
G1 F2700 E107.24885
G1 F1800 X113.6 Y149.6 E108.83919
G1 F2700 E103.83919
G1 F600 Z0.344
G0 F12000 X115.2 Y149.6 Z0.344
G1 F600 Z0.144
G1 F2700 E108.83919
G1 F1800 X115.2 Y116.121 E110.44265
G1 F2700 E105.44265
G1 F600 Z0.344
G0 F12000 X116.8 Y115.283 Z0.344
G1 F600 Z0.144
G1 F2700 E110.44265
G1 F1800 X116.8 Y149.6 E112.08625
G1 F2700 E107.08625
G1 F600 Z0.344
G0 F12000 X118.4 Y149.6 Z0.344
G1 F600 Z0.144
G1 F2700 E112.08625
G1 F1800 X118.4 Y113.306 E113.82454
G1 F2700 E108.82454
G1 F600 Z0.344
G0 F12000 X118.4 Y106.711 Z0.344
G1 F600 Z0.144
G1 F2700 E113.82454
G1 F1800 X118.4 Y70.4 E115.56364
G1 F2700 E110.56364
G1 F600 Z0.344
G0 F12000 X116.8 Y70.4 Z0.344
G1 F600 Z0.144
G1 F2700 E115.56364
G1 F1800 X116.8 Y104.719 E117.20733
G1 F2700 E112.20733
G1 F600 Z0.344
G0 F12000 X115.2 Y103.87 Z0.344
G1 F600 Z0.144
G1 F2700 E117.20733
G1 F1800 X115.2 Y70.4 E118.81037
G1 F2700 E113.81037
G1 F600 Z0.344
G0 F12000 X113.6 Y70.4 Z0.344
G1 F600 Z0.144
G1 F2700 E118.81037
G1 F1800 X113.6 Y103.605 E120.40071
G1 F2700 E115.40071
G1 F600 Z0.344
G0 F12000 X112 Y103.6 Z0.344
G1 F600 Z0.144
G1 F2700 E120.40071
G1 F1800 X112 Y70.4 E121.99081
G1 F2700 E116.99081
G1 F600 Z0.344
G0 F12000 X110.4 Y70.4 Z0.344
G1 F600 Z0.144
G1 F2700 E121.99081
G1 F1800 X110.4 Y103.6 E123.58091
G1 F2700 E118.58091
G1 F600 Z0.344
G0 F12000 X108.8 Y103.6 Z0.344
G1 F600 Z0.144
G1 F2700 E123.58091
G1 F1800 X108.8 Y70.4 E125.17101
G1 F2700 E120.17101
G1 F600 Z0.344
G0 F12000 X107.2 Y70.4 Z0.344
G1 F600 Z0.144
G1 F2700 E125.17101
G1 F1800 X107.2 Y103.6 E126.76111
G1 F2700 E121.76111
G1 F600 Z0.344
G0 F12000 X105.6 Y103.681 Z0.344
G1 F600 Z0.144
G1 F2700 E126.76111
G1 F1800 X105.6 Y70.4 E128.35509
G1 F2700 E123.35509
G1 F600 Z0.344
G0 F12000 X104 Y70.4 Z0.344
G1 F600 Z0.144
G1 F2700 E128.35509
G1 F1800 X104 Y104.211 E129.97445
G1 F2700 E124.97445
G1 F600 Z0.344
G0 F12000 X120 Y70.4 Z0.344
G1 F600 Z0.144
G1 F2700 E129.97445
G1 F1800 X120 Y149.6 E133.76771
G1 F2700 E128.76771
G1 F600 Z0.344
G0 F12000 X121.6 Y149.6 Z0.344
G1 F600 Z0.144
G1 F2700 E133.76771
G1 F1800 X121.6 Y70.4 E137.56096
G1 F2700 E132.56096
G1 F600 Z0.344
G0 F12000 X123.2 Y70.4 Z0.344
G1 F600 Z0.144
G1 F2700 E137.56096
G1 F1800 X123.2 Y149.6 E141.35421
G1 F2700 E136.35421
G1 F600 Z0.344
G0 F12000 X124.8 Y149.6 Z0.344
G1 F600 Z0.144
G1 F2700 E141.35421
G1 F1800 X124.8 Y70.4 E145.14746
G1 F2700 E140.14746
G1 F600 Z0.344
G0 F12000 X126.4 Y70.4 Z0.344
G1 F600 Z0.144
G1 F2700 E145.14746
G1 F1800 X126.4 Y149.6 E148.94071
G1 F2700 E143.94071
G1 F600 Z0.344
G0 F12000 X128 Y149.6 Z0.344
G1 F600 Z0.144
G1 F2700 E148.94071
G1 F1800 X128 Y70.4 E152.73396
G1 F2700 E147.73396
G1 F600 Z0.344
G0 F12000 X129.6 Y70.4 Z0.344
G1 F600 Z0.144
G1 F2700 E152.73396
G1 F1800 X129.6 Y149.6 E156.52722
G1 F2700 E151.52722
G1 F600 Z0.344
G0 F12000 X131.2 Y149.6 Z0.344
G1 F600 Z0.144
G1 F2700 E156.52722
G1 F1800 X131.2 Y70.4 E160.32047
G1 F2700 E155.32047
G1 F600 Z0.344
G0 F12000 X132.8 Y70.4 Z0.344
G1 F600 Z0.144
G1 F2700 E160.32047
G1 F1800 X132.8 Y149.6 E164.11372
G1 F2700 E159.11372
G1 F600 Z0.344
G0 F12000 X134.4 Y149.6 Z0.344
G1 F600 Z0.144
G1 F2700 E164.11372
G1 F1800 X134.4 Y70.4 E167.90697
G1 F2700 E162.90697
G1 F600 Z0.344
G0 F12000 X136 Y70.4 Z0.344
G1 F600 Z0.144
G1 F2700 E167.90697
G1 F1800 X136 Y149.6 E171.70022
G1 F2700 E166.70022
G1 F600 Z0.344
G0 F12000 X137.6 Y149.6 Z0.344
G1 F600 Z0.144
G1 F2700 E171.70022
G1 F1800 X137.6 Y70.4 E175.49348
G1 F2700 E170.49348
G1 F600 Z0.344
G0 F12000 X139.2 Y70.469 Z0.344
G1 F600 Z0.144
G1 F2700 E175.49348
G1 F1800 X139.2 Y149.53 E179.28007
G1 F2700 E174.28007
G1 F600 Z0.344
G0 F12000 X140.8 Y149.3 Z0.344
G1 F600 Z0.144
G1 F2700 E179.28007
G1 F1800 X140.8 Y70.704 E183.04439
G1 F2700 E178.04439
G1 F600 Z0.344
G0 F12000 X142.4 Y71.131 Z0.344
G1 F600 Z0.144
G1 F2700 E183.04439
G1 F1800 X142.4 Y148.869 E186.76762
G1 F2700 E181.76762
G1 F600 Z0.344
G0 F12000 X144 Y148.241 Z0.344
G1 F600 Z0.144
G1 F2700 E186.76762
G1 F1800 X144 Y71.753 E190.43099
G1 F2700 E185.43099
G1 F600 Z0.344
G0 F12000 X145.6 Y72.625 Z0.344
G1 F600 Z0.144
G1 F2700 E190.43099
G1 F1800 X145.6 Y147.382 E194.01144
G1 F2700 E189.01144
G1 F600 Z0.344
G0 F12000 X147.2 Y146.22 Z0.344
G1 F600 Z0.144
G1 F2700 E194.01144
G1 F1800 X147.2 Y73.785 E197.48069
G1 F2700 E192.48069
