;FLAVOR:Marlin
;TIME:3691
;Filament used: 2.41971m
;Layer height: 0.12
;MINX:70.219
;MINY:70.219
;MINZ:0.144
;MAXX:149.78
;MAXY:149.78
;MAXZ:4.874
;Generated with Cura_SteamEngine 4.2.1
M140 S60
M105
M190 S60
M104 S200
M105
M109 S200
M82 ;absolute extrusion mode
M201 X500.00 Y500.00 Z100.00 E5000.00 ;Setup machine max acceleration
M203 X500.00 Y500.00 Z10.00 E50.00 ;Setup machine max feedrate
M204 P500.00 R1000.00 T500.00 ;Setup Print/Retract/Travel acceleration
M205 X8.00 Y8.00 Z0.40 E5.00 ;Setup Jerk
M220 S100 ;Reset Feedrate
M221 S100 ;Reset Flowrate

G28 ;Home

G92 E0 ;Reset Extruder
G1 Z2.0 F3000 ;Move Z Axis up
G1 X10.1 Y20 Z0.28 F5000.0 ;Move to start position
G1 X10.1 Y200.0 Z0.28 F1500.0 E15 ;Draw the first line
G1 X10.4 Y200.0 Z0.28 F5000.0 ;Move to side a little
G1 X10.4 Y20 Z0.28 F1500.0 E30 ;Draw the second line
G92 E0 ;Reset Extruder
G1 Z2.0 F3000 ;Move Z Axis up

G92 E0
G92 E0
G1 F2700 E-5
;LAYER_COUNT:33
;LAYER:-6
M107
G0 F12000 X74.824 Y74.658 Z0.144
;TYPE:SUPPORT-INTERFACE
G1 F2700 E0
G1 F1800 X75.52 Y74.012 E0.04548
G1 X75.659 Y73.893 E0.05424
G1 X76.35 Y73.339 E0.09666
G1 X76.489 Y73.235 E0.10498
G1 X77.204 Y72.742 E0.14657
G1 X77.388 Y72.626 E0.15699
G1 X78.144 Y72.183 E0.19896
G1 X78.286 Y72.106 E0.20669
G1 X79.231 Y71.647 E0.25701
G1 X80.081 Y71.304 E0.30091
G1 X80.254 Y71.242 E0.30971
G1 X81.092 Y70.973 E0.35187
G1 X81.256 Y70.927 E0.36002
G1 X82.128 Y70.715 E0.403
G1 X82.29 Y70.682 E0.41092
G1 X83.183 Y70.534 E0.45428
G1 X83.36 Y70.511 E0.46282
G1 X84.254 Y70.428 E0.50583
G1 X84.396 Y70.421 E0.51264
G1 X85.137 Y70.4 E0.54814
G1 X134.874 Y70.401 E2.93027
G1 X135.998 Y70.446 E2.98415
G1 X136.915 Y70.548 E3.02834
G1 X137.09 Y70.573 E3.03681
G1 X137.979 Y70.737 E3.0801
G1 X138.102 Y70.765 E3.08615
G1 X138.996 Y70.999 E3.13041
G1 X139.159 Y71.048 E3.13856
G1 X140.001 Y71.335 E3.18116
G1 X140.167 Y71.398 E3.18967
G1 X140.97 Y71.739 E3.23145
G1 X141.159 Y71.827 E3.24144
G1 X142.07 Y72.301 E3.29062
G1 X142.849 Y72.776 E3.33432
G1 X143 Y72.876 E3.34299
G1 X143.714 Y73.387 E3.38505
G1 X143.862 Y73.5 E3.39396
G1 X144.662 Y74.173 E3.44403
G1 X145.342 Y74.824 E3.48912
G1 X145.988 Y75.52 E3.5346
G1 X146.107 Y75.659 E3.54337
G1 X146.661 Y76.35 E3.58578
G1 X146.765 Y76.489 E3.5941
G1 X147.258 Y77.204 E3.63569
G1 X147.374 Y77.388 E3.64611
G1 X147.887 Y78.271 E3.69502
G1 X148.292 Y79.094 E3.73895
G1 X148.353 Y79.231 E3.74614
G1 X148.695 Y80.076 E3.7898
G1 X148.754 Y80.242 E3.79823
G1 X149.025 Y81.084 E3.8406
G1 X149.072 Y81.25 E3.84886
G1 X149.283 Y82.119 E3.89169
G1 X149.317 Y82.282 E3.89967
G1 X149.465 Y83.174 E3.94297
G1 X149.489 Y83.36 E3.95195
G1 X149.579 Y84.396 E4.00176
G1 X149.6 Y85.129 E4.03688
G1 X149.6 Y134.857 E6.41858
G1 X149.564 Y135.863 E6.4668
G1 X149.554 Y135.998 E6.47328
G1 X149.452 Y136.915 E6.51747
G1 X149.427 Y137.09 E6.52594
G1 X149.265 Y137.968 E6.5687
G1 X149.235 Y138.102 E6.57528
G1 X149.004 Y138.987 E6.61908
G1 X148.952 Y139.159 E6.62769
G1 X148.665 Y140.001 E6.67029
G1 X148.602 Y140.167 E6.6788
G1 X148.261 Y140.97 E6.72058
G1 X148.18 Y141.145 E6.72982
G1 X147.776 Y141.931 E6.77214
G1 X147.698 Y142.07 E6.77978
G1 X147.224 Y142.849 E6.82345
G1 X147.124 Y143 E6.83213
G1 X146.613 Y143.714 E6.87418
G1 X146.5 Y143.862 E6.8831
G1 X145.827 Y144.662 E6.93317
G1 X145.176 Y145.342 E6.97825
G1 X144.491 Y145.978 E7.02302
G1 X144.343 Y146.105 E7.03236
G1 X143.65 Y146.661 E7.07492
G1 X143.511 Y146.765 E7.08323
G1 X142.796 Y147.258 E7.12483
G1 X142.612 Y147.374 E7.13524
G1 X141.856 Y147.817 E7.17721
G1 X141.714 Y147.894 E7.18495
G1 X140.769 Y148.353 E7.23526
G1 X139.914 Y148.698 E7.27942
G1 X139.751 Y148.756 E7.28771
G1 X138.908 Y149.027 E7.33012
G1 X138.744 Y149.073 E7.33828
G1 X137.872 Y149.285 E7.38126
G1 X137.71 Y149.318 E7.38918
G1 X136.817 Y149.466 E7.43253
G1 X136.64 Y149.489 E7.44108
G1 X135.746 Y149.572 E7.48408
G1 X135.604 Y149.579 E7.49089
G1 X134.863 Y149.6 E7.52639
G1 X85.126 Y149.599 E9.90853
G1 X84.002 Y149.554 E9.9624
G1 X83.085 Y149.452 E10.00659
G1 X82.91 Y149.427 E10.01506
G1 X82.021 Y149.263 E10.05836
G1 X81.898 Y149.235 E10.0644
G1 X81.004 Y149.001 E10.10866
G1 X80.841 Y148.952 E10.11681
G1 X79.999 Y148.665 E10.15942
G1 X79.833 Y148.602 E10.16792
G1 X79.03 Y148.261 E10.2097
G1 X78.841 Y148.173 E10.21969
G1 X77.93 Y147.699 E10.26887
G1 X77.151 Y147.224 E10.31257
G1 X77 Y147.124 E10.32125
G1 X76.286 Y146.613 E10.3633
G1 X76.138 Y146.5 E10.37222
G1 X75.338 Y145.827 E10.42229
G1 X74.654 Y145.172 E10.46765
G1 X74.01 Y144.478 E10.51299
G1 X73.893 Y144.341 E10.52162
G1 X73.343 Y143.655 E10.56373
G1 X73.227 Y143.499 E10.57304
G1 X72.742 Y142.796 E10.61395
G1 X72.626 Y142.612 E10.62436
G1 X72.183 Y141.856 E10.66633
G1 X72.106 Y141.714 E10.67407
G1 X71.647 Y140.769 E10.72438
G1 X71.298 Y139.905 E10.76901
G1 X71.242 Y139.747 E10.77704
G1 X70.97 Y138.899 E10.8197
G1 X70.928 Y138.749 E10.82716
G1 X70.712 Y137.861 E10.87093
G1 X70.683 Y137.718 E10.87791
G1 X70.533 Y136.812 E10.9219
G1 X70.511 Y136.64 E10.9302
G1 X70.428 Y135.741 E10.97344
G1 X70.421 Y135.604 E10.98001
G1 X70.4 Y134.871 E11.01513
G1 X70.4 Y85.143 E13.39684
G1 X70.436 Y84.137 E13.44505
G1 X70.446 Y84.002 E13.45153
G1 X70.547 Y83.087 E13.49562
G1 X70.573 Y82.912 E13.5041
G1 X70.735 Y82.032 E13.54695
G1 X70.765 Y81.898 E13.55353
G1 X70.996 Y81.012 E13.59738
G1 X71.048 Y80.841 E13.60594
G1 X71.335 Y79.999 E13.64855
G1 X71.398 Y79.833 E13.65705
G1 X71.739 Y79.03 E13.69884
G1 X71.82 Y78.855 E13.70807
G1 X72.301 Y77.93 E13.75801
G1 X72.776 Y77.151 E13.8017
G1 X72.876 Y77 E13.81038
G1 X73.392 Y76.279 E13.85284
G1 X73.5 Y76.138 E13.86135
G1 X74.173 Y75.338 E13.91142
G1 X74.824 Y74.658 E13.95651
G1 F2700 E8.95651
G1 F600 Z0.344
G0 F12000 X105.283 Y105.082 Z0.344
G1 F600 Z0.144
G1 F2700 E13.95651
G1 F1800 X104.819 Y105.582 E13.98918
G1 X104.42 Y106.138 E14.02195
G1 X104.096 Y106.738 E14.05461
G1 X103.85 Y107.374 E14.08727
G1 X103.684 Y108.043 E14.12029
G1 X103.6 Y108.982 E14.16544
G1 X103.6 Y111.013 E14.26271
G1 X103.642 Y111.681 E14.29477
G1 X103.771 Y112.352 E14.3275
G1 X103.984 Y113.001 E14.36021
G1 X104.276 Y113.618 E14.3929
G1 X104.644 Y114.193 E14.4256
G1 X105.082 Y114.717 E14.45831
G1 X105.582 Y115.181 E14.49098
G1 X106.138 Y115.58 E14.52376
G1 X106.738 Y115.904 E14.55642
G1 X107.374 Y116.15 E14.58908
G1 X108.043 Y116.316 E14.62209
G1 X108.982 Y116.4 E14.66724
G1 X111.013 Y116.4 E14.76451
G1 X111.681 Y116.358 E14.79657
G1 X112.352 Y116.229 E14.8293
G1 X113.001 Y116.016 E14.86201
G1 X113.618 Y115.724 E14.89471
G1 X114.193 Y115.356 E14.9274
G1 X114.717 Y114.918 E14.96011
G1 X115.181 Y114.418 E14.99278
G1 X115.58 Y113.862 E15.02556
G1 X115.904 Y113.262 E15.05822
G1 X116.15 Y112.626 E15.09088
G1 X116.316 Y111.957 E15.12389
G1 X116.4 Y111.018 E15.16904
G1 X116.4 Y108.987 E15.26632
G1 X116.358 Y108.319 E15.29837
G1 X116.229 Y107.648 E15.3311
G1 X116.016 Y106.999 E15.36381
G1 X115.724 Y106.382 E15.39651
G1 X115.356 Y105.807 E15.4292
G1 X114.918 Y105.283 E15.46191
G1 X114.418 Y104.819 E15.49458
G1 X113.862 Y104.42 E15.52736
G1 X113.262 Y104.096 E15.56002
G1 X112.626 Y103.85 E15.59268
G1 X111.957 Y103.684 E15.62569
G1 X111.018 Y103.6 E15.67085
G1 X108.987 Y103.6 E15.76812
G1 X108.319 Y103.642 E15.80018
G1 X107.648 Y103.771 E15.8329
G1 X106.999 Y103.984 E15.86562
G1 X106.382 Y104.276 E15.89831
G1 X105.807 Y104.644 E15.93101
G1 X105.283 Y105.082 E15.96372
G0 F12000 X105.6 Y104.818
G1 F1800 X105.6 Y70.401 E17.6121
G1 F2700 E12.6121
G1 F600 Z0.344
G0 F12000 X104 Y70.401 Z0.344
G1 F600 Z0.144
G1 F2700 E17.6121
G1 F1800 X104 Y106.987 E19.36438
G1 F2700 E14.36438
G1 F600 Z0.344
G0 F12000 X107.2 Y103.919 Z0.344
G1 F600 Z0.144
G1 F2700 E19.36438
G1 F1800 X107.2 Y70.401 E20.96971
G1 F2700 E15.96971
G1 F600 Z0.344
G0 F12000 X108.8 Y70.401 Z0.344
G1 F600 Z0.144
G1 F2700 E20.96971
G1 F1800 X108.8 Y103.612 E22.56033
G1 F2700 E17.56033
G1 F600 Z0.344
G0 F12000 X110.4 Y103.6 Z0.344
G1 F600 Z0.144
G1 F2700 E22.56033
G1 F1800 X110.4 Y70.401 E24.15039
G1 F2700 E19.15039
G1 F600 Z0.344
G0 F12000 X112 Y70.401 Z0.344
G1 F600 Z0.144
G1 F2700 E24.15039
G1 F1800 X112 Y103.694 E25.74494
G1 F2700 E20.74494
G1 F600 Z0.344
G0 F12000 X113.6 Y104.278 Z0.344
G1 F600 Z0.144
G1 F2700 E25.74494
G1 F1800 X113.6 Y70.401 E27.36747
G1 F2700 E22.36747
G1 F600 Z0.344
G0 F12000 X115.2 Y70.401 Z0.344
G1 F600 Z0.144
G1 F2700 E27.36747
G1 F1800 X115.2 Y105.62 E29.05427
G1 F2700 E24.05427
G1 F600 Z0.344
G0 F12000 X115.2 Y114.391 Z0.344
G1 F600 Z0.144
G1 F2700 E29.05427
G1 F1800 X115.2 Y149.599 E30.74054
G1 F2700 E25.74054
G1 F600 Z0.344
G0 F12000 X113.6 Y149.599 Z0.344
G1 F600 Z0.144
G1 F2700 E30.74054
G1 F1800 X113.6 Y115.732 E32.36259
G1 F2700 E27.36259
G1 F600 Z0.344
G0 F12000 X112 Y116.296 Z0.344
G1 F600 Z0.144
G1 F2700 E32.36259
G1 F1800 X112 Y149.599 E33.95762
G1 F2700 E28.95762
G1 F600 Z0.344
G0 F12000 X110.4 Y149.599 Z0.344
G1 F600 Z0.144
G1 F2700 E33.95762
G1 F1800 X110.4 Y116.4 E35.54767
G1 F2700 E30.54767
G1 F600 Z0.344
G0 F12000 X108.8 Y116.384 Z0.344
G1 F600 Z0.144
G1 F2700 E35.54767
G1 F1800 X108.8 Y149.599 E37.13849
G1 F2700 E32.13849
G1 F600 Z0.344
G0 F12000 X107.2 Y149.599 Z0.344
G1 F600 Z0.144
G1 F2700 E37.13849
G1 F1800 X107.2 Y116.083 E38.74373
G1 F2700 E33.74373
G1 F600 Z0.344
G0 F12000 X105.6 Y115.194 Z0.344
G1 F600 Z0.144
G1 F2700 E38.74373
G1 F1800 X105.6 Y149.599 E40.39154
G1 F2700 E35.39154
G1 F600 Z0.344
G0 F12000 X104 Y149.599 Z0.344
G1 F600 Z0.144
G1 F2700 E40.39154
G1 F1800 X104 Y113.035 E42.14276
G1 F2700 E37.14276
G1 F600 Z0.344
G0 F12000 X102.4 Y149.599 Z0.344
G1 F600 Z0.144
G1 F2700 E42.14276
G1 F1800 X102.4 Y70.401 E45.93591
G1 F2700 E40.93591
G1 F600 Z0.344
G0 F12000 X100.8 Y70.401 Z0.344
G1 F600 Z0.144
G1 F2700 E45.93591
G1 F1800 X100.8 Y149.599 E49.72907
G1 F2700 E44.72907
G1 F600 Z0.344
G0 F12000 X99.2 Y149.599 Z0.344
G1 F600 Z0.144
G1 F2700 E49.72907
G1 F1800 X99.2 Y70.401 E53.52223
G1 F2700 E48.52223
G1 F600 Z0.344
G0 F12000 X97.6 Y70.401 Z0.344
G1 F600 Z0.144
G1 F2700 E53.52223
G1 F1800 X97.6 Y149.599 E57.31538
G1 F2700 E52.31538
G1 F600 Z0.344
G0 F12000 X96 Y149.599 Z0.344
G1 F600 Z0.144
G1 F2700 E57.31538
G1 F1800 X96 Y70.401 E61.10854
G1 F2700 E56.10854
G1 F600 Z0.344
G0 F12000 X94.4 Y70.401 Z0.344
G1 F600 Z0.144
G1 F2700 E61.10854
G1 F1800 X94.4 Y149.599 E64.90169
G1 F2700 E59.90169
G1 F600 Z0.344
G0 F12000 X92.8 Y149.599 Z0.344
G1 F600 Z0.144
G1 F2700 E64.90169
G1 F1800 X92.8 Y70.401 E68.69485
G1 F2700 E63.69485
G1 F600 Z0.344
G0 F12000 X91.2 Y70.401 Z0.344
G1 F600 Z0.144
G1 F2700 E68.69485
G1 F1800 X91.2 Y149.599 E72.48801
G1 F2700 E67.48801
G1 F600 Z0.344
G0 F12000 X89.6 Y149.599 Z0.344
G1 F600 Z0.144
G1 F2700 E72.48801
G1 F1800 X89.6 Y70.401 E76.28116
G1 F2700 E71.28116
G1 F600 Z0.344
G0 F12000 X88 Y70.401 Z0.344
G1 F600 Z0.144
G1 F2700 E76.28116
G1 F1800 X88 Y149.599 E80.07432
G1 F2700 E75.07432
G1 F600 Z0.344
G0 F12000 X86.4 Y149.599 Z0.344
G1 F600 Z0.144
G1 F2700 E80.07432
G1 F1800 X86.4 Y70.401 E83.86748
G1 F2700 E78.86748
G1 F600 Z0.344
G0 F12000 X84.8 Y70.409 Z0.344
G1 F600 Z0.144
G1 F2700 E83.86748
G1 F1800 X84.8 Y149.585 E87.65958
G1 F2700 E82.65958
G1 F600 Z0.344
G0 F12000 X83.2 Y149.464 Z0.344
G1 F600 Z0.144
G1 F2700 E87.65958
G1 F1800 X83.2 Y70.531 E91.44004
G1 F2700 E86.44004
G1 F600 Z0.344
G0 F12000 X81.6 Y70.843 Z0.344
G1 F600 Z0.144
G1 F2700 E91.44004
G1 F1800 X81.6 Y149.157 E95.19086
G1 F2700 E90.19086
G1 F600 Z0.344
G0 F12000 X80 Y148.665 Z0.344
G1 F600 Z0.144
G1 F2700 E95.19086
G1 F1800 X80 Y71.336 E98.8945
G1 F2700 E93.8945
G1 F600 Z0.344
G0 F12000 X78.4 Y72.05 Z0.344
G1 F600 Z0.144
G1 F2700 E98.8945
G1 F1800 X78.4 Y147.943 E102.52936
G1 F2700 E97.52936
G1 F600 Z0.344
G0 F12000 X76.8 Y146.98 Z0.344
G1 F600 Z0.144
G1 F2700 E102.52936
G1 F1800 X76.8 Y73.02 E106.07165
G1 F2700 E101.07165
G1 F600 Z0.344
G0 F12000 X75.2 Y74.309 Z0.344
G1 F600 Z0.144
G1 F2700 E106.07165
G1 F1800 X75.2 Y145.694 E109.4906
G1 F2700 E104.4906
G1 F600 Z0.344
G0 F12000 X73.6 Y143.975 Z0.344
G1 F600 Z0.144
G1 F2700 E109.4906
G1 F1800 X73.6 Y76.019 E112.74533
G1 F2700 E107.74533
G1 F600 Z0.344
G0 F12000 X72 Y78.508 Z0.344
G1 F600 Z0.144
G1 F2700 E112.74533
G1 F1800 X72 Y141.495 E115.76207
G1 F2700 E110.76207
G1 F600 Z0.344
G0 F12000 X116.8 Y149.599 Z0.344
G1 F600 Z0.144
G1 F2700 E115.76207
G1 F1800 X116.8 Y70.401 E119.55522
G1 F2700 E114.55522
G1 F600 Z0.344
G0 F12000 X118.4 Y70.401 Z0.344
G1 F600 Z0.144
G1 F2700 E119.55522
G1 F1800 X118.4 Y149.599 E123.34838
G1 F2700 E118.34838
G1 F600 Z0.344
G0 F12000 X120 Y149.599 Z0.344
G1 F600 Z0.144
G1 F2700 E123.34838
G1 F1800 X120 Y70.401 E127.14153
G1 F2700 E122.14153
G1 F600 Z0.344
G0 F12000 X121.6 Y70.401 Z0.344
G1 F600 Z0.144
G1 F2700 E127.14153
G1 F1800 X121.6 Y149.599 E130.93469
G1 F2700 E125.93469
G1 F600 Z0.344
G0 F12000 X123.2 Y149.599 Z0.344
G1 F600 Z0.144
G1 F2700 E130.93469
G1 F1800 X123.2 Y70.401 E134.72785
G1 F2700 E129.72785
G1 F600 Z0.344
G0 F12000 X124.8 Y70.401 Z0.344
G1 F600 Z0.144
G1 F2700 E134.72785
G1 F1800 X124.8 Y149.599 E138.521
G1 F2700 E133.521
G1 F600 Z0.344
G0 F12000 X126.4 Y149.599 Z0.344
G1 F600 Z0.144
G1 F2700 E138.521
G1 F1800 X126.4 Y70.401 E142.31416
G1 F2700 E137.31416
G1 F600 Z0.344
G0 F12000 X128 Y70.401 Z0.344
G1 F600 Z0.144
G1 F2700 E142.31416
G1 F1800 X128 Y149.599 E146.10731
G1 F2700 E141.10731
G1 F600 Z0.344
G0 F12000 X129.6 Y149.599 Z0.344
G1 F600 Z0.144
G1 F2700 E146.10731
G1 F1800 X129.6 Y70.401 E149.90047
G1 F2700 E144.90047
G1 F600 Z0.344
G0 F12000 X131.2 Y70.401 Z0.344
G1 F600 Z0.144
G1 F2700 E149.90047
G1 F1800 X131.2 Y149.599 E153.69363
G1 F2700 E148.69363
G1 F600 Z0.344
G0 F12000 X132.8 Y149.599 Z0.344
G1 F600 Z0.144
G1 F2700 E153.69363
G1 F1800 X132.8 Y70.401 E157.48678
G1 F2700 E152.48678
G1 F600 Z0.344
G0 F12000 X134.4 Y70.401 Z0.344
G1 F600 Z0.144
G1 F2700 E157.48678
G1 F1800 X134.4 Y149.599 E161.27994
G1 F2700 E156.27994
G1 F600 Z0.344
G0 F12000 X136 Y149.549 Z0.344
G1 F600 Z0.144
G1 F2700 E161.27994
G1 F1800 X136 Y70.447 E165.0685
G1 F2700 E160.0685
G1 F600 Z0.344
G0 F12000 X137.6 Y70.668 Z0.344
G1 F600 Z0.144
G1 F2700 E165.0685
G1 F1800 X137.6 Y149.337 E168.83632
G1 F2700 E163.83632
G1 F600 Z0.344
G0 F12000 X139.2 Y148.934 Z0.344
G1 F600 Z0.144
G1 F2700 E168.83632
G1 F1800 X139.2 Y71.062 E172.56597
G1 F2700 E167.56597
G1 F600 Z0.344
G0 F12000 X140.8 Y71.667 Z0.344
G1 F600 Z0.144
G1 F2700 E172.56597
G1 F1800 X140.8 Y148.338 E176.23809
G1 F2700 E171.23809
G1 F600 Z0.344
G0 F12000 X142.4 Y147.499 Z0.344
G1 F600 Z0.144
G1 F2700 E176.23809
G1 F1800 X142.4 Y72.503 E179.82999
G1 F2700 E174.82999
G1 F600 Z0.344
G0 F12000 X144 Y73.617 Z0.344
G1 F600 Z0.144
G1 F2700 E179.82999
G1 F1800 X144 Y146.381 E183.315
G1 F2700 E178.315
G1 F600 Z0.344
G0 F12000 X145.6 Y144.9 Z0.344
G1 F600 Z0.144
G1 F2700 E183.315
G1 F1800 X145.6 Y75.102 E186.65794
G1 F2700 E181.65794
G1 F600 Z0.344
G0 F12000 X147.2 Y77.12 Z0.344
G1 F600 Z0.144
G1 F2700 E186.65794
G1 F1800 X147.2 Y142.886 E189.80778
G1 F2700 E184.80778
G1 F600 Z0.344
G0 F12000 X148.8 Y139.605 Z0.344
G1 F600 Z0.144
G1 F2700 E189.80778
G1 F1800 X148.8 Y80.385 E192.6441
G1 F2700 E187.6441
G1 F600 Z0.344
G0 F12000 X146.067 Y75.673 Z0.344
;TIME_ELAPSED:166.175976
;LAYER:-5
M140 S60
G0 X146.067 Y75.673 Z0.524
;TYPE:SUPPORT
G1 F600 Z0.324
G1 F2700 E192.6441
G1 F1800 X145.968 Y75.558 E192.65409
G1 X145.305 Y74.843 E192.71831
G1 X144.634 Y74.202 E192.77942
G1 X143.83 Y73.527 E192.84855
G1 X143.689 Y73.418 E192.86029
G1 X143.645 Y73.387 E192.86383
G1 X146.613 Y76.355 E193.14025
G1 X146.619 Y76.362 E193.14086
G1 X146.74 Y76.524 E193.15417
G1 X147.232 Y77.238 E193.21128
