;FLAVOR:Marlin
;TIME:3034
;Filament used: 2.69064m
;Layer height: 0.12
;MINX:37.235
;MINY:43.231
;MINZ:0.144
;MAXX:182.765
;MAXY:176.769
;MAXZ:2.834
;Generated with Cura_SteamEngine 4.2.1
M140 S60
M105
M190 S60
M104 S200
M105
M109 S200
M82 ;absolute extrusion mode
M201 X500.00 Y500.00 Z100.00 E5000.00 ;Setup machine max acceleration
M203 X500.00 Y500.00 Z10.00 E50.00 ;Setup machine max feedrate
M204 P500.00 R1000.00 T500.00 ;Setup Print/Retract/Travel acceleration
M205 X8.00 Y8.00 Z0.40 E5.00 ;Setup Jerk
M220 S100 ;Reset Feedrate
M221 S100 ;Reset Flowrate

G28 ;Home

G92 E0 ;Reset Extruder
G1 Z2.0 F3000 ;Move Z Axis up
G1 X10.1 Y20 Z0.28 F5000.0 ;Move to start position
G1 X10.1 Y200.0 Z0.28 F1500.0 E15 ;Draw the first line
G1 X10.4 Y200.0 Z0.28 F5000.0 ;Move to side a little
G1 X10.4 Y20 Z0.28 F1500.0 E30 ;Draw the second line
G92 E0 ;Reset Extruder
G1 Z2.0 F3000 ;Move Z Axis up

G92 E0
G92 E0
G1 F2700 E-5
;LAYER_COUNT:16
;LAYER:-6
M107
G0 F12000 X58.122 Y63.413 Z0.144
;TYPE:SUPPORT-INTERFACE
G1 F2700 E0
G1 F1800 X60.077 Y61.646 E0.12621
G1 X60.426 Y61.341 E0.14841
G1 X61.667 Y60.3 E0.22599
G1 X63.181 Y59.098 E0.31858
G1 X65.121 Y57.647 E0.43461
G1 X66.064 Y56.977 E0.49001
G1 X67.6 Y55.935 E0.57891
G1 X68.036 Y55.651 E0.60383
G1 X70.091 Y54.36 E0.72006
G1 X70.501 Y54.111 E0.74304
G1 X71.024 Y53.809 E0.77196
G1 X73.416 Y52.467 E0.90332
G1 X73.853 Y52.233 E0.92707
G1 X75.308 Y51.486 E1.0054
G1 X76.711 Y50.805 E1.08009
G1 X77.197 Y50.58 E1.10574
G1 X79.869 Y49.402 E1.2456
G1 X80.632 Y49.089 E1.2851
G1 X82.927 Y48.201 E1.40296
G1 X83.444 Y48.012 E1.42933
G1 X85.412 Y47.334 E1.52902
G1 X86.657 Y46.937 E1.59161
G1 X88.013 Y46.536 E1.65933
G1 X90.41 Y45.879 E1.77837
G1 X90.821 Y45.773 E1.7987
G1 X91.437 Y45.627 E1.82902
G1 X94.181 Y45.014 E1.96368
G1 X94.663 Y44.916 E1.98724
G1 X96.372 Y44.6 E2.07048
G1 X98.284 Y44.291 E2.16324
G1 X100.566 Y43.982 E2.27353
G1 X102.032 Y43.819 E2.34418
G1 X103.951 Y43.649 E2.43645
G1 X104.421 Y43.616 E2.45901
G1 X107.276 Y43.463 E2.59595
G1 X107.903 Y43.443 E2.626
G1 X110.646 Y43.412 E2.75738
G1 X111.176 Y43.416 E2.78276
G1 X112.869 Y43.457 E2.86387
G1 X114.368 Y43.525 E2.93574
G1 X114.915 Y43.559 E2.96199
G1 X117.73 Y43.777 E3.09722
G1 X118.474 Y43.854 E3.13304
G1 X121.177 Y44.192 E3.26351
G1 X121.728 Y44.271 E3.29017
G1 X123.827 Y44.612 E3.39202
G1 X125.04 Y44.838 E3.45111
G1 X125.984 Y45.03 E3.49725
G1 X126.365 Y45.113 E3.51593
G1 X129.116 Y45.749 E3.65116
G1 X129.792 Y45.921 E3.68457
G1 X132.42 Y46.653 E3.81523
G1 X132.874 Y46.788 E3.83791
G1 X134.664 Y47.357 E3.92787
G1 X135.937 Y47.793 E3.99232
G1 X136.385 Y47.954 E4.01512
G1 X139.286 Y49.054 E4.16371
G1 X140.026 Y49.361 E4.20208
G1 X142.179 Y50.297 E4.31452
G1 X142.669 Y50.521 E4.34033
G1 X144.772 Y51.527 E4.45198
G1 X145.783 Y52.044 E4.50637
G1 X147.661 Y53.051 E4.60843
G1 X148.048 Y53.268 E4.62968
G1 X149.632 Y54.185 E4.71734
G1 X150.751 Y54.867 E4.7801
G1 X151.148 Y55.118 E4.8026
G1 X153.318 Y56.537 E4.92678
G1 X153.672 Y56.775 E4.94721
G1 X154.287 Y57.208 E4.98323
G1 X156.137 Y58.558 E5.09292
G1 X156.608 Y58.916 E5.12125
G1 X158.096 Y60.087 E5.21194
G1 X158.37 Y60.309 E5.22883
G1 X158.948 Y60.789 E5.26482
G1 X159.286 Y61.079 E5.28615
G1 X161.374 Y62.922 E5.41954
G1 X161.893 Y63.402 E5.45339
G1 X163.625 Y65.082 E5.56896
G1 X163.922 Y65.379 E5.58908
G1 X164.444 Y65.915 E5.62491
G1 X165.494 Y67.034 E5.6984
G1 X166.559 Y68.224 E5.77489
G1 X166.875 Y68.589 E5.79801
G1 X168.572 Y70.629 E5.92511
G1 X169.044 Y71.227 E5.96159
G1 X170.491 Y73.148 E6.07678
G1 X171.085 Y73.977 E6.12562
G1 X171.958 Y75.257 E6.19983
G1 X172.719 Y76.425 E6.2666
G1 X173.008 Y76.887 E6.2927
G1 X174.266 Y78.985 E6.40986
G1 X174.674 Y79.706 E6.44954
G1 X175.832 Y81.884 E6.56768
G1 X176.075 Y82.365 E6.59349
G1 X176.81 Y83.888 E6.67448
G1 X176.97 Y84.233 E6.6927
G1 X177.318 Y85.012 E6.73356
G1 X177.489 Y85.413 E6.75444
G1 X178.391 Y87.6 E6.86774
G1 X178.576 Y88.07 E6.89194
G1 X178.831 Y88.757 E6.92703
G1 X178.972 Y89.153 E6.94717
G1 X179.513 Y90.72 E7.02656
G1 X179.665 Y91.187 E7.05009
G1 X180.05 Y92.436 E7.11268
G1 X180.354 Y93.491 E7.16527
G1 X180.466 Y93.908 E7.18595
G1 X180.84 Y95.37 E7.25822
G1 X180.964 Y95.897 E7.28415
G1 X181.477 Y98.307 E7.40217
G1 X181.624 Y99.09 E7.44032
G1 X181.994 Y101.39 E7.5519
G1 X182.088 Y102.077 E7.58511
G1 X182.256 Y103.505 E7.65397
G1 X182.301 Y103.943 E7.67506
G1 X182.39 Y104.955 E7.72372
G1 X182.424 Y105.459 E7.74791
G1 X182.555 Y107.818 E7.86107
G1 X182.578 Y108.584 E7.89777
G1 X182.585 Y111.066 E8.01665
G1 X182.576 Y111.63 E8.04366
G1 X182.531 Y112.837 E8.10151
G1 X182.5 Y113.392 E8.12813
G1 X182.315 Y115.861 E8.24672
G1 X182.241 Y116.601 E8.28234
G1 X181.929 Y119.054 E8.40077
G1 X181.864 Y119.514 E8.42302
G1 X181.722 Y120.381 E8.4651
G1 X181.65 Y120.789 E8.48494
G1 X181.341 Y122.402 E8.5636
G1 X181.197 Y123.069 E8.59628
G1 X180.642 Y125.415 E8.71174
G1 X180.455 Y126.13 E8.74714
G1 X179.799 Y128.394 E8.86003
G1 X179.615 Y128.98 E8.88945
G1 X179.205 Y130.203 E8.95123
G1 X179.069 Y130.591 E8.97092
G1 X178.619 Y131.813 E9.03329
G1 X178.425 Y132.311 E9.05889
G1 X177.407 Y134.781 E9.18684
G1 X177.124 Y135.422 E9.2204
G1 X176.055 Y137.68 E9.34005
G1 X175.704 Y138.377 E9.37743
G1 X175.021 Y139.674 E9.44764
G1 X174.837 Y140.011 E9.46602
G1 X174.194 Y141.146 E9.5285
G1 X174.041 Y141.405 E9.54291
G1 X172.78 Y143.484 E9.65937
G1 X172.505 Y143.922 E9.68414
G1 X172.01 Y144.669 E9.72706
G1 X170.816 Y146.404 E9.82793
G1 X170.5 Y146.845 E9.85391
G1 X169.329 Y148.418 E9.94784
G1 X169.068 Y148.759 E9.9684
G1 X168.682 Y149.247 E9.9982
G1 X168.432 Y149.555 E10.0172
G1 X166.818 Y151.489 E10.13785
G1 X166.489 Y151.87 E10.16196
G1 X165.616 Y152.841 E10.2245
G1 X164.697 Y153.825 E10.28898
G1 X164.336 Y154.197 E10.31381
G1 X162.487 Y156.044 E10.43898
G1 X161.939 Y156.567 E10.47526
G1 X161.726 Y156.762 E10.48909
G1 X159.88 Y158.422 E10.608
G1 X159.51 Y158.743 E10.63146
G1 X157.841 Y160.129 E10.73536
G1 X156.878 Y160.886 E10.79403
G1 X155.293 Y162.08 E10.88907
G1 X154.931 Y162.346 E10.91059
G1 X153.8 Y163.144 E10.97688
G1 X153.476 Y163.366 E10.99569
G1 X152.228 Y164.199 E11.06756
G1 X151.765 Y164.496 E11.0939
G1 X149.386 Y165.966 E11.22784
G1 X148.813 Y166.302 E11.25965
G1 X146.41 Y167.634 E11.39124
G1 X145.887 Y167.911 E11.41959
G1 X144.059 Y168.832 E11.51762
G1 X143.028 Y169.323 E11.57232
G1 X142.654 Y169.495 E11.59203
G1 X140.169 Y170.589 E11.72207
G1 X139.753 Y170.764 E11.74369
G1 X138.812 Y171.141 E11.79224
G1 X136.688 Y171.946 E11.90103
G1 X136.236 Y172.108 E11.92403
G1 X133.794 Y172.935 E12.04751
G1 X133.104 Y173.15 E12.08212
G1 X131.809 Y173.535 E12.14683
G1 X131.377 Y173.656 E12.16832
G1 X128.608 Y174.384 E12.30544
G1 X127.842 Y174.565 E12.34314
G1 X125.267 Y175.123 E12.46933
G1 X124.774 Y175.22 E12.4934
G1 X123.007 Y175.538 E12.57939
G1 X121.595 Y175.759 E12.64784
G1 X121.176 Y175.818 E12.6681
G1 X118.68 Y176.134 E12.7886
G1 X117.327 Y176.27 E12.85373
G1 X115.315 Y176.427 E12.95039
G1 X114.847 Y176.456 E12.97285
G1 X111.882 Y176.581 E13.11498
G1 X111.245 Y176.589 E13.14549
G1 X108.407 Y176.58 E13.28142
G1 X107.962 Y176.571 E13.30273
G1 X106.212 Y176.505 E13.38661
G1 X104.599 Y176.408 E13.464
G1 X104.145 Y176.374 E13.48581
G1 X101.397 Y176.123 E13.61797
G1 X100.392 Y176.003 E13.66645
G1 X98.13 Y175.689 E13.77582
G1 X98.13 Y175.686 E13.77597
G1 X97.758 Y175.636 E13.79394
G1 X97.258 Y175.557 E13.81819
G1 X95.08 Y175.172 E13.92412
G1 X93.679 Y174.89 E13.99256
G1 X93.256 Y174.798 E14.0133
G1 X90.616 Y174.181 E14.14315
G1 X90.177 Y174.071 E14.16482
G1 X89.47 Y173.879 E14.19991
G1 X87.117 Y173.208 E14.3171
G1 X86.654 Y173.067 E14.34028
G1 X84.766 Y172.458 E14.43529
G1 X84.432 Y172.344 E14.4522
G1 X83.691 Y172.085 E14.48979
G1 X83.309 Y171.944 E14.50929
G1 X80.833 Y171.003 E14.63616
G1 X80.354 Y170.812 E14.66085
G1 X79.59 Y170.494 E14.70049
G1 X79.175 Y170.315 E14.72213
G1 X77.474 Y169.558 E14.81131
G1 X76.985 Y169.328 E14.83719
G1 X74.467 Y168.097 E14.97143
G1 X73.929 Y167.813 E15.00056
G1 X71.813 Y166.657 E15.11605
G1 X71.378 Y166.41 E15.14001
G1 X69.655 Y165.386 E15.236
G1 X68.728 Y164.806 E15.28837
G1 X68.375 Y164.577 E15.30853
G1 X66.203 Y163.128 E15.43358
G1 X65.822 Y162.866 E15.45572
G1 X64.957 Y162.241 E15.50684
G1 X63.349 Y161.039 E15.60299
G1 X62.931 Y160.715 E15.62832
G1 X61.251 Y159.363 E15.7316
G1 X60.92 Y159.088 E15.75221
G1 X60.312 Y158.563 E15.79069
G1 X58.295 Y156.756 E15.92039
G1 X57.813 Y156.303 E15.95207
G1 X55.987 Y154.511 E16.0746
G1 X55.632 Y154.151 E16.09882
G1 X54.618 Y153.076 E16.16959
G1 X53.652 Y152.008 E16.23857
G1 X52.437 Y150.594 E16.32786
G1 X52.228 Y150.34 E16.34361
G1 X50.717 Y148.457 E16.45924
G1 X50.295 Y147.902 E16.49263
G1 X48.788 Y145.82 E16.61573
G1 X48.436 Y145.311 E16.64537
G1 X47.641 Y144.118 E16.71403
G1 X47.407 Y143.756 E16.73468
G1 X46.819 Y142.816 E16.78778
G1 X46.559 Y142.383 E16.81197
G1 X45.281 Y140.178 E16.93404
G1 X44.921 Y139.516 E16.97013
G1 X43.828 Y137.393 E17.08449
G1 X43.598 Y136.929 E17.1093
G1 X43.195 Y136.076 E17.15448
G1 X42.529 Y134.588 E17.23256
G1 X42.022 Y133.379 E17.29535
G1 X41.807 Y132.829 E17.32363
G1 X40.868 Y130.309 E17.45243
G1 X40.589 Y129.492 E17.49378
G1 X39.968 Y127.523 E17.59267
G1 X39.778 Y126.879 E17.62482
G1 X39.366 Y125.369 E17.69979
G1 X39.247 Y124.903 E17.72282
G1 X39.05 Y124.081 E17.76331
G1 X38.963 Y123.696 E17.78221
G1 X38.469 Y121.329 E17.89802
G1 X38.372 Y120.817 E17.92298
G1 X38.194 Y119.753 E17.97465
G1 X37.947 Y118.073 E18.05598
G1 X37.887 Y117.619 E18.07791
G1 X37.717 Y116.123 E18.15002
G1 X37.635 Y115.233 E18.19283
G1 X37.603 Y114.827 E18.21233
G1 X37.496 Y113.186 E18.29109
G1 X37.471 Y112.604 E18.319
G1 X37.416 Y110.295 E18.42962
G1 X37.417 Y109.544 E18.46558
G1 X37.482 Y107.14 E18.58076
G1 X37.513 Y106.497 E18.6116
G1 X37.617 Y105.011 E18.68294
G1 X37.749 Y103.604 E18.75063
G1 X37.819 Y102.994 E18.78003
G1 X38.174 Y100.403 E18.90529
G1 X38.284 Y99.725 E18.93818
G1 X38.726 Y97.388 E19.0521
G1 X38.84 Y96.847 E19.07858
G1 X39.175 Y95.399 E19.14976
G1 X39.278 Y94.983 E19.17029
G1 X39.544 Y93.969 E19.2205
G1 X39.68 Y93.485 E19.24457
G1 X40.364 Y91.196 E19.359
G1 X40.507 Y90.745 E19.38166
G1 X40.803 Y89.873 E19.42576
G1 X41.496 Y87.968 E19.52285
G1 X41.695 Y87.451 E19.54938
G1 X42.418 Y85.683 E19.64087
G1 X42.583 Y85.297 E19.66097
G1 X42.804 Y84.794 E19.68729
G1 X42.994 Y84.382 E19.70901
G1 X44.064 Y82.138 E19.82808
G1 X44.295 Y81.675 E19.85287
G1 X44.908 Y80.507 E19.91604
G1 X45.769 Y78.962 E20.00075
G1 X45.98 Y78.599 E20.02086
G1 X46.188 Y78.253 E20.0402
G1 X47.217 Y76.556 E20.13525
G1 X47.627 Y75.912 E20.17182
G1 X47.782 Y75.681 E20.18514
G1 X49.18 Y73.629 E20.30406
G1 X49.535 Y73.129 E20.33343
G1 X50.547 Y71.77 E20.41458
G1 X51.354 Y70.737 E20.47736
G1 X51.719 Y70.288 E20.50508
G1 X53.301 Y68.401 E20.62301
G1 X54.015 Y67.594 E20.67462
G1 X55.282 Y66.226 E20.76393
G1 X55.661 Y65.833 E20.79008
G1 X57.303 Y64.188 E20.90139
G1 X57.616 Y63.884 E20.92229
G1 X58.122 Y63.413 E20.9554
G1 F2700 E15.9554
G1 F600 Z0.344
G0 F12000 X79.489 Y86.306 Z0.344
G1 F600 Z0.144
G1 F2700 E20.9554
G1 F1800 X79.304 Y86.483 E20.96766
G1 X77.954 Y87.847 E21.05958
G1 X77.182 Y88.699 E21.11465
G1 X76.099 Y89.984 E21.19513
G1 X75.964 Y90.152 E21.20546
G1 X75.347 Y90.953 E21.25388
G1 X74.979 Y91.46 E21.28389
G1 X74.029 Y92.862 E21.365
G1 X73.888 Y93.083 E21.37755
G1 X73.081 Y94.413 E21.45206
G1 X72.965 Y94.614 E21.46318
G1 X72.313 Y95.82 E21.52884
G1 X72.26 Y95.929 E21.53464
G1 X71.526 Y97.488 E21.61717
G1 X71.422 Y97.723 E21.62948
G1 X70.994 Y98.761 E21.68326
G1 X70.904 Y98.997 E21.69535
G1 X70.425 Y100.34 E21.76364
G1 X70.342 Y100.595 E21.77649
G1 X69.864 Y102.21 E21.85715
G1 X69.627 Y103.153 E21.90372
G1 X69.533 Y103.588 E21.92504
G1 X69.245 Y105.143 E22.00078
G1 X69.201 Y105.419 E22.01417
G1 X69.016 Y106.836 E22.08261
G1 X68.99 Y107.084 E22.09455
G1 X68.9 Y108.177 E22.14708
G1 X68.883 Y108.487 E22.16195
G1 X68.851 Y109.921 E22.23065
G1 X68.852 Y110.177 E22.24291
G1 X68.89 Y111.607 E22.31142
G1 X68.901 Y111.826 E22.32192
G1 X68.96 Y112.652 E22.36158
G1 X69.055 Y113.575 E22.40602
G1 X69.078 Y113.746 E22.41429
G1 X69.311 Y115.274 E22.48832
G1 X69.362 Y115.552 E22.50185
G1 X69.713 Y117.213 E22.58316
G1 X69.828 Y117.669 E22.60569
G1 X70.043 Y118.451 E22.64453
G1 X70.108 Y118.668 E22.65538
G1 X70.565 Y120.082 E22.72655
G1 X70.654 Y120.336 E22.73944
G1 X71.262 Y121.916 E22.82053
G1 X71.598 Y122.697 E22.86125
G1 X71.94 Y123.432 E22.90007
G1 X72.727 Y124.957 E22.98227
G1 X72.852 Y125.185 E22.99472
G1 X73.596 Y126.467 E23.06571
G1 X73.709 Y126.651 E23.07605
G1 X74.284 Y127.55 E23.12716
G1 X74.572 Y127.969 E23.15151
G1 X75.566 Y129.336 E23.23247
G1 X75.726 Y129.546 E23.24511
G1 X76.855 Y130.935 E23.33084
G1 X78.055 Y132.292 E23.4176
G1 X78.064 Y132.283 E23.41821
G1 X78.346 Y132.576 E23.43769
G1 X79.66 Y133.865 E23.52584
G1 X79.843 Y134.036 E23.53784
G1 X81.232 Y135.27 E23.62683
G1 X82.082 Y135.969 E23.67954
G1 X82.619 Y136.388 E23.71216
G1 X84.104 Y137.473 E23.80024
G1 X84.307 Y137.613 E23.81205
G1 X85.928 Y138.68 E23.905
G1 X87.231 Y139.466 E23.97788
G1 X87.442 Y139.586 E23.98951
G1 X88.916 Y140.381 E24.06972
G1 X90.123 Y140.985 E24.13436
G1 X90.618 Y141.214 E24.16048
G1 X92.41 Y141.988 E24.25397
G1 X92.636 Y142.079 E24.26564
G1 X94.529 Y142.79 E24.36249
G1 X96.067 Y143.299 E24.44008
G1 X96.309 Y143.372 E24.45219
G1 X98.483 Y143.974 E24.56023
G1 X99.291 Y144.168 E24.60003
G1 X100.462 Y144.42 E24.6574
G1 X102.68 Y144.817 E24.76531
G1 X104.878 Y145.114 E24.87154
G1 X106.117 Y145.235 E24.93117
G1 X106.819 Y145.285 E24.96487
G1 X108.867 Y145.379 E25.06307
G1 X109.109 Y145.384 E25.07466
G1 X111.348 Y145.377 E25.1819
G1 X113.537 Y145.272 E25.28686
G1 X115.221 Y145.123 E25.36783
G1 X115.482 Y145.092 E25.38041
G1 X117.114 Y144.874 E25.45927
G1 X118.566 Y144.633 E25.52977
G1 X119.035 Y144.542 E25.55265
G1 X121.298 Y144.042 E25.66365
G1 X121.736 Y143.93 E25.6853
G1 X123.324 Y143.491 E25.76421
G1 X123.835 Y143.337 E25.78977
G1 X124.968 Y142.97 E25.84681
G1 X125.816 Y142.669 E25.88991
G1 X127.933 Y141.843 E25.99875
G1 X129.852 Y140.991 E26.09931
G1 X131.065 Y140.394 E26.16406
G1 X131.544 Y140.142 E26.18998
G1 X133.43 Y139.084 E26.29355
G1 X133.825 Y138.846 E26.31564
G1 X135.13 Y138.011 E26.38984
G1 X136.477 Y137.082 E26.46821
G1 X136.636 Y136.966 E26.47764
G1 X137.815 Y136.067 E26.54865
G1 X139.061 Y135.039 E26.62602
G1 X139.259 Y134.867 E26.63858
G1 X140.548 Y133.688 E26.72224
G1 X140.731 Y133.513 E26.73437
G1 X141.896 Y132.339 E26.81358
G1 X142.053 Y132.173 E26.82453
G1 X142.778 Y131.376 E26.87613
G1 X142.924 Y131.208 E26.88679
G1 X143.992 Y129.927 E26.96667
G1 X144.133 Y129.75 E26.97751
G1 X145.019 Y128.577 E27.04791
G1 X145.102 Y128.458 E27.05486
G1 X146.203 Y126.824 E27.14923
G1 X146.424 Y126.47 E27.16922
G1 X147.07 Y125.366 E27.23048
G1 X147.768 Y124.062 E27.30132
G1 X147.894 Y123.812 E27.31473
G1 X148.663 Y122.16 E27.402
G1 X148.943 Y121.487 E27.43691
G1 X149.168 Y120.902 E27.46693
G1 X149.672 Y119.458 E27.54018
G1 X149.759 Y119.187 E27.55382
G1 X150.148 Y117.842 E27.62087
G1 X150.207 Y117.617 E27.63201
G1 X150.456 Y116.583 E27.68295
G1 X150.52 Y116.28 E27.69779
G1 X150.854 Y114.392 E27.78961
G1 X150.897 Y114.068 E27.80527
G1 X151.027 Y112.869 E27.86303
G1 X151.149 Y111.008 E27.95235
G1 X151.152 Y110.804 E27.96213
G1 X151.147 Y109.232 E28.03742
G1 X151.139 Y108.959 E28.0505
G1 X151.058 Y107.518 E28.11962
G1 X151.04 Y107.291 E28.13053
G1 X150.9 Y105.881 E28.19839
G1 X150.886 Y105.882 E28.19906
G1 X150.587 Y104.048 E28.28806
G1 X150.515 Y103.694 E28.30536
G1 X150.301 Y102.764 E28.35107
G1 X150.248 Y102.557 E28.3613
G1 X149.841 Y101.072 E28.43505
