;FLAVOR:Marlin
;TIME:2713
;Filament used: 2.51111m
;Layer height: 0.12
;MINX:43.24
;MINY:43.243
;MINZ:0.144
;MAXX:176.775
;MAXY:176.756
;MAXZ:2.834
;Generated with Cura_SteamEngine 4.2.1
M140 S60
M105
M190 S60
M104 S200
M105
M109 S200
M82 ;absolute extrusion mode
M201 X500.00 Y500.00 Z100.00 E5000.00 ;Setup machine max acceleration
M203 X500.00 Y500.00 Z10.00 E50.00 ;Setup machine max feedrate
M204 P500.00 R1000.00 T500.00 ;Setup Print/Retract/Travel acceleration
M205 X8.00 Y8.00 Z0.40 E5.00 ;Setup Jerk
M220 S100 ;Reset Feedrate
M221 S100 ;Reset Flowrate

G28 ;Home

G92 E0 ;Reset Extruder
G1 Z2.0 F3000 ;Move Z Axis up
G1 X10.1 Y20 Z0.28 F5000.0 ;Move to start position
G1 X10.1 Y200.0 Z0.28 F1500.0 E15 ;Draw the first line
G1 X10.4 Y200.0 Z0.28 F5000.0 ;Move to side a little
G1 X10.4 Y20 Z0.28 F1500.0 E30 ;Draw the second line
G92 E0 ;Reset Extruder
G1 Z2.0 F3000 ;Move Z Axis up

G92 E0
G92 E0
G1 F2700 E-5
;LAYER_COUNT:16
;LAYER:-6
M107
G0 F12000 X64.262 Y61.612 Z0.144
;TYPE:SUPPORT-INTERFACE
G1 F2700 E0
G1 F1800 X65.362 Y60.596 E0.07172
G1 X69.477 Y57.167 E0.32826
G1 X70.7 Y56.254 E0.40136
G1 X75.127 Y53.28 E0.65679
G1 X76.435 Y52.498 E0.72978
G1 X81.131 Y50 E0.98453
G1 X82.48 Y49.369 E1.05586
G1 X87.442 Y47.354 E1.31236
G1 X88.888 Y46.854 E1.38564
G1 X94.038 Y45.357 E1.64251
G1 X95.508 Y45.013 E1.71481
G1 X100.745 Y44.062 E1.96974
G1 X102.238 Y43.871 E2.04183
G1 X107.43 Y43.468 E2.29125
G1 X107.601 Y43.46 E2.29945
G1 X109.106 Y43.424 E2.37155
G1 X114.465 Y43.567 E2.62831
G1 X115.953 Y43.685 E2.6998
G1 X121.227 Y44.369 E2.95451
G1 X122.716 Y44.643 E3.02702
G1 X127.921 Y45.873 E3.28318
G1 X129.396 Y46.306 E3.3568
G1 X134.427 Y48.06 E3.61199
G1 X135.844 Y48.638 E3.68528
G1 X140.656 Y50.893 E3.9398
G1 X141.985 Y51.604 E4.01199
G1 X146.576 Y54.362 E4.2685
G1 X147.838 Y55.214 E4.34143
G1 X152.117 Y58.428 E4.59774
G1 X153.257 Y59.382 E4.66894
G1 X157.165 Y62.999 E4.92397
G1 X158.236 Y64.1 E4.99754
G1 X161.753 Y68.106 E5.25286
G1 X162.698 Y69.303 E5.3259
G1 X165.785 Y73.648 E5.58117
G1 X166.603 Y74.937 E5.65429
G1 X169.239 Y79.604 E5.91101
G1 X169.916 Y80.966 E5.98385
G1 X172.049 Y85.852 E6.23919
G1 X172.536 Y87.141 E6.30519
G1 X172.588 Y87.293 E6.31288
G1 X174.204 Y92.362 E6.5677
G1 X174.587 Y93.818 E6.63981
G1 X175.68 Y99.062 E6.89636
G1 X175.91 Y100.556 E6.96876
G1 X176.455 Y105.858 E7.22404
G1 X176.527 Y107.017 E7.27965
G1 X176.595 Y109.598 E7.40331
G1 X176.595 Y110.367 E7.44014
G1 X176.522 Y113.101 E7.57113
G1 X176.45 Y114.205 E7.62412
G1 X175.894 Y119.561 E7.88202
G1 X175.66 Y121.044 E7.95393
G1 X174.572 Y126.244 E8.20837
G1 X174.173 Y127.743 E8.28267
G1 X172.541 Y132.844 E8.53918
G1 X172.015 Y134.232 E8.61027
G1 X169.871 Y139.133 E8.86648
G1 X169.195 Y140.482 E8.93875
G1 X166.564 Y145.126 E9.19438
G1 X165.743 Y146.413 E9.2675
G1 X162.653 Y150.756 E9.52278
G1 X161.698 Y151.957 E9.59627
G1 X158.17 Y155.969 E9.85215
G1 X157.219 Y156.944 E9.91738
G1 X157.085 Y157.074 E9.92632
G1 X153.301 Y160.577 E10.17329
G1 X152.131 Y161.559 E10.24645
G1 X152.027 Y161.641 E10.25279
G1 X147.772 Y164.833 E10.50756
G1 X146.472 Y165.703 E10.58247
G1 X141.91 Y168.439 E10.83725
G1 X140.569 Y169.15 E10.90995
G1 X135.737 Y171.408 E11.1654
G1 X134.349 Y171.971 E11.23713
G1 X129.276 Y173.732 E11.49433
G1 X127.813 Y174.155 E11.56727
G1 X122.629 Y175.375 E11.82233
G1 X121.27 Y175.622 E11.88849
G1 X121.099 Y175.647 E11.89677
G1 X115.862 Y176.324 E12.14968
G1 X114.304 Y176.441 E12.22451
G1 X108.985 Y176.576 E12.47934
G1 X107.439 Y176.531 E12.55342
G1 X102.17 Y176.122 E12.80653
G1 X100.631 Y175.921 E12.88087
G1 X95.395 Y174.963 E13.13581
G1 X93.916 Y174.61 E13.20863
G1 X88.767 Y173.107 E13.46553
G1 X87.367 Y172.616 E13.53659
G1 X82.389 Y170.589 E13.79402
G1 X81.04 Y169.955 E13.86541
G1 X76.353 Y167.456 E14.1198
G1 X75.055 Y166.674 E14.19238
G1 X70.629 Y163.696 E14.44788
G1 X69.398 Y162.77 E14.52166
G1 X65.302 Y159.349 E14.77726
G1 X64.187 Y158.313 E14.85015
G1 X60.442 Y154.466 E15.10729
G1 X59.452 Y153.336 E15.17925
G1 X56.13 Y149.131 E15.43591
G1 X55.259 Y147.899 E15.50817
G1 X52.4 Y143.399 E15.76352
G1 X51.656 Y142.079 E15.83609
G1 X49.285 Y137.335 E16.0901
G1 X48.675 Y135.928 E16.16354
G1 X46.787 Y130.913 E16.42019
G1 X46.329 Y129.47 E16.4927
G1 X44.972 Y124.303 E16.74857
G1 X44.663 Y122.809 E16.82164
G1 X43.846 Y117.536 E17.0772
G1 X43.693 Y116.026 E17.14989
G1 X43.421 Y110.719 E17.4044
G1 X43.425 Y109.176 E17.4783
G1 X43.7 Y103.874 E17.73258
G1 X43.862 Y102.337 E17.8066
G1 X44.68 Y97.087 E18.06108
G1 X44.996 Y95.59 E18.13436
G1 X46.353 Y90.443 E18.3893
G1 X46.823 Y88.98 E18.46289
G1 X48.703 Y84.001 E18.71779
G1 X49.322 Y82.592 E18.7915
G1 X51.709 Y77.824 E19.04688
G1 X52.439 Y76.536 E19.11779
G1 X55.308 Y72.026 E19.3738
G1 X56.124 Y70.877 E19.44129
G1 X56.235 Y70.73 E19.45012
G1 X59.525 Y66.579 E19.7038
G1 X60.538 Y65.431 E19.77713
G1 X64.262 Y61.612 E20.0326
G1 F2700 E15.0326
G1 F600 Z0.344
G0 F12000 X83.888 Y86.148 Z0.344
G1 F600 Z0.144
G1 F2700 E20.0326
G1 F1800 X83.524 Y86.553 E20.05868
G1 X81.551 Y88.99 E20.20886
G1 X81.23 Y89.43 E20.23494
G1 X79.507 Y92.085 E20.38653
G1 X79.235 Y92.556 E20.41258
G1 X77.8 Y95.373 E20.564
G1 X77.579 Y95.868 E20.58996
G1 X76.455 Y98.793 E20.74004
G1 X76.285 Y99.315 E20.76634
G1 X75.464 Y102.386 E20.91859
G1 X75.352 Y102.914 E20.94444
G1 X74.856 Y106.033 E21.0957
G1 X74.799 Y106.578 E21.12194
G1 X74.635 Y109.727 E21.27297
G1 X74.635 Y110.268 E21.29888
G1 X74.8 Y113.43 E21.45053
G1 X74.857 Y113.973 E21.47668
G1 X75.352 Y117.089 E21.62779
G1 X75.464 Y117.617 E21.65364
G1 X76.275 Y120.653 E21.80414
G1 X76.445 Y121.177 E21.83053
G1 X77.586 Y124.145 E21.98282
G1 X77.807 Y124.639 E22.00874
G1 X79.236 Y127.445 E22.15956
G1 X79.509 Y127.916 E22.18563
G1 X81.236 Y130.575 E22.33749
G1 X81.554 Y131.014 E22.36345
G1 X83.52 Y133.443 E22.51312
G1 X83.885 Y133.849 E22.53927
G1 X86.148 Y136.112 E22.69255
G1 X86.552 Y136.476 E22.71859
G1 X88.993 Y138.453 E22.86904
G1 X89.434 Y138.774 E22.89516
G1 X92.083 Y140.493 E23.04641
G1 X92.555 Y140.765 E23.0725
G1 X95.363 Y142.195 E23.22342
G1 X95.858 Y142.417 E23.2494
G1 X98.799 Y143.546 E23.40028
G1 X99.317 Y143.715 E23.42638
G1 X102.386 Y144.537 E23.57855
G1 X102.918 Y144.649 E23.60459
G1 X106.034 Y145.144 E23.7557
G1 X106.579 Y145.201 E23.78194
G1 X109.737 Y145.365 E23.9334
G1 X110.278 Y145.365 E23.95931
G1 X113.429 Y145.2 E24.11043
G1 X113.971 Y145.143 E24.13653
G1 X117.094 Y144.647 E24.28798
G1 X117.623 Y144.535 E24.31388
G1 X120.645 Y143.727 E24.4637
G1 X121.166 Y143.558 E24.48994
G1 X124.158 Y142.41 E24.64342
G1 X124.655 Y142.187 E24.66951
G1 X127.44 Y140.767 E24.81924
G1 X127.909 Y140.496 E24.84518
G1 X130.57 Y138.769 E24.99712
G1 X131.012 Y138.449 E25.02325
G1 X133.447 Y136.477 E25.17332
G1 X133.851 Y136.113 E25.19937
G1 X136.112 Y133.852 E25.35251
G1 X136.476 Y133.447 E25.37859
G1 X138.449 Y131.01 E25.52877
G1 X138.77 Y130.57 E25.55485
G1 X140.493 Y127.915 E25.70644
G1 X140.765 Y127.444 E25.73249
G1 X142.197 Y124.632 E25.88363
G1 X142.419 Y124.136 E25.90966
G1 X143.546 Y121.201 E26.06024
G1 X143.715 Y120.683 E26.08633
G1 X144.537 Y117.614 E26.2385
G1 X144.649 Y117.082 E26.26454
G1 X145.144 Y113.966 E26.41565
G1 X145.201 Y113.421 E26.4419
G1 X145.365 Y110.26 E26.59349
G1 X145.365 Y109.719 E26.61941
G1 X145.2 Y106.569 E26.77048
G1 X145.143 Y106.027 E26.79658
G1 X144.648 Y102.911 E26.94769
G1 X144.536 Y102.383 E26.97354
G1 X143.724 Y99.344 E27.1242
G1 X143.554 Y98.82 E27.15059
G1 X142.413 Y95.851 E27.30292
G1 X142.192 Y95.355 E27.32893
G1 X140.768 Y92.56 E27.47917
G1 X140.496 Y92.091 E27.50514
G1 X138.769 Y89.429 E27.65711
G1 X138.448 Y88.988 E27.68324
G1 X136.479 Y86.556 E27.83311
G1 X136.115 Y86.151 E27.85919
G1 X133.852 Y83.888 E28.01247
G1 X133.448 Y83.524 E28.03851
G1 X131.007 Y81.547 E28.18896
G1 X130.566 Y81.226 E28.21508
G1 X127.917 Y79.507 E28.36633
G1 X127.445 Y79.235 E28.39242
G1 X124.637 Y77.805 E28.54334
G1 X124.142 Y77.583 E28.56932
G1 X121.201 Y76.454 E28.7202
G1 X120.683 Y76.285 E28.7463
G1 X117.614 Y75.463 E28.89847
G1 X117.082 Y75.351 E28.92451
G1 X113.966 Y74.856 E29.07562
G1 X113.421 Y74.799 E29.10186
G1 X110.263 Y74.635 E29.25332
G1 X109.723 Y74.635 E29.27918
G1 X106.57 Y74.8 E29.4304
G1 X106.027 Y74.857 E29.45655
G1 X102.911 Y75.352 E29.60766
G1 X102.383 Y75.464 E29.63351
G1 X99.344 Y76.276 E29.78417
G1 X98.82 Y76.446 E29.81055
G1 X95.851 Y77.587 E29.96289
G1 X95.355 Y77.808 E29.9889
G1 X92.56 Y79.232 E30.13914
G1 X92.091 Y79.504 E30.1651
G1 X89.43 Y81.231 E30.31704
G1 X88.988 Y81.551 E30.34318
G1 X86.553 Y83.523 E30.49325
G1 X86.149 Y83.887 E30.51929
G1 X83.888 Y86.148 E30.67244
G0 F12000 X83.2 Y86.954
G1 F1800 X83.2 Y49.076 E32.48659
G1 F2700 E27.48659
G1 F600 Z0.344
G0 F12000 X84.8 Y48.426 Z0.344
G1 F600 Z0.144
G1 F2700 E32.48659
G1 F1800 X84.8 Y85.236 E34.24959
G1 F2700 E29.24959
G1 F600 Z0.344
G0 F12000 X86.4 Y83.661 Z0.344
G1 F600 Z0.144
G1 F2700 E34.24959
G1 F1800 X86.4 Y47.777 E35.96824
G1 F2700 E30.96824
G1 F600 Z0.344
G0 F12000 X88 Y47.161 Z0.344
G1 F600 Z0.144
G1 F2700 E35.96824
G1 F1800 X88 Y82.352 E37.6537
G1 F2700 E32.6537
G1 F600 Z0.344
G0 F12000 X89.6 Y81.121 Z0.344
G1 F600 Z0.144
G1 F2700 E37.6537
G1 F1800 X89.6 Y46.647 E39.30481
G1 F2700 E34.30481
G1 F600 Z0.344
G0 F12000 X91.2 Y46.181 Z0.344
G1 F600 Z0.144
G1 F2700 E39.30481
G1 F1800 X91.2 Y80.083 E40.92854
G1 F2700 E35.92854
G1 F600 Z0.344
G0 F12000 X92.8 Y79.11 Z0.344
G1 F600 Z0.144
G1 F2700 E40.92854
G1 F1800 X92.8 Y45.716 E42.52793
G1 F2700 E37.52793
G1 F600 Z0.344
G0 F12000 X94.4 Y45.272 Z0.344
G1 F600 Z0.144
G1 F2700 E42.52793
G1 F1800 X94.4 Y78.295 E44.10955
G1 F2700 E39.10955
G1 F600 Z0.344
G0 F12000 X96 Y77.53 Z0.344
G1 F600 Z0.144
G1 F2700 E44.10955
G1 F1800 X96 Y44.923 E45.67125
G1 F2700 E40.67125
G1 F600 Z0.344
G0 F12000 X97.6 Y44.633 Z0.344
G1 F600 Z0.144
G1 F2700 E45.67125
G1 F1800 X97.6 Y76.915 E47.21738
G1 F2700 E42.21738
G1 F600 Z0.344
G0 F12000 X99.2 Y76.323 Z0.344
G1 F600 Z0.144
G1 F2700 E47.21738
G1 F1800 X99.2 Y44.342 E48.7491
G1 F2700 E43.7491
G1 F600 Z0.344
G0 F12000 X100.8 Y44.054 Z0.344
G1 F600 Z0.144
G1 F2700 E48.7491
G1 F1800 X100.8 Y75.887 E50.27373
G1 F2700 E45.27373
G1 F600 Z0.344
G0 F12000 X102.4 Y75.461 Z0.344
G1 F600 Z0.144
G1 F2700 E50.27373
G1 F1800 X102.4 Y43.858 E51.78734
G1 F2700 E46.78734
G1 F600 Z0.344
G0 F12000 X104 Y43.734 Z0.344
G1 F600 Z0.144
G1 F2700 E51.78734
G1 F1800 X104 Y75.18 E53.29344
G1 F2700 E48.29344
G1 F600 Z0.344
G0 F12000 X105.6 Y74.925 Z0.344
G1 F600 Z0.144
G1 F2700 E53.29344
G1 F1800 X105.6 Y43.61 E54.79326
G1 F2700 E49.79326
G1 F600 Z0.344
G0 F12000 X107.2 Y43.485 Z0.344
G1 F600 Z0.144
G1 F2700 E54.79326
G1 F1800 X107.2 Y74.768 E56.29154
G1 F2700 E51.29154
G1 F600 Z0.344
G0 F12000 X108.8 Y74.684 Z0.344
G1 F600 Z0.144
G1 F2700 E56.29154
G1 F1800 X108.8 Y43.431 E57.78839
G1 F2700 E52.78839
G1 F600 Z0.344
G0 F12000 X110.4 Y43.459 Z0.344
G1 F600 Z0.144
G1 F2700 E57.78839
G1 F1800 X110.4 Y74.642 E59.28189
G1 F2700 E54.28189
G1 F600 Z0.344
G0 F12000 X112 Y74.725 Z0.344
G1 F600 Z0.144
G1 F2700 E59.28189
G1 F1800 X112 Y43.502 E60.7773
G1 F2700 E55.7773
G1 F600 Z0.344
G0 F12000 X113.6 Y43.544 Z0.344
G1 F600 Z0.144
G1 F2700 E60.7773
G1 F1800 X113.6 Y74.817 E62.27511
G1 F2700 E57.27511
G1 F600 Z0.344
G0 F12000 X115.2 Y75.052 Z0.344
G1 F600 Z0.144
G1 F2700 E62.27511
G1 F1800 X115.2 Y43.626 E63.78025
G1 F2700 E58.78025
G1 F600 Z0.344
G0 F12000 X116.8 Y43.795 Z0.344
G1 F600 Z0.144
G1 F2700 E63.78025
G1 F1800 X116.8 Y75.306 E65.28945
G1 F2700 E60.28945
G1 F600 Z0.344
G0 F12000 X118.4 Y75.673 Z0.344
G1 F600 Z0.144
G1 F2700 E65.28945
G1 F1800 X118.4 Y44.003 E66.80627
G1 F2700 E61.80627
G1 F600 Z0.344
G0 F12000 X120 Y44.21 Z0.344
G1 F600 Z0.144
G1 F2700 E66.80627
G1 F1800 X120 Y76.102 E68.33373
G1 F2700 E63.33373
G1 F600 Z0.344
G0 F12000 X121.6 Y76.607 Z0.344
G1 F600 Z0.144
G1 F2700 E68.33373
G1 F1800 X121.6 Y44.438 E69.87445
G1 F2700 E64.87445
G1 F600 Z0.344
G0 F12000 X123.2 Y44.758 Z0.344
G1 F600 Z0.144
G1 F2700 E69.87445
G1 F1800 X123.2 Y77.221 E71.42925
G1 F2700 E66.42925
G1 F600 Z0.344
G0 F12000 X124.8 Y77.888 Z0.344
G1 F600 Z0.144
G1 F2700 E71.42925
G1 F1800 X124.8 Y45.136 E72.9979
G1 F2700 E67.9979
G1 F600 Z0.344
G0 F12000 X126.4 Y45.514 Z0.344
G1 F600 Z0.144
G1 F2700 E72.9979
G1 F1800 X126.4 Y78.702 E74.58742
G1 F2700 E69.58742
G1 F600 Z0.344
G0 F12000 X128 Y79.56 Z0.344
G1 F600 Z0.144
G1 F2700 E74.58742
G1 F1800 X128 Y45.897 E76.1997
G1 F2700 E71.1997
G1 F600 Z0.344
G0 F12000 X129.6 Y46.378 Z0.344
G1 F600 Z0.144
G1 F2700 E76.1997
G1 F1800 X129.6 Y80.599 E77.8387
G1 F2700 E72.8387
G1 F600 Z0.344
G0 F12000 X131.2 Y81.703 Z0.344
G1 F600 Z0.144
G1 F2700 E77.8387
G1 F1800 X131.2 Y46.935 E79.5039
G1 F2700 E74.5039
G1 F600 Z0.344
G0 F12000 X132.8 Y47.493 Z0.344
G1 F600 Z0.144
G1 F2700 E79.5039
G1 F1800 X132.8 Y82.999 E81.20444
G1 F2700 E76.20444
G1 F600 Z0.344
G0 F12000 X134.4 Y84.436 Z0.344
G1 F600 Z0.144
G1 F2700 E81.20444
G1 F1800 X134.4 Y48.051 E82.94709
G1 F2700 E77.94709
G1 F600 Z0.344
G0 F12000 X136 Y48.712 Z0.344
G1 F600 Z0.144
G1 F2700 E82.94709
G1 F1800 X136 Y86.036 E84.73471
G1 F2700 E79.73471
G1 F600 Z0.344
G0 F12000 X137.6 Y87.94 Z0.344
G1 F600 Z0.144
G1 F2700 E84.73471
G1 F1800 X137.6 Y49.461 E86.57764
G1 F2700 E81.57764
G1 F600 Z0.344
G0 F12000 X139.2 Y50.211 Z0.344
G1 F600 Z0.144
G1 F2700 E86.57764
G1 F1800 X139.2 Y90.093 E88.48777
G1 F2700 E83.48777
G1 F600 Z0.344
G0 F12000 X140.8 Y92.622 Z0.344
G1 F600 Z0.144
G1 F2700 E88.48777
G1 F1800 X140.8 Y50.971 E90.48263
G1 F2700 E85.48263
G1 F600 Z0.344
G0 F12000 X142.4 Y51.854 Z0.344
G1 F600 Z0.144
G1 F2700 E90.48263
G1 F1800 X142.4 Y95.821 E92.58841
G1 F2700 E87.58841
G1 F600 Z0.344
G0 F12000 X144 Y100.376 Z0.344
G1 F600 Z0.144
G1 F2700 E92.58841
G1 F1800 X144 Y52.815 E94.86633
G1 F2700 E89.86633
G1 F600 Z0.344
G0 F12000 X145.6 Y53.776 Z0.344
G1 F600 Z0.144
G1 F2700 E94.86633
G1 F1800 X145.6 Y166.226 E100.25207
G1 F2700 E95.25207
G1 F600 Z0.344
G0 F12000 X144 Y167.186 Z0.344
G1 F600 Z0.144
G1 F2700 E100.25207
G1 F1800 X144 Y119.618 E102.53032
G1 F2700 E97.53032
G1 F600 Z0.344
G0 F12000 X142.4 Y124.178 Z0.344
G1 F600 Z0.144
G1 F2700 E102.53032
G1 F1800 X142.4 Y168.146 E104.63615
G1 F2700 E99.63615
G1 F600 Z0.344
G0 F12000 X140.8 Y169.028 Z0.344
G1 F600 Z0.144
G1 F2700 E104.63615
G1 F1800 X140.8 Y127.375 E106.63111
G1 F2700 E101.63111
G1 F600 Z0.344
G0 F12000 X139.2 Y129.907 Z0.344
G1 F600 Z0.144
G1 F2700 E106.63111
G1 F1800 X139.2 Y169.79 E108.54129
G1 F2700 E103.54129
G1 F600 Z0.344
G0 F12000 X137.6 Y170.538 Z0.344
G1 F600 Z0.144
G1 F2700 E108.54129
G1 F1800 X137.6 Y132.058 E110.38427
G1 F2700 E105.38427
G1 F600 Z0.344
G0 F12000 X136 Y133.964 Z0.344
G1 F600 Z0.144
G1 F2700 E110.38427
G1 F1800 X136 Y171.286 E112.17179
G1 F2700 E107.17179
G1 F600 Z0.344
G0 F12000 X134.4 Y171.951 Z0.344
G1 F600 Z0.144
G1 F2700 E112.17179
G1 F1800 X134.4 Y135.564 E113.91453
G1 F2700 E108.91453
G1 F600 Z0.344
G0 F12000 X132.8 Y137 Z0.344
G1 F600 Z0.144
G1 F2700 E113.91453
G1 F1800 X132.8 Y172.509 E115.61522
G1 F2700 E110.61522
G1 F600 Z0.344
G0 F12000 X131.2 Y173.065 Z0.344
G1 F600 Z0.144
G1 F2700 E115.61522
G1 F1800 X131.2 Y138.296 E117.28047
G1 F2700 E112.28047
G1 F600 Z0.344
G0 F12000 X129.6 Y139.398 Z0.344
G1 F600 Z0.144
G1 F2700 E117.28047
G1 F1800 X129.6 Y173.62 E118.91952
G1 F2700 E113.91952
G1 F600 Z0.344
G0 F12000 X128 Y174.101 Z0.344
G1 F600 Z0.144
G1 F2700 E118.91952
G1 F1800 X128 Y140.436 E120.53189
G1 F2700 E115.53189
G1 F600 Z0.344
G0 F12000 X126.4 Y141.297 Z0.344
G1 F600 Z0.144
G1 F2700 E120.53189
G1 F1800 X126.4 Y174.488 E122.12156
G1 F2700 E117.12156
G1 F600 Z0.344
