;FLAVOR:Marlin
;TIME:2841
;Filament used: 0.933368m
;Layer height: 0.12
;MINX:94.282
;MINY:100.904
;MINZ:0.12
;MAXX:126.14
;MAXY:119.096
;MAXZ:15.96
;Generated with Cura_SteamEngine 4.2.1
M140 S60
M105
M190 S60
M104 S200
M105
M109 S200
M82 ;absolute extrusion mode
M201 X500.00 Y500.00 Z100.00 E5000.00 ;Setup machine max acceleration
M203 X500.00 Y500.00 Z10.00 E50.00 ;Setup machine max feedrate
M204 P500.00 R1000.00 T500.00 ;Setup Print/Retract/Travel acceleration
M205 X8.00 Y8.00 Z0.40 E5.00 ;Setup Jerk
M220 S100 ;Reset Feedrate
M221 S100 ;Reset Flowrate

G28 ;Home

G92 E0 ;Reset Extruder
G1 Z2.0 F3000 ;Move Z Axis up
G1 X10.1 Y20 Z0.28 F5000.0 ;Move to start position
G1 X10.1 Y200.0 Z0.28 F1500.0 E15 ;Draw the first line
G1 X10.4 Y200.0 Z0.28 F5000.0 ;Move to side a little
G1 X10.4 Y20 Z0.28 F1500.0 E30 ;Draw the second line
G92 E0 ;Reset Extruder
G1 Z2.0 F3000 ;Move Z Axis up

G92 E0
G92 E0
G1 F2700 E-5
;LAYER_COUNT:133
;LAYER:0
M107
G0 F6000 X96.817 Y103.169 Z0.12
;TYPE:SKIRT
G1 F2700 E0
G1 F1200 X97.426 Y102.64 E0.01771
G1 X98.084 Y102.175 E0.03539
G1 X98.786 Y101.776 E0.05312
G1 X99.523 Y101.449 E0.07082
G1 X100.29 Y101.197 E0.08854
G1 X101.077 Y101.022 E0.10624
G1 X101.878 Y100.925 E0.12395
G1 X102.449 Y100.905 E0.13649
G1 X108.999 Y100.904 E0.28028
G1 X109.804 Y100.944 E0.29797
G1 X110.602 Y101.063 E0.31568
G1 X111.384 Y101.261 E0.33339
G1 X112.143 Y101.535 E0.3511
G1 X112.871 Y101.883 E0.36882
G1 X112.957 Y101.935 E0.37102
G1 X113.249 Y101.77 E0.37838
G1 X113.987 Y101.444 E0.39609
G1 X114.754 Y101.193 E0.41381
G1 X115.542 Y101.019 E0.43153
G1 X116.343 Y100.924 E0.44923
G1 X116.893 Y100.905 E0.46131
G1 X117.993 Y100.904 E0.48546
G1 X118.798 Y100.943 E0.50315
G1 X119.596 Y101.062 E0.52086
G1 X120.379 Y101.259 E0.53859
G1 X121.137 Y101.533 E0.55628
G1 X121.865 Y101.88 E0.57398
G1 X122.556 Y102.298 E0.59171
G1 X123.201 Y102.782 E0.60941
G1 X123.795 Y103.328 E0.62712
G1 X124.333 Y103.93 E0.64485
G1 X124.808 Y104.581 E0.66254
G1 X125.216 Y105.277 E0.68025
G1 X125.553 Y106.01 E0.69796
G1 X125.817 Y106.773 E0.71568
G1 X126.003 Y107.557 E0.73337
G1 X126.111 Y108.357 E0.75109
G1 X126.14 Y109.044 E0.76618
G1 X126.14 Y110.955 E0.80813
G1 X126.1 Y111.761 E0.82585
G1 X125.98 Y112.559 E0.84356
G1 X125.783 Y113.341 E0.86126
G1 X125.508 Y114.099 E0.87896
G1 X125.16 Y114.827 E0.89668
G1 X124.742 Y115.517 E0.91439
G1 X124.257 Y116.162 E0.9321
G1 X123.711 Y116.755 E0.9498
G1 X123.109 Y117.292 E0.9675
G1 X122.456 Y117.767 E0.98523
G1 X121.76 Y118.174 E1.00293
G1 X121.027 Y118.511 E1.02064
G1 X120.264 Y118.774 E1.03836
G1 X119.479 Y118.959 E1.05606
G1 X118.68 Y119.067 E1.07376
G1 X118.007 Y119.095 E1.08854
G1 X116.907 Y119.096 E1.11269
G1 X116.102 Y119.057 E1.13038
G1 X115.304 Y118.938 E1.14809
G1 X114.521 Y118.741 E1.16582
G1 X113.763 Y118.467 E1.18351
G1 X113.035 Y118.12 E1.20121
G1 X112.944 Y118.065 E1.20355
G1 X112.664 Y118.224 E1.21062
G1 X111.927 Y118.551 E1.22832
G1 X111.16 Y118.803 E1.24604
G1 X110.373 Y118.978 E1.26374
G1 X109.572 Y119.075 E1.28145
G1 X109.001 Y119.095 E1.29399
G1 X102.451 Y119.096 E1.43777
G1 X101.646 Y119.056 E1.45547
G1 X100.848 Y118.937 E1.47318
G1 X100.066 Y118.739 E1.49089
G1 X99.307 Y118.465 E1.5086
G1 X98.579 Y118.117 E1.52631
G1 X97.889 Y117.698 E1.54403
G1 X97.244 Y117.214 E1.56174
G1 X96.65 Y116.668 E1.57945
G1 X96.114 Y116.066 E1.59714
G1 X95.639 Y115.413 E1.61487
G1 X95.231 Y114.717 E1.63258
G1 X94.894 Y113.984 E1.65029
G1 X94.632 Y113.222 E1.66797
G1 X94.446 Y112.437 E1.68568
G1 X94.339 Y111.637 E1.7034
G1 X94.314 Y111.213 E1.71272
G1 X94.282 Y110.2 E1.73497
G1 X94.282 Y109.7 E1.74595
G1 X94.307 Y108.864 E1.76431
G1 X94.354 Y108.194 E1.77905
G1 X94.361 Y108.132 E1.78042
G1 X94.492 Y107.336 E1.79813
G1 X94.7 Y106.556 E1.81585
G1 X94.984 Y105.801 E1.83356
G1 X95.342 Y105.078 E1.85127
G1 X95.769 Y104.394 E1.86897
G1 X96.263 Y103.756 E1.88668
G1 X96.817 Y103.169 E1.9044
G0 F6000 X97.231 Y103.384
G1 F1200 X97.834 Y102.882 E1.92162
G1 X98.485 Y102.444 E1.93885
G1 X99.177 Y102.075 E1.95606
G1 X99.904 Y101.778 E1.9733
G1 X100.656 Y101.557 E1.99051
G1 X101.428 Y101.413 E2.00775
G1 X102.449 Y101.345 E2.03021
G1 X108.999 Y101.344 E2.17399
G1 X109.782 Y101.384 E2.1912
G1 X110.558 Y101.503 E2.20844
G1 X111.317 Y101.701 E2.22566
G1 X112.052 Y101.975 E2.24288
G1 X112.756 Y102.322 E2.2601
G1 X112.943 Y102.44 E2.26496
G1 X112.947 Y102.437 E2.26507
G1 X113.64 Y102.069 E2.28229
G1 X114.367 Y101.774 E2.29952
G1 X115.12 Y101.554 E2.31674
G1 X115.892 Y101.411 E2.33397
G1 X116.893 Y101.345 E2.35599
G1 X117.993 Y101.344 E2.38014
G1 X118.777 Y101.383 E2.39737
G1 X119.552 Y101.502 E2.41458
G1 X120.312 Y101.699 E2.43182
G1 X121.047 Y101.973 E2.44904
G1 X121.751 Y102.319 E2.46626
G1 X122.416 Y102.736 E2.48349
G1 X123.035 Y103.218 E2.50071
G1 X123.601 Y103.761 E2.51793
G1 X124.11 Y104.358 E2.53515
G1 X124.555 Y105.004 E2.55237
G1 X124.932 Y105.692 E2.56959
G1 X125.237 Y106.415 E2.58681
G1 X125.467 Y107.165 E2.60403
G1 X125.62 Y107.935 E2.62127
G1 X125.7 Y109.044 E2.64568
G1 X125.7 Y110.955 E2.68763
G1 X125.66 Y111.739 E2.70486
G1 X125.541 Y112.514 E2.72207
G1 X125.343 Y113.273 E2.73929
G1 X125.069 Y114.008 E2.75651
G1 X124.721 Y114.712 E2.77375
G1 X124.304 Y115.376 E2.79096
G1 X123.821 Y115.995 E2.80819
G1 X123.278 Y116.561 E2.82541
G1 X122.68 Y117.069 E2.84264
G1 X122.034 Y117.514 E2.85986
G1 X121.345 Y117.89 E2.87709
G1 X120.622 Y118.195 E2.89431
G1 X119.872 Y118.424 E2.91153
G1 X119.102 Y118.576 E2.92875
G1 X118.007 Y118.655 E2.95285
G1 X116.907 Y118.656 E2.977
G1 X116.123 Y118.617 E2.99423
G1 X115.348 Y118.498 E3.01144
G1 X114.588 Y118.301 E3.02868
G1 X113.853 Y118.027 E3.0459
G1 X113.149 Y117.681 E3.06312
G1 X112.957 Y117.56 E3.0681
G1 X112.273 Y117.925 E3.08512
G1 X111.546 Y118.222 E3.10236
G1 X110.794 Y118.443 E3.11956
G1 X110.022 Y118.587 E3.1368
G1 X109.001 Y118.655 E3.15927
G1 X102.451 Y118.656 E3.30305
G1 X101.668 Y118.616 E3.32026
G1 X100.892 Y118.497 E3.33749
G1 X100.133 Y118.299 E3.35471
G1 X99.398 Y118.025 E3.37193
G1 X98.694 Y117.678 E3.38916
G1 X98.03 Y117.261 E3.40637
G1 X97.411 Y116.778 E3.42361
G1 X96.845 Y116.235 E3.44083
G1 X96.336 Y115.637 E3.45806
G1 X95.892 Y114.991 E3.47527
G1 X95.515 Y114.302 E3.49251
G1 X95.211 Y113.579 E3.50973
G1 X94.981 Y112.829 E3.52695
G1 X94.829 Y112.059 E3.54418
G1 X94.754 Y111.199 E3.56313
G1 X94.722 Y110.186 E3.58538
G1 X94.721 Y109.713 E3.59576
G1 X94.746 Y108.877 E3.61412
G1 X94.792 Y108.243 E3.62807
G1 X94.799 Y108.181 E3.62944
G1 X94.926 Y107.407 E3.64666
G1 X95.132 Y106.65 E3.66388
G1 X95.414 Y105.918 E3.6811
G1 X95.769 Y105.218 E3.69833
G1 X96.193 Y104.558 E3.71555
G1 X96.682 Y103.944 E3.73278
G1 X97.231 Y103.384 E3.75
G0 F6000 X97.644 Y103.604
G1 F1200 X98.241 Y103.13 E3.76673
G1 X98.884 Y102.721 E3.78346
G1 X99.566 Y102.382 E3.80018
G1 X100.28 Y102.117 E3.8169
G1 X101.018 Y101.928 E3.83362
G1 X101.772 Y101.817 E3.85035
G1 X102.449 Y101.785 E3.86523
G1 X108.999 Y101.784 E4.00901
G1 X109.76 Y101.824 E4.02574
G1 X110.512 Y101.943 E4.04245
G1 X111.248 Y102.141 E4.05918
G1 X111.959 Y102.414 E4.0759
G1 X112.637 Y102.761 E4.09262
G1 X112.95 Y102.965 E4.10082
G1 X113.345 Y102.715 E4.11108
G1 X114.028 Y102.377 E4.12781
G1 X114.743 Y102.113 E4.14454
G1 X115.481 Y101.925 E4.16126
G1 X116.235 Y101.816 E4.17799
G1 X116.893 Y101.785 E4.19245
G1 X117.993 Y101.784 E4.21659
G1 X118.754 Y101.823 E4.23332
G1 X119.507 Y101.942 E4.25005
G1 X120.243 Y102.139 E4.26678
G1 X120.954 Y102.412 E4.2835
G1 X121.633 Y102.758 E4.30023
G1 X122.271 Y103.173 E4.31693
G1 X122.863 Y103.653 E4.33366
G1 X123.401 Y104.193 E4.3504
G1 X123.88 Y104.785 E4.36711
G1 X124.294 Y105.425 E4.38385
G1 X124.638 Y106.104 E4.40056
G1 X124.91 Y106.816 E4.41729
G1 X125.105 Y107.553 E4.43402
G1 X125.222 Y108.305 E4.45073
G1 X125.26 Y109.044 E4.46697
G1 X125.26 Y110.955 E4.50892
G1 X125.22 Y111.716 E4.52565
G1 X125.101 Y112.468 E4.54236
G1 X124.903 Y113.204 E4.55909
G1 X124.629 Y113.915 E4.57582
G1 X124.283 Y114.593 E4.59253
G1 X123.867 Y115.232 E4.60927
G1 X123.386 Y115.823 E4.62599
G1 X122.846 Y116.361 E4.64273
G1 X122.253 Y116.839 E4.65945
G1 X121.613 Y117.252 E4.67617
G1 X120.934 Y117.596 E4.69288
G1 X120.221 Y117.867 E4.70962
G1 X119.485 Y118.062 E4.72633
G1 X118.732 Y118.178 E4.74306
G1 X118.007 Y118.215 E4.75899
G1 X116.907 Y118.216 E4.78314
G1 X116.146 Y118.177 E4.79987
G1 X115.393 Y118.058 E4.8166
G1 X114.657 Y117.861 E4.83333
G1 X113.946 Y117.588 E4.85005
G1 X113.267 Y117.242 E4.86678
G1 X112.949 Y117.035 E4.87511
G1 X112.566 Y117.279 E4.88507
G1 X111.884 Y117.618 E4.90179
G1 X111.17 Y117.883 E4.91851
G1 X110.432 Y118.072 E4.93523
G1 X109.678 Y118.183 E4.95196
G1 X109.001 Y118.215 E4.96684
G1 X102.451 Y118.216 E5.11063
G1 X101.69 Y118.176 E5.12735
G1 X100.938 Y118.057 E5.14407
G1 X100.202 Y117.859 E5.1608
G1 X99.491 Y117.586 E5.17752
G1 X98.813 Y117.239 E5.19424
G1 X98.174 Y116.823 E5.21097
G1 X97.583 Y116.343 E5.22769
G1 X97.045 Y115.803 E5.24442
G1 X96.567 Y115.21 E5.26114
G1 X96.154 Y114.57 E5.27786
G1 X95.81 Y113.891 E5.29457
G1 X95.539 Y113.179 E5.31129
G1 X95.344 Y112.442 E5.32803
G1 X95.227 Y111.689 E5.34475
G1 X95.194 Y111.185 E5.35584
G1 X95.162 Y110.172 E5.37809
G1 X95.161 Y109.726 E5.38788
G1 X95.186 Y108.89 E5.40624
G1 X95.229 Y108.292 E5.4194
G1 X95.236 Y108.23 E5.42077
G1 X95.361 Y107.479 E5.43748
G1 X95.564 Y106.745 E5.4542
G1 X95.843 Y106.036 E5.47093
G1 X96.195 Y105.36 E5.48766
G1 X96.615 Y104.725 E5.50437
G1 X97.1 Y104.137 E5.5211
G1 X97.644 Y103.604 E5.53782
G0 F6000 X97.518 Y104.335
G1 F1200 X98.056 Y103.829 E5.55403
G1 X98.645 Y103.385 E5.57022
G1 X99.28 Y103.007 E5.58645
G1 X99.951 Y102.699 E5.60265
G1 X100.652 Y102.466 E5.61887
G1 X101.373 Y102.311 E5.63506
G1 X102.449 Y102.225 E5.65875
G1 X108.999 Y102.224 E5.80254
G1 X109.736 Y102.264 E5.81874
G1 X110.465 Y102.383 E5.83495
G1 X111.176 Y102.581 E5.85116
G1 X111.862 Y102.854 E5.86736
G1 X112.515 Y103.199 E5.88358
G1 X112.95 Y103.495 E5.89513
G1 X113.106 Y103.378 E5.89941
G1 X113.741 Y103.001 E5.91562
G1 X114.413 Y102.695 E5.93183
G1 X115.114 Y102.463 E5.94803
G1 X115.836 Y102.309 E5.96424
G1 X116.894 Y102.225 E5.98754
G1 X117.994 Y102.224 E6.01169
G1 X118.731 Y102.263 E6.02789
G1 X119.46 Y102.382 E6.0441
G1 X120.172 Y102.579 E6.06032
G1 X120.858 Y102.852 E6.07653
G1 X121.51 Y103.197 E6.09272
G1 X122.122 Y103.611 E6.10894
G1 X122.685 Y104.088 E6.12514
G1 X123.194 Y104.624 E6.14136
G1 X123.641 Y105.211 E6.15756
G1 X124.022 Y105.843 E6.17376
G1 X124.333 Y106.513 E6.18997
G1 X124.569 Y107.213 E6.20619
G1 X124.729 Y107.934 E6.2224
G1 X124.81 Y108.667 E6.23859
G1 X124.82 Y109.044 E6.24687
G1 X124.82 Y110.955 E6.28882
G1 X124.78 Y111.692 E6.30502
G1 X124.661 Y112.421 E6.32123
G1 X124.463 Y113.132 E6.33744
G1 X124.19 Y113.818 E6.35364
G1 X123.844 Y114.471 E6.36987
G1 X123.43 Y115.082 E6.38607
G1 X122.952 Y115.645 E6.40228
G1 X122.416 Y116.153 E6.41849
G1 X121.828 Y116.599 E6.43469
G1 X121.195 Y116.98 E6.45091
G1 X120.525 Y117.29 E6.46711
G1 X119.825 Y117.526 E6.48333
G1 X119.104 Y117.685 E6.49954
G1 X118.006 Y117.775 E6.52372
G1 X116.906 Y117.776 E6.54787
G1 X116.169 Y117.737 E6.56407
G1 X115.44 Y117.618 E6.58028
G1 X114.728 Y117.421 E6.5965
G1 X114.042 Y117.148 E6.61271
G1 X113.39 Y116.803 E6.6289
G1 X112.95 Y116.506 E6.64055
G1 X112.805 Y116.615 E6.64454
G1 X112.17 Y116.993 E6.66076
G1 X111.499 Y117.301 E6.67697
G1 X110.798 Y117.534 E6.69318
G1 X110.077 Y117.689 E6.70937
G1 X109.001 Y117.775 E6.73307
G1 X102.451 Y117.776 E6.87685
G1 X101.714 Y117.736 E6.89305
G1 X100.985 Y117.617 E6.90927
G1 X100.274 Y117.419 E6.92547
G1 X99.588 Y117.146 E6.94168
G1 X98.935 Y116.801 E6.95789
G1 X98.324 Y116.386 E6.9741
G1 X97.761 Y115.908 E6.99031
G1 X97.253 Y115.372 E7.00652
G1 X96.806 Y114.785 E7.02272
G1 X96.425 Y114.152 E7.03894
G1 X96.115 Y113.482 E7.05515
G1 X95.879 Y112.782 E7.07136
G1 X95.72 Y112.061 E7.08757
G1 X95.633 Y111.171 E7.1072
G1 X95.601 Y110.158 E7.12945
G1 X95.601 Y109.739 E7.13864
G1 X95.626 Y108.903 E7.157
G1 X95.666 Y108.342 E7.16935
G1 X95.673 Y108.28 E7.17072
G1 X95.795 Y107.552 E7.18692
G1 X95.996 Y106.841 E7.20314
G1 X96.272 Y106.156 E7.21935
G1 X96.621 Y105.505 E7.23557
G1 X97.037 Y104.896 E7.25176
G1 X97.518 Y104.335 E7.26798
G0 F6000 X97.934 Y104.538
G1 F1200 X98.466 Y104.062 E7.28365
G1 X99.048 Y103.648 E7.29933
G1 X99.672 Y103.301 E7.315
G1 X100.332 Y103.027 E7.33069
G1 X101.018 Y102.828 E7.34637
G1 X101.721 Y102.707 E7.36203
G1 X102.449 Y102.665 E7.37804
G1 X108.999 Y102.664 E7.52182
G1 X109.712 Y102.704 E7.5375
G1 X110.416 Y102.823 E7.55317
G1 X111.103 Y103.02 E7.56886
G1 X111.763 Y103.293 E7.58454
G1 X112.388 Y103.638 E7.60021
G1 X112.951 Y104.036 E7.61534
G1 X113.508 Y103.642 E7.63032
G1 X114.133 Y103.296 E7.646
G1 X114.793 Y103.023 E7.66168
G1 X115.479 Y102.825 E7.67735
G1 X116.183 Y102.705 E7.69303
G1 X116.894 Y102.665 E7.70866
G1 X117.994 Y102.664 E7.73281
G1 X118.707 Y102.703 E7.74848
G1 X119.411 Y102.822 E7.76416
G1 X120.098 Y103.019 E7.77985
G1 X120.758 Y103.291 E7.79552
G1 X121.384 Y103.635 E7.8112
G1 X121.967 Y104.047 E7.82687
G1 X122.501 Y104.522 E7.84256
G1 X122.978 Y105.053 E7.85823
G1 X123.393 Y105.635 E7.87392
G1 X123.74 Y106.259 E7.88959
G1 X124.015 Y106.918 E7.90527
G1 X124.215 Y107.603 E7.92093
G1 X124.337 Y108.307 E7.93661
G1 X124.38 Y109.044 E7.95282
G1 X124.38 Y110.955 E7.99477
G1 X124.34 Y111.668 E8.01045
G1 X124.221 Y112.372 E8.02612
G1 X124.023 Y113.058 E8.04179
G1 X123.75 Y113.718 E8.05747
G1 X123.406 Y114.344 E8.07315
G1 X122.993 Y114.927 E8.08883
G1 X122.518 Y115.46 E8.10451
G1 X121.986 Y115.937 E8.12019
G1 X121.404 Y116.351 E8.13587
G1 X120.78 Y116.697 E8.15153
G1 X120.121 Y116.972 E8.16721
G1 X119.435 Y117.172 E8.18289
G1 X118.731 Y117.293 E8.19857
G1 X118.006 Y117.335 E8.21452
G1 X116.906 Y117.336 E8.23866
G1 X116.193 Y117.297 E8.25434
G1 X115.489 Y117.178 E8.27001
G1 X114.802 Y116.981 E8.2857
G1 X114.142 Y116.709 E8.30137
G1 X113.516 Y116.365 E8.31705
G1 X112.948 Y115.964 E8.33231
G1 X112.402 Y116.352 E8.34702
G1 X111.778 Y116.699 E8.36269
G1 X111.118 Y116.973 E8.37838
G1 X110.432 Y117.172 E8.39406
G1 X109.729 Y117.293 E8.40972
G1 X109.001 Y117.335 E8.42572
G1 X102.451 Y117.336 E8.56951
G1 X101.738 Y117.296 E8.58518
G1 X101.034 Y117.177 E8.60086
G1 X100.347 Y116.98 E8.61654
G1 X99.687 Y116.707 E8.63222
G1 X99.062 Y116.362 E8.64789
G1 X98.479 Y115.95 E8.66357
G1 X97.946 Y115.475 E8.67924
G1 X97.469 Y114.943 E8.69492
G1 X97.055 Y114.361 E8.7106
G1 X96.708 Y113.737 E8.72627
G1 X96.433 Y113.078 E8.74195
G1 X96.234 Y112.392 E8.75763
G1 X96.112 Y111.688 E8.77331
G1 X96.073 Y111.157 E8.785
G1 X96.041 Y110.144 E8.80725
G1 X96.041 Y109.752 E8.81585
G1 X96.066 Y108.916 E8.83421
G1 X96.103 Y108.391 E8.84577
G1 X96.11 Y108.329 E8.84714
G1 X96.23 Y107.625 E8.86281
G1 X96.428 Y106.939 E8.87849
G1 X96.701 Y106.279 E8.89417
G1 X97.046 Y105.654 E8.90984
G1 X97.459 Y105.071 E8.92552
G1 X97.934 Y104.538 E8.94119
G0 F6000 X98.349 Y104.748
G1 F1200 X98.875 Y104.302 E8.95633
G1 X99.448 Y103.919 E8.97146
G1 X100.062 Y103.606 E8.98659
G1 X100.708 Y103.366 E9.00172
G1 X101.377 Y103.203 E9.01683
G1 X102.061 Y103.118 E9.03196
G1 X102.449 Y103.105 E9.04049
G1 X108.999 Y103.104 E9.18427
G1 X109.687 Y103.144 E9.1994
G1 X110.366 Y103.263 E9.21453
G1 X111.026 Y103.46 E9.22965
G1 X111.659 Y103.732 E9.24477
G1 X112.256 Y104.076 E9.2599
G1 X112.81 Y104.487 E9.27504
G1 X112.95 Y104.619 E9.27927
G1 X113.333 Y104.295 E9.29028
G1 X113.907 Y103.914 E9.3054
G1 X114.522 Y103.602 E9.32054
G1 X115.168 Y103.363 E9.33566
G1 X115.838 Y103.201 E9.35079
G1 X116.522 Y103.117 E9.36592
G1 X116.895 Y103.105 E9.37411
G1 X117.995 Y103.104 E9.39826
G1 X118.683 Y103.143 E9.41338
