;FLAVOR:Marlin
;TIME:2935
;Filament used: 1.17979m
;Layer height: 0.12
;MINX:88.905
;MINY:87.219
;MINZ:0.144
;MAXX:132.116
;MAXY:132.78
;MAXZ:15.914
;Generated with Cura_SteamEngine 4.2.1
M140 S60
M105
M190 S60
M104 S200
M105
M109 S200
M82 ;absolute extrusion mode
M201 X500.00 Y500.00 Z100.00 E5000.00 ;Setup machine max acceleration
M203 X500.00 Y500.00 Z10.00 E50.00 ;Setup machine max feedrate
M204 P500.00 R1000.00 T500.00 ;Setup Print/Retract/Travel acceleration
M205 X8.00 Y8.00 Z0.40 E5.00 ;Setup Jerk
M220 S100 ;Reset Feedrate
M221 S100 ;Reset Flowrate

G28 ;Home

G92 E0 ;Reset Extruder
G1 Z2.0 F3000 ;Move Z Axis up
G1 X10.1 Y20 Z0.28 F5000.0 ;Move to start position
G1 X10.1 Y200.0 Z0.28 F1500.0 E15 ;Draw the first line
G1 X10.4 Y200.0 Z0.28 F5000.0 ;Move to side a little
G1 X10.4 Y20 Z0.28 F1500.0 E30 ;Draw the second line
G92 E0 ;Reset Extruder
G1 Z2.0 F3000 ;Move Z Axis up

G92 E0
G92 E0
G1 F2700 E-5
;LAYER_COUNT:125
;LAYER:-6
M107
G0 F9000 X95.899 Y91.814 Z0.144
;TYPE:SUPPORT-INTERFACE
G1 F2700 E0
G1 F1350 X96.011 Y91.701 E0.00762
G1 X96.681 Y91.077 E0.05147
G1 X96.806 Y90.969 E0.05938
G1 X97.498 Y90.412 E0.10193
G1 X97.659 Y90.292 E0.11155
G1 X98.357 Y89.81 E0.15217
G1 X98.526 Y89.703 E0.16175
G1 X99.294 Y89.251 E0.20443
G1 X99.435 Y89.175 E0.21211
G1 X100.56 Y88.633 E0.27191
G1 X101.456 Y88.279 E0.31806
G1 X101.624 Y88.219 E0.3266
G1 X102.453 Y87.96 E0.3682
G1 X102.654 Y87.905 E0.37818
G1 X103.519 Y87.701 E0.42074
G1 X103.668 Y87.672 E0.42801
G1 X104.57 Y87.528 E0.47176
G1 X104.719 Y87.511 E0.47894
G1 X105.794 Y87.423 E0.5306
G1 X106.359 Y87.409 E0.55767
G1 X108.072 Y87.401 E0.63972
G1 X109.534 Y87.45 E0.70978
G1 X110.453 Y87.445 E0.75379
G1 X110.895 Y87.436 E0.77497
G1 X111.034 Y87.427 E0.78164
G1 X111.913 Y87.4 E0.82376
G1 X113.86 Y87.409 E0.91701
G1 X114.818 Y87.464 E0.96297
G1 X114.991 Y87.48 E0.97129
G1 X115.883 Y87.596 E1.01437
G1 X116.055 Y87.624 E1.02272
G1 X117.042 Y87.829 E1.071
G1 X117.934 Y88.076 E1.11533
G1 X118.083 Y88.123 E1.12281
G1 X118.903 Y88.414 E1.16448
G1 X119.112 Y88.499 E1.17529
G1 X120.32 Y89.048 E1.23884
G1 X120.41 Y89.096 E1.24373
G1 X121.207 Y89.542 E1.28747
G1 X121.375 Y89.644 E1.29688
G1 X122.122 Y90.137 E1.33975
G1 X122.25 Y90.229 E1.3473
G1 X122.937 Y90.758 E1.38883
G1 X123.114 Y90.905 E1.39985
G1 X123.762 Y91.484 E1.44147
G1 X123.874 Y91.591 E1.44888
G1 X124.595 Y92.344 E1.49881
G1 X125.073 Y92.814 E1.53092
G1 X125.623 Y93.229 E1.56392
G1 X125.725 Y93.296 E1.56977
G1 X125.862 Y93.393 E1.57781
G1 X126.567 Y93.933 E1.62034
G1 X126.696 Y94.04 E1.62837
G1 X127.371 Y94.642 E1.67168
G1 X127.499 Y94.764 E1.68015
G1 X128.129 Y95.413 E1.72347
G1 X128.234 Y95.53 E1.731
G1 X128.795 Y96.2 E1.77286
G1 X128.916 Y96.355 E1.78227
G1 X129.442 Y97.086 E1.82541
G1 X129.532 Y97.221 E1.83318
G1 X130.002 Y97.986 E1.87618
G1 X130.085 Y98.132 E1.88422
G1 X130.502 Y98.938 E1.92769
G1 X130.563 Y99.069 E1.93461
G1 X130.918 Y99.894 E1.97762
G1 X130.987 Y100.072 E1.98677
G1 X131.274 Y100.903 E2.02887
G1 X131.322 Y101.064 E2.03692
G1 X131.552 Y101.93 E2.07983
G1 X131.593 Y102.115 E2.08891
G1 X131.757 Y102.979 E2.13103
G1 X131.783 Y103.156 E2.1396
G1 X131.88 Y104.017 E2.1811
G1 X131.896 Y104.223 E2.19099
G1 X131.936 Y105.297 E2.24247
G1 X131.935 Y105.643 E2.25904
G1 X131.924 Y106.71 E2.31014
G1 X131.882 Y107.664 E2.35588
G1 X131.867 Y107.842 E2.36444
G1 X131.764 Y108.719 E2.40673
G1 X131.738 Y108.888 E2.41492
G1 X131.565 Y109.779 E2.45839
G1 X131.527 Y109.942 E2.4664
G1 X131.3 Y110.782 E2.50808
G1 X131.237 Y110.988 E2.5184
G1 X130.997 Y111.671 E2.55307
G1 X130.816 Y112.316 E2.58515
G1 X130.716 Y112.991 E2.61784
G1 X130.701 Y113.672 E2.65046
G1 X130.754 Y114.226 E2.67711
G1 X130.902 Y115.267 E2.72747
G1 X130.969 Y116.166 E2.77065
G1 X130.975 Y116.322 E2.77813
G1 X130.975 Y117.22 E2.82114
G1 X130.968 Y117.423 E2.83087
G1 X130.906 Y118.286 E2.87231
G1 X130.887 Y118.461 E2.88074
G1 X130.73 Y119.503 E2.93121
G1 X130.531 Y120.401 E2.97526
G1 X130.491 Y120.556 E2.98293
G1 X130.183 Y121.562 E3.03332
G1 X129.857 Y122.417 E3.07714
G1 X129.791 Y122.574 E3.0853
G1 X129.417 Y123.373 E3.12755
G1 X129.329 Y123.546 E3.13685
G1 X128.904 Y124.305 E3.17851
G1 X128.802 Y124.473 E3.18792
G1 X128.318 Y125.207 E3.23003
G1 X128.217 Y125.348 E3.23834
G1 X127.676 Y126.052 E3.28086
G1 X127.562 Y126.189 E3.2894
G1 X126.973 Y126.847 E3.33169
G1 X126.848 Y126.978 E3.34037
G1 X126.199 Y127.605 E3.38359
G1 X126.067 Y127.724 E3.3921
G1 X125.388 Y128.29 E3.43444
G1 X125.259 Y128.39 E3.44225
G1 X124.526 Y128.916 E3.48546
G1 X124.383 Y129.011 E3.49369
G1 X123.611 Y129.483 E3.53702
G1 X123.48 Y129.556 E3.54421
G1 X122.691 Y129.963 E3.58673
G1 X122.507 Y130.05 E3.59648
G1 X121.699 Y130.395 E3.63855
G1 X121.533 Y130.459 E3.64708
G1 X121.116 Y130.602 E3.66819
G1 X120.764 Y130.753 E3.68653
G1 X120.752 Y130.735 E3.68757
G1 X120.28 Y130.967 E3.71276
G1 X119.443 Y131.363 E3.75711
G1 X119.296 Y131.427 E3.76479
G1 X118.458 Y131.749 E3.80778
G1 X118.291 Y131.806 E3.81623
G1 X117.432 Y132.068 E3.85925
G1 X117.269 Y132.111 E3.86732
G1 X116.412 Y132.306 E3.90942
G1 X116.217 Y132.342 E3.91891
G1 X115.189 Y132.492 E3.96867
G1 X114.175 Y132.569 E4.01737
G1 X113.92 Y132.579 E4.0296
G1 X113.352 Y132.592 E4.05681
G1 X111.888 Y132.599 E4.12693
G1 X110.913 Y132.568 E4.17365
G1 X110.682 Y132.552 E4.18474
G1 X110.32 Y132.54 E4.20209
G1 X109.551 Y132.541 E4.23892
G1 X109.162 Y132.557 E4.25756
G1 X108.679 Y132.59 E4.28075
G1 X108.11 Y132.6 E4.30801
G1 X106.45 Y132.599 E4.38751
G1 X105.326 Y132.554 E4.44139
G1 X104.409 Y132.452 E4.48558
G1 X104.234 Y132.427 E4.49404
G1 X103.345 Y132.263 E4.53734
G1 X103.222 Y132.235 E4.54338
G1 X102.328 Y132.001 E4.58764
G1 X102.165 Y131.952 E4.5958
G1 X101.165 Y131.607 E4.64646
G1 X100.317 Y131.249 E4.69055
G1 X99.114 Y130.658 E4.75474
G1 X99.119 Y130.646 E4.75536
G1 X98.503 Y130.41 E4.78696
G1 X97.683 Y130.061 E4.82964
G1 X97.494 Y129.973 E4.83963
G1 X96.583 Y129.499 E4.88881
G1 X95.804 Y129.024 E4.93251
G1 X95.646 Y128.919 E4.94159
G1 X94.939 Y128.413 E4.98324
G1 X94.791 Y128.3 E4.99215
G1 X94.1 Y127.724 E5.03524
G1 X93.987 Y127.623 E5.0425
G1 X93.338 Y126.998 E5.08565
G1 X93.218 Y126.873 E5.09395
G1 X92.615 Y126.202 E5.13716
G1 X92.518 Y126.084 E5.14447
G1 X91.96 Y125.362 E5.18818
G1 X91.856 Y125.215 E5.1968
G1 X91.363 Y124.472 E5.23951
G1 X91.29 Y124.351 E5.24628
G1 X90.838 Y123.546 E5.29049
G1 X90.766 Y123.407 E5.29799
G1 X90.381 Y122.588 E5.34133
G1 X90.318 Y122.437 E5.34917
G1 X89.994 Y121.59 E5.3926
G1 X89.941 Y121.437 E5.40036
G1 X89.687 Y120.59 E5.44271
G1 X89.641 Y120.417 E5.45128
G1 X89.439 Y119.516 E5.49551
G1 X89.417 Y119.392 E5.50154
G1 X89.282 Y118.478 E5.54579
G1 X89.265 Y118.318 E5.5535
G1 X89.197 Y117.413 E5.59696
G1 X89.192 Y117.273 E5.60367
G1 X89.192 Y116.372 E5.64683
G1 X89.198 Y116.194 E5.65536
G1 X89.263 Y115.297 E5.69843
G1 X89.281 Y115.128 E5.70657
G1 X89.39 Y114.383 E5.74263
G1 X89.445 Y113.716 E5.77469
G1 X89.418 Y113.096 E5.80441
G1 X89.44 Y113.096 E5.80546
G1 X89.306 Y112.365 E5.84106
G1 X89.174 Y111.459 E5.88491
G1 X89.156 Y111.294 E5.89286
G1 X89.092 Y110.404 E5.93559
G1 X89.086 Y110.226 E5.94412
G1 X89.091 Y109.185 E5.99398
G1 X89.157 Y108.303 E6.03634
G1 X89.179 Y108.098 E6.04622
G1 X89.336 Y107.07 E6.09603
G1 X89.534 Y106.181 E6.13965
G1 X89.581 Y106.008 E6.14823
G1 X89.837 Y105.155 E6.19089
G1 X89.893 Y104.992 E6.19914
G1 X90.206 Y104.176 E6.241
G1 X90.282 Y103.998 E6.25027
G1 X90.661 Y103.19 E6.29301
G1 X90.726 Y103.065 E6.29976
G1 X91.093 Y102.411 E6.33568
G1 X91.383 Y101.806 E6.36781
G1 X91.6 Y101.156 E6.40063
G1 X91.744 Y100.38 E6.43843
G1 X91.769 Y100.15 E6.44952
G1 X91.798 Y99.953 E6.45905
G1 X91.96 Y99.075 E6.50181
G1 X91.992 Y98.932 E6.50883
G1 X92.221 Y98.055 E6.55224
G1 X92.273 Y97.883 E6.56085
G1 X92.56 Y97.041 E6.60346
G1 X92.623 Y96.875 E6.61196
G1 X92.965 Y96.067 E6.65398
G1 X93.045 Y95.897 E6.66298
G1 X93.455 Y95.1 E6.70591
G1 X93.539 Y94.949 E6.71418
G1 X93.938 Y94.284 E6.75133
G1 X94.008 Y94.179 E6.75737
G1 X94.523 Y93.429 E6.80094
G1 X94.62 Y93.299 E6.80871
G1 X95.166 Y92.616 E6.85059
G1 X95.309 Y92.449 E6.86112
G1 X95.899 Y91.814 E6.90264
G0 F9000 X96 Y91.712
G1 F1350 X96 Y129.143 E8.69538
G1 F2700 E3.69538
G1 F600 Z0.344
G0 F9000 X97.6 Y130.022 Z0.344
G1 F600 Z0.144
G1 F2700 E8.69538
G1 F1350 X97.6 Y90.335 E10.59617
G1 F2700 E5.59617
G1 F600 Z0.344
G0 F9000 X99.2 Y89.306 Z0.344
G1 F600 Z0.144
G1 F2700 E10.59617
G1 F1350 X99.2 Y130.7 E12.57872
G1 F2700 E7.57872
G1 F600 Z0.344
G0 F9000 X100.8 Y131.452 Z0.344
G1 F600 Z0.144
G1 F2700 E12.57872
G1 F1350 X100.8 Y88.538 E14.63407
G1 F2700 E9.63407
G1 F600 Z0.344
G0 F9000 X102.4 Y87.976 Z0.344
G1 F600 Z0.144
G1 F2700 E14.63407
G1 F1350 X102.4 Y132.019 E16.74349
G1 F2700 E11.74349
G1 F600 Z0.344
G0 F9000 X104 Y132.383 Z0.344
G1 F600 Z0.144
G1 F2700 E16.74349
G1 F1350 X104 Y87.618 E18.88749
G1 F2700 E13.88749
G1 F600 Z0.344
G0 F9000 X105.6 Y87.438 Z0.344
G1 F600 Z0.144
G1 F2700 E18.88749
G1 F1350 X105.6 Y132.564 E21.04878
G1 F2700 E16.04878
G1 F600 Z0.344
G0 F9000 X107.2 Y132.599 Z0.344
G1 F600 Z0.144
G1 F2700 E21.04878
G1 F1350 X107.2 Y87.405 E23.21333
G1 F2700 E18.21333
G1 F600 Z0.344
G0 F9000 X108.8 Y87.426 Z0.344
G1 F600 Z0.144
G1 F2700 E23.21333
G1 F1350 X108.8 Y132.582 E25.37606
G1 F2700 E20.37606
G1 F600 Z0.344
G0 F9000 X110.4 Y132.542 Z0.344
G1 F600 Z0.144
G1 F2700 E25.37606
G1 F1350 X110.4 Y87.445 E27.53596
G1 F2700 E22.53596
G1 F600 Z0.344
G0 F9000 X112 Y87.401 Z0.344
G1 F600 Z0.144
G1 F2700 E27.53596
G1 F1350 X112 Y132.599 E29.7007
G1 F2700 E24.7007
G1 F600 Z0.344
G0 F9000 X113.6 Y132.587 Z0.344
G1 F600 Z0.144
G1 F2700 E29.7007
G1 F1350 X113.6 Y87.408 E31.86453
G1 F2700 E26.86453
G1 F600 Z0.344
G0 F9000 X115.2 Y87.508 Z0.344
G1 F600 Z0.144
G1 F2700 E31.86453
G1 F1350 X115.2 Y132.491 E34.01898
G1 F2700 E29.01898
G1 F600 Z0.344
G0 F9000 X116.8 Y132.218 Z0.344
G1 F600 Z0.144
G1 F2700 E34.01898
G1 F1350 X116.8 Y87.779 E36.14736
G1 F2700 E31.14736
G1 F600 Z0.344
G0 F9000 X118.4 Y88.236 Z0.344
G1 F600 Z0.144
G1 F2700 E36.14736
G1 F1350 X118.4 Y131.769 E38.23236
G1 F2700 E33.23236
G1 F600 Z0.344
G0 F9000 X120 Y131.1 Z0.344
G1 F600 Z0.144
G1 F2700 E38.23236
G1 F1350 X120 Y88.903 E40.25337
G1 F2700 E35.25337
G1 F600 Z0.344
G0 F9000 X121.6 Y89.793 Z0.344
G1 F600 Z0.144
G1 F2700 E40.25337
G1 F1350 X121.6 Y130.434 E42.19985
G1 F2700 E37.19985
G1 F600 Z0.344
G0 F9000 X123.2 Y129.701 Z0.344
G1 F600 Z0.144
G1 F2700 E42.19985
G1 F1350 X123.2 Y90.982 E44.05428
G1 F2700 E39.05428
G1 F600 Z0.344
G0 F9000 X124.8 Y92.546 Z0.344
G1 F600 Z0.144
G1 F2700 E44.05428
G1 F1350 X124.8 Y128.72 E45.78682
G1 F2700 E40.78682
G1 F600 Z0.344
G0 F9000 X126.4 Y127.411 Z0.344
G1 F600 Z0.144
G1 F2700 E45.78682
G1 F1350 X126.4 Y93.806 E47.39632
G1 F2700 E42.39632
G1 F600 Z0.344
G0 F9000 X128 Y95.281 Z0.344
G1 F600 Z0.144
G1 F2700 E47.39632
G1 F1350 X128 Y125.631 E48.84992
G1 F2700 E43.84992
G1 F600 Z0.344
G0 F9000 X129.6 Y122.983 Z0.344
G1 F600 Z0.144
G1 F2700 E48.84992
G1 F1350 X129.6 Y97.332 E50.07846
G1 F2700 E45.07846
G1 F600 Z0.344
G0 F9000 X131.2 Y100.689 Z0.344
G1 F600 Z0.144
G1 F2700 E50.07846
G1 F1350 X131.2 Y111.094 E50.57681
G1 F2700 E45.57681
G1 F600 Z0.344
G0 F9000 X94.4 Y127.974 Z0.344
G1 F600 Z0.144
G1 F2700 E50.57681
G1 F1350 X94.4 Y93.608 E52.22275
G1 F2700 E47.22275
G1 F600 Z0.344
G0 F9000 X92.8 Y96.456 Z0.344
G1 F600 Z0.144
G1 F2700 E52.22275
G1 F1350 X92.8 Y126.407 E53.65724
G1 F2700 E48.65724
G1 F600 Z0.344
G0 F9000 X91.2 Y124.19 Z0.344
G1 F600 Z0.144
G1 F2700 E53.65724
G1 F1350 X91.2 Y102.187 E54.71107
G1 F2700 E49.71107
G1 F600 Z0.344
G0 F9000 X89.6 Y105.944 Z0.344
G1 F600 Z0.144
G1 F2700 E54.71107
G1 F1350 X89.6 Y120.234 E55.39548
G1 F2700 E50.39548
G1 F600 Z0.344
G0 F9000 X89.306 Y118.327 Z0.344
;TIME_ELAPSED:68.217426
;LAYER:-5
M140 S60
G0 X89.306 Y118.327 Z0.524
;TYPE:SUPPORT
G1 F600 Z0.324
G1 F2700 E55.39548
G1 F1350 X89.321 Y118.47 E55.40495
G1 X89.453 Y119.37 E55.46486
G1 X89.482 Y119.522 E55.47505
G1 X89.627 Y120.174 E55.51903
G1 X100.905 Y131.452 E56.56939
G1 X100.326 Y131.207 E56.61079
G1 X99.163 Y130.637 E56.69609
G1 X99.17 Y130.622 E56.69718
G1 X98.504 Y130.365 E56.74419
G1 X98.133 Y130.208 E56.77072
G1 X90.361 Y122.435 E57.49459
G1 X90.417 Y122.571 E57.50428
G1 X90.8 Y123.388 E57.5637
G1 X91.324 Y124.331 E57.63475
G1 X91.391 Y124.44 E57.64317
G1 X91.889 Y125.191 E57.70252
G1 X92.001 Y125.35 E57.71532
G1 X92.548 Y126.058 E57.77424
G1 X92.644 Y126.174 E57.78416
G1 X93.245 Y126.844 E57.84343
G1 X93.317 Y126.919 E57.85028
G1 X93.391 Y126.992 E57.85712
G1 X93.354 Y126.957 E57.86048
G1 F2700 E52.86048
G1 F600 Z0.524
G0 F9000 X89.305 Y118.325 Z0.524
G1 F600 Z0.324
G1 F2700 E57.86048
G1 F1350 X103.154 Y132.174 E59.15028
G1 X103.231 Y132.195 E59.15554
G1 X104.244 Y132.387 E59.22343
G1 X104.428 Y132.414 E59.23568
G1 X104.983 Y132.475 E59.27245
G1 X89.231 Y116.724 E60.73944
G1 X89.231 Y116.373 E60.76255
G1 X89.238 Y116.196 E60.77422
G1 X89.308 Y115.273 E60.83518
G1 X106.593 Y132.558 E62.44498
G1 X108.11 Y132.559 E62.54489
G1 X108.12 Y132.558 E62.54555
G1 X89.468 Y113.906 E64.28267
G1 X89.485 Y113.714 E64.29536
G1 X89.458 Y113.135 E64.33353
G1 X89.487 Y113.134 E64.33544
G1 X89.342 Y112.343 E64.3884
G1 X89.327 Y112.237 E64.39545
G1 X109.588 Y132.499 E66.28247
G1 X110.319 Y132.499 E66.33061
G1 X110.684 Y132.512 E66.35466
G1 X110.915 Y132.527 E66.36991
G1 X111.151 Y132.534 E66.38545
G1 X89.14 Y110.523 E68.43541
G1 X89.132 Y110.4 E68.44353
G1 X89.125 Y110.223 E68.45519
G1 X89.13 Y109.187 E68.52342
G1 X89.144 Y108.999 E68.53583
G1 X112.698 Y132.554 E70.72954
G1 X113.35 Y132.551 E70.77247
G1 X114.172 Y132.528 E70.82663
G1 X114.197 Y132.525 E70.82829
G1 X89.289 Y107.617 E73.14805
G1 X89.345 Y107.24 E73.17315
G1 X89.379 Y107.063 E73.18502
G1 X89.539 Y106.34 E73.23378
G1 X115.593 Y132.394 E75.66027
G1 X116.195 Y132.304 E75.70036
G1 X116.42 Y132.262 E75.71543
G1 X116.882 Y132.156 E75.74665
G1 X89.879 Y105.153 E78.26152
G1 X89.925 Y105.019 E78.27085
G1 X90.302 Y104.048 E78.33945
G1 X118.081 Y131.827 E80.92659
G1 X118.279 Y131.767 E80.94022
G1 X118.438 Y131.712 E80.9513
G1 X119.2 Y131.419 E81.00506
G1 X90.798 Y103.016 E83.65027
G1 X91.129 Y102.428 E83.69471
G1 X91.326 Y102.017 E83.72472
G1 X120.245 Y130.937 E86.41809
G1 X120.262 Y130.93 E86.4193
G1 X120.766 Y130.683 E86.45626
G1 X120.778 Y130.702 E86.45774
G1 X121.101 Y130.563 E86.4809
G1 X121.323 Y130.487 E86.49635
G1 X91.695 Y100.859 E89.2557
G1 X91.783 Y100.385 E89.28745
G1 X91.808 Y100.155 E89.30268
G1 X91.835 Y99.974 E89.31474
G1 X91.915 Y99.552 E89.34302
G1 X122.409 Y130.046 E92.18302
G1 X122.504 Y130.005 E92.18984
G1 X122.673 Y129.925 E92.20215
G1 X123.427 Y129.537 E92.25799
G1 X92.196 Y98.306 E95.16663
G1 X92.263 Y98.05 E95.18406
G1 X92.309 Y97.894 E95.19477
G1 X92.565 Y97.147 E95.24677
G1 X124.38 Y128.962 E98.20981
G1 X124.512 Y128.876 E98.22018
G1 X125.244 Y128.349 E98.27958
G1 X125.271 Y128.326 E98.28192
G1 X93.009 Y96.064 E101.28658
G1 X93.087 Y95.899 E101.2986
G1 X93.488 Y95.119 E101.35635
G1 X93.525 Y95.052 E101.36139
G1 X126.106 Y127.633 E104.39576
G1 X126.181 Y127.564 E104.40248
G1 X126.813 Y126.956 E104.46023
G1 X126.883 Y126.883 E104.46689
G1 X94.105 Y94.105 E107.51961
G1 X94.545 Y93.466 E107.5707
G1 X94.651 Y93.323 E107.58242
G1 X94.74 Y93.212 E107.59179
G1 X127.603 Y126.076 E110.65247
G1 X127.651 Y126.017 E110.65748
G1 X128.184 Y125.323 E110.71511
G1 X128.265 Y125.21 E110.72426
G1 X95.429 Y92.375 E113.78234
G1 X95.926 Y91.841 E113.83038
G1 X96.037 Y91.73 E113.84072
G1 X96.179 Y91.597 E113.85353
G1 X128.868 Y124.286 E116.89796
G1 X129.3 Y123.513 E116.95627
G1 X129.374 Y123.368 E116.96699
