;FLAVOR:Marlin
;TIME:2964
;Filament used: 0.908945m
;Layer height: 0.12
;MINX:89.138
;MINY:89.14
;MINZ:0.144
;MAXX:130.841
;MAXY:130.857
;MAXZ:30.314
;Generated with Cura_SteamEngine 4.2.1
M140 S60
M105
M190 S60
M104 S200
M105
M109 S200
M82 ;absolute extrusion mode
M201 X500.00 Y500.00 Z100.00 E5000.00 ;Setup machine max acceleration
M203 X500.00 Y500.00 Z10.00 E50.00 ;Setup machine max feedrate
M204 P500.00 R1000.00 T500.00 ;Setup Print/Retract/Travel acceleration
M205 X8.00 Y8.00 Z0.40 E5.00 ;Setup Jerk
M220 S100 ;Reset Feedrate
M221 S100 ;Reset Flowrate

G28 ;Home

G92 E0 ;Reset Extruder
G1 Z2.0 F3000 ;Move Z Axis up
G1 X10.1 Y20 Z0.28 F5000.0 ;Move to start position
G1 X10.1 Y200.0 Z0.28 F1500.0 E15 ;Draw the first line
G1 X10.4 Y200.0 Z0.28 F5000.0 ;Move to side a little
G1 X10.4 Y20 Z0.28 F1500.0 E30 ;Draw the second line
G92 E0 ;Reset Extruder
G1 Z2.0 F3000 ;Move Z Axis up

G92 E0
G92 E0
G1 F2700 E-5
;LAYER_COUNT:245
;LAYER:-6
M107
G0 F12000 X95.396 Y95.355 Z0.144
;TYPE:SUPPORT-INTERFACE
G1 F2700 E0
G1 F1800 X95.78 Y94.982 E0.02564
G1 X96.895 Y94 E0.0968
G1 X97.356 Y93.634 E0.12499
G1 X98.543 Y92.781 E0.195
G1 X99.088 Y92.434 E0.22594
G1 X100.351 Y91.708 E0.29572
G1 X100.861 Y91.449 E0.32311
G1 X102.208 Y90.843 E0.39385
G1 X102.756 Y90.631 E0.422
G1 X104.133 Y90.168 E0.49158
G1 X104.721 Y90.006 E0.52079
G1 X106.148 Y89.682 E0.59087
G1 X106.704 Y89.585 E0.6179
G1 X108.192 Y89.4 E0.68972
G1 X108.75 Y89.359 E0.71652
G1 X110.25 Y89.321 E0.78838
G1 X110.837 Y89.338 E0.81651
G1 X112.291 Y89.448 E0.88635
G1 X112.91 Y89.528 E0.91624
G1 X114.387 Y89.792 E0.9881
G1 X114.942 Y89.922 E1.0154
G1 X116.315 Y90.312 E1.08376
G1 X116.88 Y90.503 E1.11233
G1 X118.273 Y91.05 E1.184
G1 X118.834 Y91.307 E1.21356
G1 X120.132 Y91.976 E1.2835
G1 X120.63 Y92.267 E1.31112
G1 X121.827 Y93.039 E1.37934
G1 X122.307 Y93.386 E1.40771
G1 X123.51 Y94.347 E1.48145
G1 X123.962 Y94.752 E1.51052
G1 X124.965 Y95.734 E1.57775
G1 X125.352 Y96.151 E1.605
G1 X126.312 Y97.292 E1.67641
G1 X126.662 Y97.758 E1.70433
G1 X127.516 Y99.014 E1.77707
G1 X127.83 Y99.536 E1.80625
G1 X128.504 Y100.777 E1.87388
G1 X128.713 Y101.207 E1.89678
G1 X128.771 Y101.338 E1.90364
G1 X129.332 Y102.666 E1.97269
G1 X129.528 Y103.207 E2.00025
G1 X129.969 Y104.643 E2.0722
G1 X130.11 Y105.206 E2.09999
G1 X130.402 Y106.649 E2.17051
G1 X130.491 Y107.251 E2.19965
G1 X130.634 Y108.71 E2.26986
G1 X130.661 Y109.293 E2.29782
G1 X130.659 Y110.793 E2.36966
G1 X130.631 Y111.343 E2.39604
G1 X130.488 Y112.785 E2.46544
G1 X130.402 Y113.352 E2.4929
G1 X130.103 Y114.833 E2.56527
G1 X129.956 Y115.404 E2.59351
G1 X129.516 Y116.828 E2.66489
G1 X129.301 Y117.408 E2.69452
G1 X128.792 Y118.616 E2.7573
G1 X128.722 Y118.769 E2.76536
G1 X128.471 Y119.283 E2.79275
G1 X127.79 Y120.535 E2.86101
G1 X127.471 Y121.053 E2.89015
G1 X126.635 Y122.281 E2.9613
G1 X126.305 Y122.714 E2.98738
G1 X125.336 Y123.867 E3.05951
G1 X124.928 Y124.304 E3.08814
G1 X123.889 Y125.317 E3.15764
G1 X123.446 Y125.706 E3.18588
G1 X122.243 Y126.661 E3.25945
G1 X121.864 Y126.934 E3.28182
G1 X120.642 Y127.727 E3.35159
G1 X120.576 Y127.768 E3.35531
G1 X120.081 Y128.053 E3.38267
G1 X118.721 Y128.747 E3.45579
G1 X118.193 Y128.983 E3.48349
G1 X116.797 Y129.527 E3.55525
G1 X116.22 Y129.717 E3.58435
G1 X114.867 Y130.097 E3.65165
G1 X114.302 Y130.225 E3.6794
G1 X112.819 Y130.486 E3.75152
G1 X112.243 Y130.556 E3.77931
G1 X110.779 Y130.665 E3.84962
G1 X110.167 Y130.677 E3.87894
G1 X108.696 Y130.638 E3.94942
G1 X108.111 Y130.592 E3.97752
G1 X106.692 Y130.413 E4.04602
G1 X106.113 Y130.31 E4.07419
G1 X104.611 Y129.966 E4.14799
G1 X104.057 Y129.807 E4.17559
G1 X102.712 Y129.354 E4.24357
G1 X102.127 Y129.122 E4.27371
G1 X100.761 Y128.502 E4.34556
G1 X100.254 Y128.239 E4.37291
G1 X99.003 Y127.514 E4.44216
G1 X98.512 Y127.195 E4.47021
G1 X97.414 Y126.41 E4.53485
G1 X97.286 Y126.312 E4.54257
G1 X96.856 Y125.967 E4.56898
G1 X95.749 Y124.99 E4.63969
G1 X95.299 Y124.545 E4.67
G1 X94.299 Y123.462 E4.7406
G1 X93.928 Y123.015 E4.76843
G1 X93.053 Y121.855 E4.83802
G1 X92.709 Y121.346 E4.86744
G1 X91.945 Y120.09 E4.93785
G1 X91.675 Y119.588 E4.96515
G1 X91.034 Y118.25 E5.03621
G1 X90.799 Y117.684 E5.06556
G1 X90.315 Y116.349 E5.13357
G1 X90.155 Y115.826 E5.15977
G1 X89.772 Y114.32 E5.23419
G1 X89.663 Y113.772 E5.26095
G1 X89.443 Y112.288 E5.3328
G1 X89.39 Y111.732 E5.35955
G1 X89.319 Y110.283 E5.42904
G1 X89.322 Y109.663 E5.45873
G1 X89.393 Y108.22 E5.52793
G1 X89.462 Y107.572 E5.55914
G1 X89.67 Y106.193 E5.62593
G1 X89.788 Y105.616 E5.65414
G1 X90.16 Y104.147 E5.72672
G1 X90.332 Y103.598 E5.75427
G1 X90.836 Y102.221 E5.8245
G1 X91.083 Y101.643 E5.85461
G1 X91.719 Y100.324 E5.92474
G1 X92.01 Y99.8 E5.95345
G1 X92.769 Y98.56 E6.02308
G1 X93.085 Y98.098 E6.04989
G1 X94.002 Y96.891 E6.12249
G1 X94.376 Y96.449 E6.15022
G1 X95.396 Y95.355 E6.22186
G0 F12000 X96 Y94.788
G1 F1800 X96 Y125.211 E7.67895
G1 F2700 E2.67895
G1 F600 Z0.344
G0 F12000 X97.6 Y126.542 Z0.344
G1 F600 Z0.144
G1 F2700 E7.67895
G1 F1800 X97.6 Y93.458 E9.2635
G1 F2700 E4.2635
G1 F600 Z0.344
G0 F12000 X99.2 Y92.369 Z0.344
G1 F600 Z0.144
G1 F2700 E9.2635
G1 F1800 X99.2 Y127.628 E10.95221
G1 F2700 E5.95221
G1 F600 Z0.344
G0 F12000 X100.8 Y128.519 Z0.344
G1 F600 Z0.144
G1 F2700 E10.95221
G1 F1800 X100.8 Y91.479 E12.72623
G1 F2700 E7.72623
G1 F600 Z0.344
G0 F12000 X102.4 Y90.768 Z0.344
G1 F600 Z0.144
G1 F2700 E12.72623
G1 F1800 X102.4 Y129.23 E14.56835
G1 F2700 E9.56835
G1 F600 Z0.344
G0 F12000 X104 Y129.787 Z0.344
G1 F600 Z0.144
G1 F2700 E14.56835
G1 F1800 X104 Y90.212 E16.46378
G1 F2700 E11.46378
G1 F600 Z0.344
G0 F12000 X105.6 Y89.806 Z0.344
G1 F600 Z0.144
G1 F2700 E16.46378
G1 F1800 X105.6 Y130.192 E18.39805
G1 F2700 E13.39805
G1 F600 Z0.344
G0 F12000 X107.2 Y130.477 Z0.344
G1 F600 Z0.144
G1 F2700 E18.39805
G1 F1800 X107.2 Y89.523 E20.35953
G1 F2700 E15.35953
G1 F600 Z0.344
G0 F12000 X108.8 Y89.357 Z0.344
G1 F600 Z0.144
G1 F2700 E20.35953
G1 F1800 X108.8 Y130.64 E22.33676
G1 F2700 E17.33676
G1 F600 Z0.344
G0 F12000 X110.4 Y130.673 Z0.344
G1 F600 Z0.144
G1 F2700 E22.33676
G1 F1800 X110.4 Y89.326 E24.31706
G1 F2700 E19.31706
G1 F600 Z0.344
G0 F12000 X112 Y89.426 Z0.344
G1 F600 Z0.144
G1 F2700 E24.31706
G1 F1800 X112 Y130.575 E26.28787
G1 F2700 E21.28787
G1 F600 Z0.344
G0 F12000 X113.6 Y130.349 Z0.344
G1 F600 Z0.144
G1 F2700 E26.28787
G1 F1800 X113.6 Y89.652 E28.23704
G1 F2700 E23.23704
G1 F600 Z0.344
G0 F12000 X115.2 Y89.996 Z0.344
G1 F600 Z0.144
G1 F2700 E28.23704
G1 F1800 X115.2 Y130.004 E30.1532
G1 F2700 E25.1532
G1 F600 Z0.344
G0 F12000 X116.8 Y129.526 Z0.344
G1 F600 Z0.144
G1 F2700 E30.1532
G1 F1800 X116.8 Y90.476 E32.02349
G1 F2700 E27.02349
G1 F600 Z0.344
G0 F12000 X118.4 Y91.109 Z0.344
G1 F600 Z0.144
G1 F2700 E32.02349
G1 F1800 X118.4 Y128.891 E33.83304
G1 F2700 E28.83304
G1 F600 Z0.344
G0 F12000 X120 Y128.095 Z0.344
G1 F600 Z0.144
G1 F2700 E33.83304
G1 F1800 X120 Y91.908 E35.5662
G1 F2700 E30.5662
G1 F600 Z0.344
G0 F12000 X121.6 Y92.893 Z0.344
G1 F600 Z0.144
G1 F2700 E35.5662
G1 F1800 X121.6 Y127.106 E37.20482
G1 F2700 E32.20482
G1 F600 Z0.344
G0 F12000 X123.2 Y125.902 Z0.344
G1 F600 Z0.144
G1 F2700 E37.20482
G1 F1800 X123.2 Y94.1 E38.72796
G1 F2700 E33.72796
G1 F600 Z0.344
G0 F12000 X124.8 Y95.573 Z0.344
G1 F600 Z0.144
G1 F2700 E38.72796
G1 F1800 X124.8 Y124.429 E40.11001
G1 F2700 E35.11001
G1 F600 Z0.344
G0 F12000 X126.4 Y122.59 Z0.344
G1 F600 Z0.144
G1 F2700 E40.11001
G1 F1800 X126.4 Y97.41 E41.316
G1 F2700 E36.316
G1 F600 Z0.344
G0 F12000 X128 Y99.85 Z0.344
G1 F600 Z0.144
G1 F2700 E41.316
G1 F1800 X128 Y120.149 E42.28821
G1 F2700 E37.28821
G1 F600 Z0.344
G0 F12000 X129.6 Y116.557 Z0.344
G1 F600 Z0.144
G1 F2700 E42.28821
G1 F1800 X129.6 Y103.442 E42.91635
G1 F2700 E37.91635
G1 F600 Z0.344
G0 F12000 X94.4 Y96.423 Z0.344
G1 F600 Z0.144
G1 F2700 E42.91635
G1 F1800 X94.4 Y123.571 E44.21659
G1 F2700 E39.21659
G1 F600 Z0.344
G0 F12000 X92.8 Y121.48 Z0.344
G1 F600 Z0.144
G1 F2700 E44.21659
G1 F1800 X92.8 Y98.514 E45.31654
G1 F2700 E40.31654
G1 F600 Z0.344
G0 F12000 X91.2 Y101.4 Z0.344
G1 F600 Z0.144
G1 F2700 E45.31654
G1 F1800 X91.2 Y118.596 E46.14013
G1 F2700 E41.14013
G1 F600 Z0.344
G0 F12000 X89.6 Y113.347 Z0.344
G1 F600 Z0.144
G1 F2700 E46.14013
G1 F1800 X89.6 Y106.657 E46.46055
G1 F2700 E41.46055
G1 F600 Z0.344
G0 F12000 X93.923 Y122.943 Z0.344
;TIME_ELAPSED:49.311813
;LAYER:-5
M140 S60
G0 X93.923 Y122.943 Z0.524
;TYPE:SUPPORT
G1 F600 Z0.324
G1 F2700 E46.46055
G1 F1800 X97.054 Y126.074 E46.75215
G1 X96.881 Y125.935 E46.76676
G1 X95.775 Y124.959 E46.8639
G1 X95.327 Y124.516 E46.90539
G1 X94.329 Y123.435 E47.00228
G1 X93.958 Y122.989 E47.04049
G1 F2700 E42.04049
G1 F600 Z0.524
G0 F12000 X97.054 Y126.074 Z0.524
G1 F600 Z0.324
G1 F2700 E47.04049
G1 F1800 X97.315 Y126.284 E47.06255
G1 X98.543 Y127.166 E47.16212
G1 X99.022 Y127.479 E47.1998
G1 X100.272 Y128.203 E47.29493
G1 X100.78 Y128.466 E47.3326
G1 X101.134 Y128.626 E47.35818
G1 X91.373 Y118.866 E48.26721
G1 X91.07 Y118.233 E48.31342
G1 X90.836 Y117.668 E48.3537
G1 X90.353 Y116.335 E48.44707
G1 X90.345 Y116.31 E48.4488
G1 X103.667 Y129.632 E49.68952
G1 X104.079 Y129.771 E49.71815
G1 X104.621 Y129.927 E49.75529
G1 X105.746 Y130.184 E49.83129
G1 X89.795 Y114.233 E51.31686
G1 X89.702 Y113.756 E51.34886
G1 X89.502 Y112.412 E51.43834
G1 X107.572 Y130.482 E53.12126
G1 X108.117 Y130.551 E53.15744
G1 X108.699 Y130.596 E53.19588
G1 X109.227 Y130.61 E53.23066
G1 X89.382 Y110.765 E55.07889
G1 X89.359 Y110.281 E55.1108
G1 X89.362 Y109.654 E55.15209
G1 X89.382 Y109.238 E55.17952
G1 X110.768 Y130.623 E57.17122
G1 X110.778 Y130.623 E57.17188
G1 X112.19 Y130.519 E57.26511
G1 X89.476 Y107.804 E59.38059
G1 X89.5 Y107.577 E59.39562
G1 X89.668 Y106.469 E59.46942
G1 X113.519 Y130.32 E61.69074
G1 X114.295 Y130.185 E61.74261
G1 X114.797 Y130.07 E61.77653
G1 X89.932 Y105.206 E64.09223
G1 X90.198 Y104.158 E64.16344
G1 X90.249 Y103.995 E64.17469
G1 X115.992 Y129.738 E66.57221
G1 X116.2 Y129.68 E66.58643
G1 X116.785 Y129.488 E66.62698
G1 X117.133 Y129.352 E66.65159
G1 X90.643 Y102.862 E69.11868
G1 X90.873 Y102.236 E69.1626
G1 X91.073 Y101.765 E69.1963
G1 X118.229 Y128.921 E71.72542
G1 X118.703 Y128.71 E71.75959
G1 X119.261 Y128.425 E71.80085
G1 X91.566 Y100.73 E74.38018
G1 X91.754 Y100.342 E74.40857
G1 X92.044 Y99.82 E74.4479
G1 X92.097 Y99.733 E74.4546
G1 X120.263 Y127.9 E77.07784
G1 X120.556 Y127.731 E77.10011
G1 X121.203 Y127.313 E77.15084
G1 X92.676 Y98.786 E79.80765
G1 X92.802 Y98.581 E79.8235
G1 X93.123 Y98.113 E79.86087
G1 X93.299 Y97.881 E79.88005
G1 X122.118 Y126.7 E82.56405
G1 X122.212 Y126.633 E82.57165
G1 X122.974 Y126.029 E82.63569
G1 X93.958 Y97.013 E85.33804
G1 X94.033 Y96.916 E85.34611
G1 X94.405 Y96.474 E85.38416
G1 X94.666 Y96.194 E85.40936
G1 X123.806 Y125.333 E88.12322
G1 X123.855 Y125.292 E88.12742
G1 X124.583 Y124.583 E88.19435
G1 X95.404 Y95.404 E90.91188
G1 X95.424 Y95.383 E90.91379
G1 X95.805 Y95.011 E90.94886
G1 X96.196 Y94.668 E90.98311
G1 X125.334 Y123.807 E93.69687
G1 X126.031 Y122.977 E93.76824
G1 X97.012 Y93.958 E96.47087
G1 X97.377 Y93.666 E96.50166
G1 X97.885 Y93.303 E96.54277
G1 X126.697 Y122.115 E99.22613
G1 X127.317 Y121.208 E99.29848
G1 X98.784 Y92.675 E101.95585
G1 X99.098 Y92.474 E101.9804
G1 X99.741 Y92.104 E102.02925
G1 X127.895 Y120.258 E104.65132
G1 X128.433 Y119.269 E104.72547
G1 X100.726 Y91.562 E107.30591
G1 X100.877 Y91.484 E107.3171
G1 X101.773 Y91.082 E107.38177
G1 X128.914 Y118.223 E109.9095
G1 X129.264 Y117.391 E109.96894
G1 X129.358 Y117.139 E109.98665
G1 X102.858 Y90.639 E112.45468
G1 X104.001 Y90.255 E112.53409
G1 X129.733 Y115.987 E114.93059
G1 X129.92 Y115.38 E114.97242
G1 X130.06 Y114.834 E115.00954
G1 X130.069 Y114.795 E115.01217
G1 X105.209 Y89.936 E117.32742
G1 X106.155 Y89.72 E117.39132
G1 X106.467 Y89.666 E117.41217
G1 X130.326 Y113.525 E119.63423
G1 X130.362 Y113.344 E119.64639
G1 X130.447 Y112.779 E119.68401
G1 X130.507 Y112.178 E119.72379
G1 X107.815 Y89.487 E121.83712
G1 X108.195 Y89.439 E121.86234
G1 X108.75 Y89.399 E121.89899
G1 X109.243 Y89.387 E121.93146
G1 X130.619 Y110.764 E123.92232
G1 X130.62 Y109.292 E124.01926
G1 X130.618 Y109.235 E124.02302
G1 X110.758 Y89.375 E125.87264
G1 X110.833 Y89.376 E125.87758
G1 X112.285 Y89.487 E125.97348
G1 X112.415 Y89.504 E125.98212
G1 X130.481 Y107.571 E127.66471
G1 X130.45 Y107.254 E127.68568
G1 X130.362 Y106.655 E127.72555
G1 X130.176 Y105.739 E127.78711
G1 X114.244 Y89.806 E129.27095
G1 X114.368 Y89.828 E129.27924
G1 X114.923 Y89.959 E129.3168
G1 X116.301 Y90.35 E129.41113
G1 X116.323 Y90.358 E129.41267
G1 X129.625 Y103.66 E130.65153
G1 X129.489 Y103.219 E130.68192
G1 X129.294 Y102.68 E130.71967
G1 X128.731 Y101.348 E130.8149
G1 X128.632 Y101.14 E130.83007
G1 X118.856 Y91.364 E131.74054
G1 X120.111 Y92.009 E131.83346
G1 X120.616 Y92.307 E131.87208
G1 X121.794 Y93.064 E131.96429
G1 X122.282 Y93.417 E132.00396
G1 X123.057 Y94.038 E132.06936
G1 X125.98 Y96.961 E132.34159
G0 F12000 X125.329 Y96.187
G1 F1800 X124.942 Y95.768 E132.37915
G1 X123.933 Y94.781 E132.4721
G1 X123.494 Y94.386 E132.51099
G1 X123.057 Y94.038 E132.54778
G1 F2700 E127.54778
G1 F600 Z0.524
G0 F12000 X112.708 Y89.32 Z0.524
;TIME_ELAPSED:96.514645
;LAYER:-4
G0 X112.708 Y89.32 Z0.644
;TYPE:SUPPORT-INTERFACE
G1 F600 Z0.444
G1 F2700 E132.54778
G1 F2400 X107.384 Y89.32 E132.66465
G1 X108.184 Y89.22 E132.68235
G1 X108.752 Y89.179 E132.69485
G1 X110.253 Y89.141 E132.72781
G1 X110.855 Y89.159 E132.74103
G1 X112.319 Y89.27 E132.77326
G1 F2700 E127.77326
G1 F600 Z0.644
G0 F12000 X107.384 Y89.32 Z0.644
G1 F600 Z0.444
G1 F2700 E132.77326
G1 F2400 X106.64 Y89.413 E132.78972
G1 X106.112 Y89.506 E132.80149
G1 X104.99 Y89.76 E132.82674
G1 X115.029 Y89.76 E133.04712
G1 X116.372 Y90.141 E133.07776
G1 X116.547 Y90.2 E133.08181
G1 X103.476 Y90.2 E133.36874
G1 X102.703 Y90.459 E133.38664
G1 X102.234 Y90.64 E133.39768
G1 X117.721 Y90.64 E133.73764
G1 X118.351 Y90.888 E133.7525
G1 X118.773 Y91.08 E133.76268
G1 X101.243 Y91.08 E134.14749
G1 X100.776 Y91.29 E134.15874
G1 X100.324 Y91.52 E134.16987
G1 X119.643 Y91.52 E134.59395
G1 X120.222 Y91.819 E134.60826
G1 X120.464 Y91.96 E134.61441
G1 X99.553 Y91.96 E135.07344
G1 X98.994 Y92.281 E135.08759
G1 X98.807 Y92.4 E135.09245
G1 X121.171 Y92.4 E135.58338
G1 X121.854 Y92.84 E135.60122
G1 X98.153 Y92.84 E136.12149
G1 X97.541 Y93.28 E136.13804
G1 X122.465 Y93.28 E136.68516
G1 X123.016 Y93.72 E136.70064
G1 X96.96 Y93.72 E137.27261
G1 X96.783 Y93.86 E137.27757
G1 X96.442 Y94.16 E137.28754
G1 X123.567 Y94.16 E137.88298
G1 X123.63 Y94.211 E137.88476
G1 X124.065 Y94.6 E137.89757
G1 X95.942 Y94.6 E138.51491
G1 X95.661 Y94.847 E138.52313
G1 X95.463 Y95.04 E138.5292
G1 X124.515 Y95.04 E139.16694
G1 X124.965 Y95.48 E139.18075
G1 X95.033 Y95.48 E139.83781
G1 X94.624 Y95.92 E139.851
G1 X125.384 Y95.92 E140.52623
G1 X125.494 Y96.039 E140.52979
G1 X125.765 Y96.36 E140.53901
G1 X94.217 Y96.36 E141.23154
G1 X93.868 Y96.772 E141.2434
G1 X93.847 Y96.8 E141.24416
G1 X126.135 Y96.8 E141.95294
G1 X126.446 Y97.17 E141.96355
G1 X126.499 Y97.24 E141.96548
G1 X93.512 Y97.24 E142.6896
G1 X93.177 Y97.68 E142.70174
G1 X126.828 Y97.68 E143.44043
G1 X127.127 Y98.12 E143.45211
G1 X92.852 Y98.12 E144.20451
G1 X92.619 Y98.459 E144.21354
G1 X92.558 Y98.56 E144.21613
G1 X127.426 Y98.56 E144.98154
G1 X127.67 Y98.919 E144.99107
G1 X127.719 Y99 E144.99314
G1 X92.289 Y99 E145.77089
G1 X92.02 Y99.44 E145.78221
G1 X127.984 Y99.44 E146.57168
G1 X127.988 Y99.448 E146.57188
G1 X128.223 Y99.88 E146.58268
G1 X91.756 Y99.88 E147.38319
G1 X91.561 Y100.237 E147.39212
G1 X91.521 Y100.32 E147.39414
G1 X128.462 Y100.32 E148.20506
