;FLAVOR:Marlin
;TIME:1202
;Filament used: 0.573757m
;Layer height: 0.12
;MINX:88.72
;MINY:89.258
;MINZ:0.144
;MAXX:131.281
;MAXY:132.3
;MAXZ:7.994
;Generated with Cura_SteamEngine 4.2.1
M140 S60
M105
M190 S60
M104 S200
M105
M109 S200
M82 ;absolute extrusion mode
M201 X500.00 Y500.00 Z100.00 E5000.00 ;Setup machine max acceleration
M203 X500.00 Y500.00 Z10.00 E50.00 ;Setup machine max feedrate
M204 P500.00 R1000.00 T500.00 ;Setup Print/Retract/Travel acceleration
M205 X8.00 Y8.00 Z0.40 E5.00 ;Setup Jerk
M220 S100 ;Reset Feedrate
M221 S100 ;Reset Flowrate

G28 ;Home

G92 E0 ;Reset Extruder
G1 Z2.0 F3000 ;Move Z Axis up
G1 X10.1 Y20 Z0.28 F5000.0 ;Move to start position
G1 X10.1 Y200.0 Z0.28 F1500.0 E15 ;Draw the first line
G1 X10.4 Y200.0 Z0.28 F5000.0 ;Move to side a little
G1 X10.4 Y20 Z0.28 F1500.0 E30 ;Draw the second line
G92 E0 ;Reset Extruder
G1 Z2.0 F3000 ;Move Z Axis up

G92 E0
G92 E0
G1 F2700 E-5
;LAYER_COUNT:59
;LAYER:-6
M107
G0 F12000 X95.784 Y95.34 Z0.144
;TYPE:SUPPORT-INTERFACE
G1 F2700 E0
G1 F1800 X96.882 Y94.315 E0.07194
G1 X97.284 Y93.975 E0.09716
G1 X98.199 Y93.265 E0.15263
G1 X98.669 Y92.939 E0.18002
G1 X99.161 Y92.613 E0.20829
G1 X100.104 Y92.037 E0.26121
G1 X100.695 Y91.723 E0.29327
G1 X101.271 Y91.433 E0.32415
G1 X102.26 Y90.982 E0.37621
G1 X102.746 Y90.791 E0.40122
G1 X103.361 Y90.565 E0.4326
G1 X104.44 Y90.216 E0.48692
G1 X105.041 Y90.058 E0.51668
G1 X105.692 Y89.904 E0.54872
G1 X106.737 Y89.697 E0.59974
G1 X107.31 Y89.616 E0.62746
G1 X107.964 Y89.539 E0.659
G1 X109.064 Y89.452 E0.71185
G1 X109.743 Y89.438 E0.74438
G1 X110.391 Y89.442 E0.77541
G1 X111.322 Y89.477 E0.82003
G1 X111.479 Y89.488 E0.82757
G1 X112.047 Y89.543 E0.8549
G1 X112.687 Y89.618 E0.88576
G1 X113.617 Y89.761 E0.93083
G1 X113.794 Y89.794 E0.93945
G1 X114.48 Y89.944 E0.97309
G1 X114.962 Y90.06 E0.99683
G1 X115.852 Y90.304 E1.04103
G1 X116.049 Y90.364 E1.05089
G1 X116.647 Y90.568 E1.08115
G1 X117.234 Y90.785 E1.11113
G1 X118.12 Y91.146 E1.15695
G1 X118.254 Y91.206 E1.16398
G1 X118.794 Y91.464 E1.19264
G1 X119.315 Y91.727 E1.2206
G1 X120.292 Y92.268 E1.27408
G1 X120.74 Y92.549 E1.29941
G1 X121.185 Y92.84 E1.32488
G1 X121.751 Y93.23 E1.3578
G1 X122.818 Y94.059 E1.42251
G1 X123.272 Y94.449 E1.45118
G1 X123.887 Y95.032 E1.49177
G1 X124.49 Y95.524 E1.52904
G1 X125.235 Y96.044 E1.57255
G1 X125.36 Y96.138 E1.58004
G1 X126.048 Y96.697 E1.6225
G1 X126.179 Y96.812 E1.63085
G1 X126.848 Y97.443 E1.6749
G1 X126.95 Y97.547 E1.68187
G1 X127.55 Y98.202 E1.72442
G1 X127.673 Y98.346 E1.73349
G1 X128.328 Y99.184 E1.78443
G1 X128.819 Y99.908 E1.82632
G1 X128.922 Y100.074 E1.83568
G1 X129.368 Y100.848 E1.87847
G1 X129.444 Y100.991 E1.88622
G1 X129.837 Y101.803 E1.92943
G1 X129.9 Y101.946 E1.93691
G1 X130.233 Y102.79 E1.98037
G1 X130.286 Y102.941 E1.98803
G1 X130.557 Y103.803 E2.03131
G1 X130.602 Y103.966 E2.03941
G1 X130.808 Y104.843 E2.08256
G1 X130.838 Y104.995 E2.08998
G1 X130.98 Y105.889 E2.13333
G1 X131 Y106.053 E2.14124
G1 X131.085 Y107.087 E2.19093
G1 X131.101 Y107.74 E2.22222
G1 X131.101 Y113.525 E2.49929
G1 X131.065 Y114.531 E2.5475
G1 X131.055 Y114.666 E2.55398
G1 X130.956 Y115.557 E2.59692
G1 X130.925 Y115.761 E2.6068
G1 X130.606 Y117.302 E2.68217
G1 X130.34 Y118.19 E2.72657
G1 X130.281 Y118.364 E2.73537
G1 X129.963 Y119.199 E2.77817
G1 X129.905 Y119.337 E2.78533
G1 X129.453 Y120.299 E2.83624
G1 X129.124 Y120.901 E2.8691
G1 X129.053 Y121.017 E2.87561
G1 X128.193 Y122.326 E2.95063
G1 X127.975 Y122.622 E2.96823
G1 X127.396 Y123.356 E3.01301
G1 X127.265 Y123.51 E3.02269
G1 X126.562 Y124.27 E3.07228
G1 X125.903 Y124.892 E3.11568
G1 X125.766 Y125.013 E3.12443
G1 X125.072 Y125.577 E3.16726
G1 X124.958 Y125.663 E3.1741
G1 X124.09 Y126.267 E3.22475
G1 X123.561 Y126.59 E3.25444
G1 X121.033 Y128.065 E3.39462
G1 X117.365 Y130.175 E3.59729
G1 X116.519 Y130.621 E3.64309
G1 X116.371 Y130.692 E3.65095
G1 X115.54 Y131.055 E3.69438
G1 X115.399 Y131.111 E3.70165
G1 X114.536 Y131.417 E3.74551
G1 X114.391 Y131.463 E3.75279
G1 X113.577 Y131.689 E3.79325
G1 X112.606 Y131.895 E3.84079
G1 X112.456 Y131.921 E3.84808
G1 X111.575 Y132.041 E3.89067
G1 X111.383 Y132.06 E3.89991
G1 X110.515 Y132.114 E3.94156
G1 X110.322 Y132.12 E3.95081
G1 X109.427 Y132.11 E3.99368
G1 X108.527 Y132.049 E4.03688
G1 X108.305 Y132.025 E4.04758
G1 X107.452 Y131.904 E4.08884
G1 X107.275 Y131.872 E4.09746
G1 X106.174 Y131.625 E4.1515
G1 X105.29 Y131.36 E4.1957
G1 X105.119 Y131.302 E4.20435
G1 X104.272 Y130.979 E4.24776
G1 X104.142 Y130.924 E4.25452
G1 X103.169 Y130.466 E4.30603
G1 X102.526 Y130.112 E4.34118
G1 X101.88 Y129.738 E4.37694
G1 X100.624 Y129.02 E4.44623
G1 X96.494 Y126.629 E4.67479
G1 X95.651 Y126.099 E4.72248
G1 X95.503 Y125.998 E4.73106
G1 X94.807 Y125.486 E4.77244
G1 X94.655 Y125.365 E4.78175
G1 X93.864 Y124.681 E4.83183
G1 X93.216 Y124.041 E4.87546
G1 X93.097 Y123.914 E4.88379
G1 X92.514 Y123.245 E4.92629
G1 X92.4 Y123.106 E4.9349
G1 X91.974 Y122.548 E4.96852
G1 X91.685 Y122.149 E4.99212
G1 X91.154 Y121.359 E5.03771
G1 X91.075 Y121.23 E5.04496
G1 X90.625 Y120.44 E5.0885
G1 X90.543 Y120.282 E5.09703
G1 X90.167 Y119.495 E5.1388
G1 X90.089 Y119.312 E5.14833
G1 X89.621 Y118.07 E5.2119
G1 X89.591 Y117.969 E5.21694
G1 X89.339 Y117.08 E5.2612
G1 X89.297 Y116.904 E5.26986
G1 X89.119 Y116.035 E5.31235
G1 X89.09 Y115.867 E5.32051
G1 X88.977 Y114.99 E5.36286
G1 X88.961 Y114.813 E5.37138
G1 X88.901 Y113.481 E5.43524
G1 X88.901 Y109.295 E5.63572
G1 X88.937 Y108.289 E5.68394
G1 X88.947 Y108.154 E5.69042
G1 X89.048 Y107.239 E5.73451
G1 X89.074 Y107.064 E5.74298
G1 X89.236 Y106.184 E5.78584
G1 X89.266 Y106.05 E5.79242
G1 X89.497 Y105.166 E5.83618
G1 X89.554 Y104.978 E5.84558
G1 X89.836 Y104.151 E5.88743
G1 X89.899 Y103.985 E5.89594
G1 X90.24 Y103.182 E5.93772
G1 X90.321 Y103.007 E5.94696
G1 X90.802 Y102.082 E5.99689
G1 X91.277 Y101.303 E6.04059
G1 X91.385 Y101.14 E6.04995
G1 X91.878 Y100.45 E6.09057
G1 X91.999 Y100.294 E6.10003
G1 X92.253 Y99.988 E6.11907
G1 X92.745 Y99.287 E6.16009
G1 X93.113 Y98.656 E6.19508
G1 X93.199 Y98.523 E6.20266
G1 X93.814 Y97.633 E6.25447
G1 X94.166 Y97.168 E6.28241
G1 X94.851 Y96.327 E6.33436
G1 X95.313 Y95.825 E6.36703
G1 X95.784 Y95.34 E6.39941
G0 F12000 X96 Y95.138
G1 F1800 X96 Y126.318 E7.89277
G1 F2700 E2.89277
G1 F600 Z0.344
G0 F12000 X97.6 Y127.269 Z0.344
G1 F600 Z0.144
G1 F2700 E7.89277
G1 F1800 X97.6 Y93.729 E9.49915
G1 F2700 E4.49915
G1 F600 Z0.344
G0 F12000 X99.2 Y92.589 Z0.344
G1 F600 Z0.144
G1 F2700 E9.49915
G1 F1800 X99.2 Y128.195 E11.20449
G1 F2700 E6.20449
G1 F600 Z0.344
G0 F12000 X100.8 Y129.12 Z0.344
G1 F600 Z0.144
G1 F2700 E11.20449
G1 F1800 X100.8 Y91.67 E12.99814
G1 F2700 E7.99814
G1 F600 Z0.344
G0 F12000 X102.4 Y90.926 Z0.344
G1 F600 Z0.144
G1 F2700 E12.99814
G1 F1800 X102.4 Y130.039 E14.87144
G1 F2700 E9.87144
G1 F600 Z0.344
G0 F12000 X104 Y130.857 Z0.344
G1 F600 Z0.144
G1 F2700 E14.87144
G1 F1800 X104 Y90.358 E16.81112
G1 F2700 E11.81112
G1 F600 Z0.344
G0 F12000 X105.6 Y89.925 Z0.344
G1 F600 Z0.144
G1 F2700 E16.81112
G1 F1800 X105.6 Y131.452 E18.80004
G1 F2700 E13.80004
G1 F600 Z0.344
G0 F12000 X107.2 Y131.855 Z0.344
G1 F600 Z0.144
G1 F2700 E18.80004
G1 F1800 X107.2 Y89.631 E20.82234
G1 F2700 E15.82234
G1 F600 Z0.344
G0 F12000 X108.8 Y89.472 Z0.344
G1 F600 Z0.144
G1 F2700 E20.82234
G1 F1800 X108.8 Y132.067 E22.86241
G1 F2700 E17.86241
G1 F600 Z0.344
G0 F12000 X110.4 Y132.118 Z0.344
G1 F600 Z0.144
G1 F2700 E22.86241
G1 F1800 X110.4 Y89.443 E24.90631
G1 F2700 E19.90631
G1 F600 Z0.344
G0 F12000 X112 Y89.539 Z0.344
G1 F600 Z0.144
G1 F2700 E24.90631
G1 F1800 X112 Y131.984 E26.9392
G1 F2700 E21.9392
G1 F600 Z0.344
G0 F12000 X113.6 Y131.683 Z0.344
G1 F600 Z0.144
G1 F2700 E26.9392
G1 F1800 X113.6 Y89.759 E28.94713
G1 F2700 E23.94713
G1 F600 Z0.344
G0 F12000 X115.2 Y90.126 Z0.344
G1 F600 Z0.144
G1 F2700 E28.94713
G1 F1800 X115.2 Y131.182 E30.91349
G1 F2700 E25.91349
G1 F600 Z0.344
G0 F12000 X116.8 Y130.473 Z0.344
G1 F600 Z0.144
G1 F2700 E30.91349
G1 F1800 X116.8 Y90.625 E32.822
G1 F2700 E27.822
G1 F600 Z0.344
G0 F12000 X118.4 Y91.276 Z0.344
G1 F600 Z0.144
G1 F2700 E32.822
G1 F1800 X118.4 Y129.58 E34.65655
G1 F2700 E29.65655
G1 F600 Z0.344
G0 F12000 X120 Y128.66 Z0.344
G1 F600 Z0.144
G1 F2700 E34.65655
G1 F1800 X120 Y92.107 E36.40724
G1 F2700 E31.40724
G1 F600 Z0.344
G0 F12000 X121.6 Y93.126 Z0.344
G1 F600 Z0.144
G1 F2700 E36.40724
G1 F1800 X121.6 Y127.735 E38.06483
G1 F2700 E33.06483
G1 F600 Z0.344
G0 F12000 X123.2 Y126.801 Z0.344
G1 F600 Z0.144
G1 F2700 E38.06483
G1 F1800 X123.2 Y94.388 E39.61724
G1 F2700 E34.61724
G1 F600 Z0.344
G0 F12000 X124.8 Y95.741 Z0.344
G1 F600 Z0.144
G1 F2700 E39.61724
G1 F1800 X124.8 Y125.773 E41.05561
G1 F2700 E36.05561
G1 F600 Z0.344
G0 F12000 X126.4 Y124.423 Z0.344
G1 F600 Z0.144
G1 F2700 E41.05561
G1 F1800 X126.4 Y97.021 E42.36801
G1 F2700 E37.36801
G1 F600 Z0.344
G0 F12000 X128 Y98.765 Z0.344
G1 F600 Z0.144
G1 F2700 E42.36801
G1 F1800 X128 Y122.589 E43.50905
G1 F2700 E38.50905
G1 F600 Z0.344
G0 F12000 X129.6 Y119.987 Z0.344
G1 F600 Z0.144
G1 F2700 E43.50905
G1 F1800 X129.6 Y101.314 E44.40339
G1 F2700 E39.40339
G1 F600 Z0.344
G0 F12000 X94.4 Y96.88 Z0.344
G1 F600 Z0.144
G1 F2700 E44.40339
G1 F1800 X94.4 Y125.144 E45.75708
G1 F2700 E40.75708
G1 F600 Z0.344
G0 F12000 X92.8 Y123.573 Z0.344
G1 F600 Z0.144
G1 F2700 E45.75708
G1 F1800 X92.8 Y99.192 E46.9248
G1 F2700 E41.9248
G1 F600 Z0.344
G0 F12000 X91.2 Y101.429 Z0.344
G1 F600 Z0.144
G1 F2700 E46.9248
G1 F1800 X91.2 Y121.427 E47.8826
G1 F2700 E42.8826
G1 F600 Z0.344
G0 F12000 X89.6 Y117.999 Z0.344
G1 F600 Z0.144
G1 F2700 E47.8826
G1 F1800 X89.6 Y104.843 E48.5127
G1 F2700 E43.5127
G1 F600 Z0.344
G0 F12000 X89.015 Y114.98 Z0.344
;TIME_ELAPSED:50.545891
;LAYER:-5
M140 S60
G0 X89.015 Y114.98 Z0.524
;TYPE:SUPPORT
G1 F600 Z0.324
G1 F2700 E48.5127
G1 F1800 X105.378 Y131.342 E50.03659
G1 X106.184 Y131.585 E50.09203
G1 X107.287 Y131.832 E50.16647
G1 X107.418 Y131.856 E50.17524
G1 X88.94 Y113.378 E51.89615
G1 X88.94 Y111.85 E51.99678
G1 X109.139 Y132.049 E53.87797
G1 X109.43 Y132.069 E53.89718
G1 X110.319 Y132.079 E53.95573
G1 X110.513 Y132.072 E53.96851
G1 X110.679 Y132.062 E53.97947
G1 X88.94 Y110.323 E56.00409
G1 X88.941 Y109.296 E56.07172
G1 X88.958 Y108.813 E56.10355
G1 X112.075 Y131.93 E58.25651
G1 X112.466 Y131.878 E58.28248
G1 X113.364 Y131.692 E58.34288
G1 X89.069 Y107.397 E60.60555
G1 X89.086 Y107.244 E60.61568
G1 X89.111 Y107.084 E60.62635
G1 X89.296 Y106.097 E60.69248
G1 X114.563 Y131.364 E63.04567
G1 X115.385 Y131.072 E63.10312
G1 X115.537 Y131.012 E63.11388
G1 X115.677 Y130.95 E63.12397
G1 X89.622 Y104.895 E65.55055
G1 X89.867 Y104.179 E65.60039
G1 X89.941 Y103.986 E65.614
G1 X90.03 Y103.776 E65.62902
G1 X116.721 Y130.467 E68.11483
G1 X117.339 Y130.142 E68.16082
G1 X117.709 Y129.928 E68.18897
G1 X90.508 Y102.727 E70.72228
G1 X90.763 Y102.231 E70.75901
G1 X90.837 Y102.102 E70.7688
G1 X91.054 Y101.745 E70.79631
G1 X118.679 Y129.37 E73.36912
G1 X119.648 Y128.812 E73.44276
G1 X91.659 Y100.823 E76.04946
G1 X91.919 Y100.46 E76.07886
G1 X92.029 Y100.318 E76.09069
G1 X92.285 Y100.011 E76.11702
G1 X92.321 Y99.958 E76.12124
G1 X120.618 Y128.255 E78.75662
G1 X121.01 Y128.03 E78.78639
G1 X121.584 Y127.694 E78.83019
G1 X92.932 Y99.042 E81.49864
G1 X93.157 Y98.659 E81.52789
G1 X93.224 Y98.555 E81.53604
G1 X93.53 Y98.112 E81.5715
G1 X122.549 Y127.131 E84.27413
G1 X123.514 Y126.569 E84.34767
G1 X94.171 Y97.225 E87.08052
G1 X94.197 Y97.192 E87.08329
G1 X94.855 Y96.382 E87.15201
G1 X124.444 Y125.971 E89.90773
G1 X124.923 Y125.638 E89.94615
G1 X125.048 Y125.544 E89.95645
G1 X125.321 Y125.321 E89.97966
G1 X95.592 Y95.592 E92.74842
G1 X95.8 Y95.378 E92.76807
G1 X96.372 Y94.844 E92.8196
G1 X126.139 Y124.612 E95.59194
G1 X126.545 Y124.23 E95.62865
G1 X126.9 Y123.845 E95.66314
G1 X97.174 Y94.12 E98.43157
G1 X97.307 Y94.007 E98.44306
G1 X98.026 Y93.444 E98.5032
G1 X127.606 Y123.024 E101.25808
G1 X127.943 Y122.597 E101.2939
G1 X128.16 Y122.302 E101.31802
G1 X128.26 Y122.151 E101.32995
G1 X98.925 Y92.816 E104.06201
G1 X99.18 Y92.646 E104.08219
G1 X99.866 Y92.229 E104.13506
G1 X128.865 Y121.229 E106.83587
G1 X129.019 Y120.995 E106.85432
G1 X129.082 Y120.892 E106.86227
G1 X129.411 Y120.289 E106.90751
G1 X129.425 Y120.261 E106.90957
G1 X100.852 Y91.688 E109.57066
G1 X101.278 Y91.473 E109.60209
G1 X101.887 Y91.196 E109.64615
G1 X129.91 Y119.218 E112.25597
G1 X129.925 Y119.182 E112.25854
G1 X130.237 Y118.364 E112.31619
G1 X130.301 Y118.177 E112.32921
G1 X130.323 Y118.104 E112.33423
G1 X102.971 Y90.752 E114.88161
G1 X103.384 Y90.598 E114.91064
G1 X104.11 Y90.364 E114.96087
G1 X130.647 Y116.901 E117.43234
G1 X130.882 Y115.768 E117.50855
G1 X130.903 Y115.63 E117.51774
G1 X105.309 Y90.035 E119.90143
G1 X105.709 Y89.941 E119.92849
G1 X106.571 Y89.77 E119.98637
G1 X131.035 Y114.234 E122.26478
G1 X131.06 Y113.523 E122.31163
G1 X131.06 Y112.732 E122.36372
G1 X107.913 Y89.585 E124.51947
G1 X107.966 Y89.579 E124.52298
G1 X109.063 Y89.492 E124.59545
G1 X109.342 Y89.486 E124.61383
G1 X131.06 Y111.205 E126.63654
G1 X131.06 Y109.677 E126.73717
G1 X110.884 Y89.501 E128.61622
G1 X111.319 Y89.516 E128.64489
G1 X111.475 Y89.528 E128.65519
G1 X112.039 Y89.581 E128.6925
G1 X112.553 Y89.642 E128.72658
G1 X131.06 Y108.15 E130.45025
G1 X131.06 Y107.739 E130.47731
G1 X131.044 Y107.087 E130.52026
G1 X131.002 Y106.564 E130.55482
G1 X114.407 Y89.969 E132.10036
G1 X114.464 Y89.981 E132.1042
G1 X114.956 Y90.1 E132.13753
G1 X115.84 Y90.342 E132.19789
G1 X116.037 Y90.402 E132.21145
G1 X116.538 Y90.574 E132.24633
G1 X130.753 Y104.788 E133.57018
G1 X130.563 Y103.977 E133.62503
G1 X130.522 Y103.828 E133.63521
G1 X130.247 Y102.953 E133.69561
G1 X130.2 Y102.82 E133.7049
G1 X130.128 Y102.636 E133.71791
G1 X119.213 Y91.721 E134.73446
G1 X119.293 Y91.761 E134.74035
G1 X120.28 Y92.309 E134.81469
G1 X120.724 Y92.587 E134.84919
G1 X121.161 Y92.872 E134.88355
G1 X121.726 Y93.262 E134.92876
G1 X122.792 Y94.089 E135.01761
G1 X123.233 Y94.468 E135.05591
G1 X123.858 Y95.062 E135.11269
G1 X124.465 Y95.556 E135.16423
G1 X124.841 Y95.821 E135.19452
G1 X128.438 Y99.418 E135.52952
G0 F12000 X128.294 Y99.207
G1 F1800 X127.639 Y98.369 E135.59957
G1 X127.529 Y98.239 E135.61078
G1 X126.91 Y97.563 E135.67114
G1 X126.15 Y96.841 E135.74018
G1 X126.033 Y96.737 E135.75049
G1 X125.335 Y96.17 E135.80971
G1 X124.841 Y95.821 E135.84954
G1 F2700 E130.84954
G1 F600 Z0.524
G0 F12000 X89.016 Y114.984 Z0.524
G1 F600 Z0.324
G1 F2700 E135.84954
G1 F1800 X89.127 Y115.845 E135.90671
G1 X89.157 Y116.026 E135.91879
G1 X89.318 Y116.811 E135.97156
G1 X102.633 Y130.126 E137.21163
G1 X102.546 Y130.077 E137.21821
G1 X101.9 Y129.702 E137.2674
G1 X100.643 Y128.984 E137.36273
G1 X99.031 Y128.051 E137.48539
G1 X90.035 Y119.055 E138.32321
G1 X90.132 Y119.31 E138.34118
G1 X90.202 Y119.477 E138.35311
G1 X90.584 Y120.276 E138.41143
G1 X90.658 Y120.419 E138.42203
G1 X91.109 Y121.209 E138.48194
G1 X91.187 Y121.335 E138.4917
G1 X91.718 Y122.125 E138.55438
G1 X92.005 Y122.524 E138.58675
G1 X92.097 Y122.644 E138.59671
G1 X95.112 Y125.659 E138.87751
G1 X94.835 Y125.455 E138.90016
G1 X94.68 Y125.331 E138.91323
G1 X94.009 Y124.758 E138.97134
G1 X93.879 Y124.64 E138.9829
G1 X93.254 Y124.022 E139.04079
G1 X93.133 Y123.892 E139.05248
G1 X92.44 Y123.091 E139.12223
G1 F2700 E134.12223
G1 F600 Z0.524
G0 F12000 X89.016 Y114.984 Z0.524
G1 F600 Z0.324
G1 F2700 E139.12223
G1 F1800 X89.015 Y114.98 E139.1225
G1 F2700 E134.1225
G1 F600 Z0.524
G0 F12000 X92.961 Y98.56 Z0.524
;TIME_ELAPSED:101.013652
;LAYER:-4
G0 X92.961 Y98.56 Z0.644
;TYPE:SUPPORT-INTERFACE
G1 F600 Z0.444
G1 F2700 E139.1225
