;FLAVOR:Marlin
;TIME:2146
;Filament used: 0.887335m
;Layer height: 0.12
;MINX:87.759
;MINY:87.765
;MINZ:0.144
;MAXX:132.229
;MAXY:132.234
;MAXZ:16.874
;Generated with Cura_SteamEngine 4.2.1
M140 S60
M105
M190 S60
M104 S200
M105
M109 S200
M82 ;absolute extrusion mode
M201 X500.00 Y500.00 Z100.00 E5000.00 ;Setup machine max acceleration
M203 X500.00 Y500.00 Z10.00 E50.00 ;Setup machine max feedrate
M204 P500.00 R1000.00 T500.00 ;Setup Print/Retract/Travel acceleration
M205 X8.00 Y8.00 Z0.40 E5.00 ;Setup Jerk
M220 S100 ;Reset Feedrate
M221 S100 ;Reset Flowrate

G28 ;Home

G92 E0 ;Reset Extruder
G1 Z2.0 F3000 ;Move Z Axis up
G1 X10.1 Y20 Z0.28 F5000.0 ;Move to start position
G1 X10.1 Y200.0 Z0.28 F1500.0 E15 ;Draw the first line
G1 X10.4 Y200.0 Z0.28 F5000.0 ;Move to side a little
G1 X10.4 Y20 Z0.28 F1500.0 E30 ;Draw the second line
G92 E0 ;Reset Extruder
G1 Z2.0 F3000 ;Move Z Axis up

G92 E0
G92 E0
G1 F2700 E-5
;LAYER_COUNT:133
;LAYER:-6
M107
G0 F12000 X94.446 Y94.367 Z0.144
;TYPE:SUPPORT-INTERFACE
G1 F2700 E0
G1 F1800 X95.513 Y93.367 E0.07004
G1 X95.594 Y93.298 E0.07514
G1 X96.204 Y92.797 E0.11294
G1 X97.246 Y92.003 E0.17569
G1 X97.385 Y91.906 E0.1838
G1 X98.084 Y91.444 E0.22393
G1 X99.297 Y90.711 E0.29181
G1 X99.481 Y90.613 E0.3018
G1 X100.16 Y90.267 E0.3383
G1 X101.394 Y89.689 E0.40356
G1 X101.596 Y89.607 E0.414
G1 X102.367 Y89.311 E0.45356
G1 X103.635 Y88.881 E0.51768
G1 X103.754 Y88.847 E0.52361
G1 X104.584 Y88.623 E0.56479
G1 X105.862 Y88.333 E0.62755
G1 X106.017 Y88.305 E0.6351
G1 X107.002 Y88.156 E0.68281
G1 X108.126 Y88.021 E0.73703
G1 X108.99 Y87.967 E0.77849
G1 X109.635 Y87.945 E0.8094
G1 X110.411 Y87.946 E0.84657
G1 X110.677 Y87.954 E0.85931
G1 X111.453 Y87.997 E0.89654
G1 X112.678 Y88.106 E0.95544
G1 X112.961 Y88.144 E0.96911
G1 X113.889 Y88.295 E1.01415
G1 X115.154 Y88.551 E1.07596
G1 X115.338 Y88.598 E1.08506
G1 X116.354 Y88.889 E1.13567
G1 X117.315 Y89.191 E1.18392
G1 X117.533 Y89.27 E1.19502
G1 X118.403 Y89.615 E1.23985
G1 X118.769 Y89.798 E1.25945
G1 X118.776 Y89.778 E1.26046
G1 X119.578 Y90.13 E1.30241
G1 X119.797 Y90.239 E1.31413
G1 X120.501 Y90.608 E1.3522
G1 X121.573 Y91.223 E1.41139
G1 X121.737 Y91.326 E1.42066
G1 X122.513 Y91.844 E1.46535
G1 X123.627 Y92.656 E1.53137
G1 X123.765 Y92.768 E1.53989
G1 X124.373 Y93.277 E1.57786
G1 X125.356 Y94.167 E1.64137
G1 X125.52 Y94.33 E1.65245
G1 X126.049 Y94.878 E1.68893
G1 X126.943 Y95.877 E1.75314
G1 X127.048 Y96.006 E1.7611
G1 X127.58 Y96.69 E1.8026
G1 X128.408 Y97.849 E1.87082
G1 X128.868 Y98.587 E1.91248
G1 X129.563 Y99.812 E1.97993
G1 X129.91 Y100.514 E2.01744
G1 X130.16 Y101.05 E2.04576
G1 X130.562 Y102.023 E2.09618
G1 X130.879 Y102.905 E2.14107
G1 X131.237 Y104.036 E2.19789
G1 X131.281 Y104.2 E2.20602
G1 X131.511 Y105.165 E2.25354
G1 X131.767 Y106.435 E2.31559
G1 X131.799 Y106.653 E2.32614
G1 X131.9 Y107.42 E2.36319
G1 X132.026 Y108.833 E2.43113
G1 X132.049 Y109.813 E2.47808
G1 X132.026 Y111.144 E2.54184
G1 X132.018 Y111.276 E2.54818
G1 X131.948 Y112.139 E2.58964
G1 X131.807 Y113.313 E2.64628
G1 X131.778 Y113.492 E2.65496
G1 X131.718 Y113.812 E2.67055
G1 X131.715 Y113.812 E2.6707
G1 X131.606 Y114.401 E2.69939
G1 X131.291 Y115.76 E2.7662
G1 X131.244 Y115.927 E2.77451
G1 X131.006 Y116.71 E2.81371
G1 X130.607 Y117.863 E2.87214
G1 X130.532 Y118.056 E2.88206
G1 X130.107 Y119.042 E2.93348
G1 X129.659 Y120.003 E2.98427
G1 X129.566 Y120.183 E2.99397
G1 X129.111 Y121.003 E3.03888
G1 X128.302 Y122.308 E3.11242
G1 X127.834 Y122.97 E3.15125
G1 X127.036 Y124.011 E3.21407
G1 X126.921 Y124.148 E3.22264
G1 X126.282 Y124.866 E3.26867
G1 X125.424 Y125.767 E3.32826
G1 X124.695 Y126.443 E3.37588
G1 X123.715 Y127.275 E3.43745
G1 X123.579 Y127.382 E3.44574
G1 X122.877 Y127.903 E3.48761
G1 X121.778 Y128.651 E3.55128
G1 X121.571 Y128.777 E3.56289
G1 X120.906 Y129.167 E3.59981
G1 X119.724 Y129.8 E3.66403
G1 X119.55 Y129.883 E3.67326
G1 X118.719 Y130.251 E3.71679
G1 X117.514 Y130.74 E3.77907
G1 X117.301 Y130.813 E3.78986
G1 X116.498 Y131.072 E3.83027
G1 X115.344 Y131.4 E3.88773
G1 X115.157 Y131.445 E3.89694
G1 X114.275 Y131.633 E3.94013
G1 X113.035 Y131.849 E4.00042
G1 X112.867 Y131.87 E4.00852
G1 X111.909 Y131.969 E4.05465
G1 X110.823 Y132.042 E4.10678
G1 X110.386 Y132.054 E4.12772
G1 X109.538 Y132.053 E4.16833
G1 X109.193 Y132.044 E4.18486
G1 X108.162 Y131.98 E4.23434
G1 X107.216 Y131.876 E4.27992
G1 X106.116 Y131.715 E4.33316
G1 X105.934 Y131.681 E4.34203
G1 X104.932 Y131.462 E4.39116
G1 X103.694 Y131.138 E4.45245
G1 X103.482 Y131.072 E4.46308
G1 X102.755 Y130.827 E4.49982
G1 X101.437 Y130.329 E4.5673
G1 X101.227 Y130.237 E4.57829
G1 X100.456 Y129.881 E4.61896
G1 X99.335 Y129.31 E4.67921
G1 X98.365 Y128.727 E4.73342
G1 X97.387 Y128.099 E4.78908
G1 X97.186 Y127.953 E4.80098
G1 X96.515 Y127.449 E4.84117
G1 X95.512 Y126.634 E4.90307
G1 X95.344 Y126.483 E4.91389
G1 X94.761 Y125.938 E4.95211
G1 X93.706 Y124.867 E5.02412
G1 X93.635 Y124.787 E5.02924
G1 X93.187 Y124.267 E5.06211
G1 X92.265 Y123.118 E5.13267
G1 X91.723 Y122.34 E5.17808
G1 X90.994 Y121.195 E5.24309
G1 X90.936 Y121.093 E5.24871
G1 X90.519 Y120.335 E5.29015
G1 X89.964 Y119.228 E5.34946
G1 X89.604 Y118.392 E5.39305
G1 X89.383 Y117.84 E5.42153
G1 X89.046 Y116.884 E5.47008
G1 X88.781 Y116.005 E5.51405
G1 X88.455 Y114.737 E5.57676
G1 X88.296 Y113.935 E5.61591
G1 X88.175 Y113.204 E5.6514
G1 X88.065 Y112.329 E5.69364
G1 X87.989 Y111.307 E5.74272
G1 X87.94 Y110.109 E5.80015
G1 X87.952 Y109.33 E5.83746
G1 X87.991 Y108.508 E5.87688
G1 X88.058 Y107.727 E5.91442
G1 X88.112 Y107.257 E5.93708
G1 X88.253 Y106.299 E5.98346
G1 X88.397 Y105.536 E6.02064
G1 X88.586 Y104.707 E6.06137
G1 X88.811 Y103.866 E6.10306
G1 X89.075 Y103.024 E6.14533
G1 X89.357 Y102.233 E6.18555
G1 X89.539 Y101.755 E6.21004
G1 X89.827 Y101.074 E6.24546
G1 X89.92 Y100.869 E6.25624
G1 X90.154 Y100.378 E6.28229
G1 X90.423 Y99.841 E6.31105
G1 X90.95 Y98.879 E6.36359
G1 X91.371 Y98.189 E6.4023
G1 X91.723 Y97.65 E6.43314
G1 X92.241 Y96.915 E6.4762
G1 X92.387 Y96.722 E6.48779
G1 X92.959 Y96.007 E6.53165
G1 X93.75 Y95.081 E6.58998
G1 X93.868 Y94.956 E6.59821
G1 X94.446 Y94.367 E6.63773
G0 F12000 X94.4 Y94.413
G1 F1800 X94.4 Y125.571 E8.13003
G1 F2700 E3.13003
G1 F600 Z0.344
G0 F12000 X96 Y127.03 Z0.344
G1 F600 Z0.144
G1 F2700 E8.13003
G1 F1800 X96 Y92.964 E9.76161
G1 F2700 E4.76161
G1 F600 Z0.344
G0 F12000 X97.6 Y91.763 Z0.344
G1 F600 Z0.144
G1 F2700 E9.76161
G1 F1800 X97.6 Y128.235 E11.50842
G1 F2700 E6.50842
G1 F600 Z0.344
G0 F12000 X99.2 Y129.228 Z0.344
G1 F600 Z0.144
G1 F2700 E11.50842
G1 F1800 X99.2 Y90.769 E13.3504
G1 F2700 E8.3504
G1 F600 Z0.344
G0 F12000 X100.8 Y89.967 Z0.344
G1 F600 Z0.144
G1 F2700 E13.3504
G1 F1800 X100.8 Y130.039 E15.26963
G1 F2700 E10.26963
G1 F600 Z0.344
G0 F12000 X102.4 Y130.692 Z0.344
G1 F600 Z0.144
G1 F2700 E15.26963
G1 F1800 X102.4 Y89.299 E17.25213
G1 F2700 E12.25213
G1 F600 Z0.344
G0 F12000 X104 Y88.78 Z0.344
G1 F600 Z0.144
G1 F2700 E17.25213
G1 F1800 X104 Y131.218 E19.28468
G1 F2700 E14.28468
G1 F600 Z0.344
G0 F12000 X105.6 Y131.608 Z0.344
G1 F600 Z0.144
G1 F2700 E19.28468
G1 F1800 X105.6 Y88.392 E21.3545
G1 F2700 E16.3545
G1 F600 Z0.344
G0 F12000 X107.2 Y88.132 Z0.344
G1 F600 Z0.144
G1 F2700 E21.3545
G1 F1800 X107.2 Y131.873 E23.44945
G1 F2700 E18.44945
G1 F600 Z0.344
G0 F12000 X108.8 Y132.019 Z0.344
G1 F600 Z0.144
G1 F2700 E23.44945
G1 F1800 X108.8 Y87.978 E25.55878
G1 F2700 E20.55878
G1 F600 Z0.344
G0 F12000 X110.4 Y87.946 Z0.344
G1 F600 Z0.144
G1 F2700 E25.55878
G1 F1800 X110.4 Y132.054 E27.67131
G1 F2700 E22.67131
G1 F600 Z0.344
G0 F12000 X112 Y131.96 Z0.344
G1 F600 Z0.144
G1 F2700 E27.67131
G1 F1800 X112 Y88.046 E29.77456
G1 F2700 E24.77456
G1 F600 Z0.344
G0 F12000 X113.6 Y88.248 Z0.344
G1 F600 Z0.144
G1 F2700 E29.77456
G1 F1800 X113.6 Y131.751 E31.85812
G1 F2700 E26.85812
G1 F600 Z0.344
G0 F12000 X115.2 Y131.435 Z0.344
G1 F600 Z0.144
G1 F2700 E31.85812
G1 F1800 X115.2 Y88.563 E33.91145
G1 F2700 E28.91145
G1 F600 Z0.344
G0 F12000 X116.8 Y89.03 Z0.344
G1 F600 Z0.144
G1 F2700 E33.91145
G1 F1800 X116.8 Y130.975 E35.92039
G1 F2700 E30.92039
G1 F600 Z0.344
G0 F12000 X118.4 Y130.381 Z0.344
G1 F600 Z0.144
G1 F2700 E35.92039
G1 F1800 X118.4 Y89.614 E37.87291
G1 F2700 E32.87291
G1 F600 Z0.344
G0 F12000 X120 Y90.346 Z0.344
G1 F600 Z0.144
G1 F2700 E37.87291
G1 F1800 X120 Y129.653 E39.7555
G1 F2700 E34.7555
G1 F600 Z0.344
G0 F12000 X121.6 Y128.76 Z0.344
G1 F600 Z0.144
G1 F2700 E39.7555
G1 F1800 X121.6 Y91.24 E41.55251
G1 F2700 E36.55251
G1 F600 Z0.344
G0 F12000 X123.2 Y92.345 Z0.344
G1 F600 Z0.144
G1 F2700 E41.55251
G1 F1800 X123.2 Y127.664 E43.2441
G1 F2700 E38.2441
G1 F600 Z0.344
G0 F12000 X124.8 Y126.346 Z0.344
G1 F600 Z0.144
G1 F2700 E43.2441
G1 F1800 X124.8 Y93.664 E44.80939
G1 F2700 E39.80939
G1 F600 Z0.344
G0 F12000 X126.4 Y95.271 Z0.344
G1 F600 Z0.144
G1 F2700 E44.80939
G1 F1800 X126.4 Y124.734 E46.22051
G1 F2700 E41.22051
G1 F600 Z0.344
G0 F12000 X128 Y122.736 Z0.344
G1 F600 Z0.144
G1 F2700 E46.22051
G1 F1800 X128 Y97.278 E47.43981
G1 F2700 E42.43981
G1 F600 Z0.344
G0 F12000 X129.6 Y99.887 Z0.344
G1 F600 Z0.144
G1 F2700 E47.43981
G1 F1800 X129.6 Y120.118 E48.40876
G1 F2700 E43.40876
G1 F600 Z0.344
G0 F12000 X131.2 Y116.072 Z0.344
G1 F600 Z0.144
G1 F2700 E48.40876
G1 F1800 X131.2 Y103.92 E48.99078
G1 F2700 E43.99078
G1 F600 Z0.344
G0 F12000 X92.8 Y96.205 Z0.344
G1 F600 Z0.144
G1 F2700 E48.99078
G1 F1800 X92.8 Y123.784 E50.31166
G1 F2700 E45.31166
G1 F600 Z0.344
G0 F12000 X91.2 Y121.518 Z0.344
G1 F600 Z0.144
G1 F2700 E50.31166
G1 F1800 X91.2 Y98.469 E51.41559
G1 F2700 E46.41559
G1 F600 Z0.344
G0 F12000 X89.6 Y101.61 Z0.344
G1 F600 Z0.144
G1 F2700 E51.41559
G1 F1800 X89.6 Y118.382 E52.21887
G1 F2700 E47.21887
G1 F600 Z0.344
G0 F12000 X88 Y111.454 Z0.344
G1 F600 Z0.144
G1 F2700 E52.21887
G1 F1800 X88 Y108.403 E52.365
G1 F2700 E47.365
G1 F600 Z0.344
G0 F12000 X91.761 Y122.324 Z0.344
;TIME_ELAPSED:54.405743
;LAYER:-5
M140 S60
G0 X91.761 Y122.324 Z0.524
;TYPE:SUPPORT
G1 F600 Z0.324
G1 F2700 E52.365
G1 F1800 X92.242 Y123.016 E52.4205
G1 X92.296 Y123.095 E52.4268
G1 X93.166 Y124.179 E52.51834
G1 X93.666 Y124.76 E52.56882
G1 X93.736 Y124.838 E52.57572
G1 X94.794 Y125.914 E52.6751
G1 X95.375 Y126.457 E52.72747
G1 X95.46 Y126.533 E52.73497
G1 X96.538 Y127.416 E52.82674
G1 X97.208 Y127.919 E52.88192
G1 X97.399 Y128.058 E52.89747
G1 X97.711 Y128.258 E52.92188
G1 X91.734 Y122.281 E53.47853
G1 X90.971 Y121.077 E53.5724
G1 X90.554 Y120.314 E53.62967
G1 X90 Y119.211 E53.71095
G1 X89.922 Y119.036 E53.72357
G1 X89.851 Y118.871 E53.7354
G1 X101.126 Y130.146 E54.78548
G1 X101.247 Y130.202 E54.79426
G1 X101.447 Y130.29 E54.80865
G1 X102.768 Y130.788 E54.90162
G1 X103.494 Y131.033 E54.95208
G1 X103.562 Y131.055 E54.95678
G1 X88.956 Y116.448 E56.31713
G1 X88.818 Y115.993 E56.34844
G1 X88.454 Y114.541 E56.44702
G1 X88.425 Y114.39 E56.45715
G1 X105.602 Y131.567 E58.0569
G1 X105.917 Y131.636 E58.07813
G1 X106.123 Y131.673 E58.09192
G1 X107.22 Y131.836 E58.16495
G1 X107.42 Y131.858 E58.1782
G1 X88.135 Y112.572 E59.97432
G1 X88.105 Y112.335 E59.99006
G1 X88.029 Y111.304 E60.05814
G1 X88.013 Y110.923 E60.08325
G1 X109.086 Y131.996 E62.04584
G1 X109.196 Y132.003 E62.0531
G1 X109.539 Y132.012 E62.0757
G1 X110.384 Y132.013 E62.13135
G1 X110.623 Y132.006 E62.14709
G1 X87.991 Y109.374 E64.25488
G1 X87.992 Y109.331 E64.25771
G1 X88.031 Y108.51 E64.31184
G1 X88.08 Y107.935 E64.34985
G1 X112.056 Y131.912 E66.58285
G1 X112.863 Y131.829 E66.63628
G1 X113.409 Y131.737 E66.67274
G1 X88.249 Y106.577 E69.01597
G1 X88.29 Y106.314 E69.0335
G1 X88.435 Y105.543 E69.08516
G1 X88.492 Y105.293 E69.10205
G1 X114.699 Y131.5 E71.54279
G1 X115.145 Y131.405 E71.57282
G1 X115.334 Y131.361 E71.5856
G1 X115.92 Y131.193 E71.62575
G1 X88.797 Y104.071 E74.15175
G1 X88.85 Y103.876 E74.16506
G1 X89.113 Y103.036 E74.22302
G1 X89.159 Y102.905 E74.23217
G1 X117.091 Y130.837 E76.83356
G1 X117.288 Y130.774 E76.84718
G1 X117.487 Y130.705 E76.86105
G1 X118.198 Y130.417 E76.91157
G1 X89.569 Y101.788 E79.57788
G1 X89.576 Y101.769 E79.57921
G1 X89.956 Y100.885 E79.64258
G1 X90.032 Y100.723 E79.65436
G1 X119.271 Y129.962 E82.37748
G1 X119.52 Y129.851 E82.39544
G1 X119.701 Y129.766 E82.4086
G1 X120.287 Y129.451 E82.45242
G1 X90.542 Y99.707 E85.22262
G1 X91.088 Y98.724 E85.29667
G1 X121.268 Y128.905 E88.10747
G1 X121.553 Y128.739 E88.12919
G1 X121.746 Y128.622 E88.14406
G1 X122.202 Y128.312 E88.18037
G1 X91.679 Y97.788 E91.02312
G1 X91.752 Y97.677 E91.03187
G1 X92.273 Y96.938 E91.09141
G1 X92.308 Y96.89 E91.09532
G1 X123.103 Y127.685 E93.96336
G1 X123.554 Y127.349 E94.0004
G1 X123.689 Y127.243 E94.0117
G1 X123.958 Y127.013 E94.03501
G1 X92.984 Y96.039 E96.91971
G1 X92.99 Y96.032 E96.92032
G1 X93.687 Y95.214 E96.99109
G1 X124.78 Y126.307 E99.88688
G1 X125.396 Y125.737 E99.94215
G1 X125.563 Y125.563 E99.95803
G1 X94.434 Y94.434 E102.85717
G1 X94.473 Y94.395 E102.86081
G1 X95.218 Y93.691 E102.92831
G1 X126.306 Y124.778 E105.82358
G1 X126.889 Y124.121 E105.88143
G1 X127.004 Y123.986 E105.89311
G1 X127.02 Y123.965 E105.89485
G1 X96.039 Y92.984 E108.7802
G1 X96.233 Y92.824 E108.79676
G1 X96.899 Y92.317 E108.85189
G1 X127.682 Y123.1 E111.7188
G1 X127.801 Y122.946 E111.73162
G1 X128.319 Y122.209 E111.79094
G1 X97.793 Y91.684 E114.63388
G1 X98.114 Y91.472 E114.65921
G1 X98.734 Y91.097 E114.70693
G1 X128.902 Y121.265 E117.51657
G1 X129.076 Y120.981 E117.53851
G1 X129.458 Y120.294 E117.59027
G1 X99.707 Y90.542 E120.36112
G1 X100.179 Y90.302 E120.39599
G1 X100.737 Y90.045 E120.43645
G1 X129.957 Y119.266 E123.15785
G1 X130.07 Y119.025 E123.17538
G1 X130.423 Y118.204 E123.23423
G1 X101.792 Y89.574 E125.90068
G1 X102.372 Y89.351 E125.9416
G1 X102.912 Y89.166 E125.97919
G1 X130.833 Y117.086 E128.57951
G1 X130.967 Y116.696 E128.60667
G1 X131.201 Y115.928 E128.65954
G1 X104.075 Y88.802 E131.18587
G1 X104.593 Y88.661 E131.22123
G1 X105.302 Y88.501 E131.26909
G1 X131.496 Y114.695 E133.70862
G1 X131.564 Y114.399 E133.72862
G1 X131.6 Y114.226 E133.74026
G1 X131.68 Y113.772 E133.77062
G1 X131.683 Y113.772 E133.77082
G1 X131.736 Y113.492 E133.78958
G1 X131.748 Y113.42 E133.79439
G1 X106.585 Y88.256 E136.13794
G1 X106.837 Y88.216 E136.15475
G1 X107.939 Y88.083 E136.22785
G1 X131.913 Y112.058 E138.46067
G1 X131.977 Y111.271 E138.51267
G1 X131.985 Y111.143 E138.52111
G1 X131.994 Y110.612 E138.55609
G1 X109.376 Y87.993 E140.66262
G1 X109.636 Y87.984 E140.67975
G1 X110.409 Y87.986 E140.73066
G1 X110.674 Y87.994 E140.74812
G1 X110.918 Y88.007 E140.76421
G1 X131.991 Y109.081 E142.72685
G1 X131.985 Y108.834 E142.74312
G1 X131.859 Y107.425 E142.83628
G1 X131.859 Y107.422 E142.83648
G1 X112.575 Y88.138 E144.63246
G1 X112.681 Y88.147 E144.63946
G1 X112.954 Y88.183 E144.6576
G1 X113.876 Y88.333 E144.71911
G1 X114.405 Y88.44 E144.75466
G1 X131.557 Y105.592 E146.35207
G1 X131.494 Y105.28 E146.37304
G1 X131.241 Y104.209 E146.44551
G1 X131.197 Y104.045 E146.45669
G1 X131.04 Y103.548 E146.49101
G1 X116.455 Y88.963 E147.84936
G1 X117.292 Y89.224 E147.9071
G1 X117.517 Y89.306 E147.92287
G1 X118.376 Y89.646 E147.98371
G1 X118.791 Y89.854 E148.01428
G1 X118.798 Y89.83 E148.01593
G1 X118.892 Y89.872 E148.02271
G1 X130.149 Y101.129 E149.07111
G1 X130.126 Y101.075 E149.07497
G1 X129.872 Y100.53 E149.11457
G1 X129.522 Y99.822 E149.16658
G1 X128.839 Y98.618 E149.25774
G1 X128.378 Y97.879 E149.3151
G1 X128.31 Y97.774 E149.32334
G1 X128.281 Y97.734 E149.32659
G1 X122.294 Y91.747 E149.88418
G1 X122.489 Y91.877 E149.89961
G1 X123.601 Y92.688 E149.99025
G1 X123.733 Y92.795 E150.00144
G1 X124.344 Y93.306 E150.0539
G1 X125.326 Y94.195 E150.14113
G1 X125.49 Y94.357 E150.15631
