;FLAVOR:Marlin
;TIME:1215
;Filament used: 0.558633m
;Layer height: 0.12
;MINX:88.993
;MINY:88.974
;MINZ:0.144
;MAXX:131.023
;MAXY:131.02
;MAXZ:10.874
;Generated with Cura_SteamEngine 4.2.1
M140 S60
M105
M190 S60
M104 S200
M105
M109 S200
M82 ;absolute extrusion mode
M201 X500.00 Y500.00 Z100.00 E5000.00 ;Setup machine max acceleration
M203 X500.00 Y500.00 Z10.00 E50.00 ;Setup machine max feedrate
M204 P500.00 R1000.00 T500.00 ;Setup Print/Retract/Travel acceleration
M205 X8.00 Y8.00 Z0.40 E5.00 ;Setup Jerk
M220 S100 ;Reset Feedrate
M221 S100 ;Reset Flowrate

G28 ;Home

G92 E0 ;Reset Extruder
G1 Z2.0 F3000 ;Move Z Axis up
G1 X10.1 Y20 Z0.28 F5000.0 ;Move to start position
G1 X10.1 Y200.0 Z0.28 F1500.0 E15 ;Draw the first line
G1 X10.4 Y200.0 Z0.28 F5000.0 ;Move to side a little
G1 X10.4 Y20 Z0.28 F1500.0 E30 ;Draw the second line
G92 E0 ;Reset Extruder
G1 Z2.0 F3000 ;Move Z Axis up

G92 E0
G92 E0
G1 F2700 E-5
;LAYER_COUNT:83
;LAYER:-6
M107
G0 F12000 X95.223 Y95.294 Z0.144
;TYPE:SUPPORT-INTERFACE
G1 F2700 E0
G1 F1800 X95.611 Y94.923 E0.02571
G1 X96.127 Y94.447 E0.05933
G1 X96.974 Y93.724 E0.11267
G1 X97.347 Y93.438 E0.13518
G1 X97.927 Y93.011 E0.16968
G1 X98.862 Y92.378 E0.22376
G1 X99.256 Y92.14 E0.2458
G1 X99.873 Y91.784 E0.27992
G1 X100.847 Y91.271 E0.33264
G1 X101.324 Y91.051 E0.3578
G1 X101.963 Y90.773 E0.39118
G1 X103.453 Y90.214 E0.4674
G1 X104.094 Y90.013 E0.49957
G1 X105.134 Y89.729 E0.55121
G1 X105.679 Y89.611 E0.57791
G1 X106.361 Y89.479 E0.61118
G1 X107.967 Y89.259 E0.68882
G1 X108.582 Y89.206 E0.71838
G1 X109.687 Y89.154 E0.77137
G1 X110.296 Y89.161 E0.80054
G1 X110.903 Y89.177 E0.82962
G1 X112.003 Y89.248 E0.88241
G1 X112.521 Y89.31 E0.9074
G1 X113.19 Y89.402 E0.93974
G1 X114.258 Y89.591 E0.99169
G1 X114.784 Y89.713 E1.01755
G1 X115.462 Y89.886 E1.05106
G1 X116.465 Y90.18 E1.10112
G1 X116.956 Y90.352 E1.12604
G1 X117.632 Y90.605 E1.16061
G1 X118.646 Y91.029 E1.21325
G1 X119.103 Y91.25 E1.23756
G1 X119.724 Y91.564 E1.27089
G1 X120.671 Y92.089 E1.32275
G1 X121.099 Y92.357 E1.34694
G1 X121.708 Y92.758 E1.38186
G1 X122.996 Y93.707 E1.45848
G1 X123.494 Y94.116 E1.48935
G1 X124.327 Y94.856 E1.54271
G1 X124.699 Y95.224 E1.56778
G1 X125.183 Y95.722 E1.60104
G1 X125.924 Y96.547 E1.65415
G1 X126.221 Y96.914 E1.67676
G1 X126.685 Y97.515 E1.71312
G1 X127.579 Y98.806 E1.78833
G1 X127.915 Y99.352 E1.81904
G1 X128.454 Y100.302 E1.87135
G1 X128.678 Y100.752 E1.89543
G1 X129.003 Y101.443 E1.932
G1 X129.414 Y102.403 E1.98202
G1 X129.588 Y102.877 E2.0062
G1 X129.823 Y103.568 E2.04116
G1 X130.259 Y105.113 E2.11804
G1 X130.412 Y105.799 E2.15171
G1 X130.601 Y106.811 E2.20101
G1 X130.669 Y107.323 E2.22575
G1 X130.75 Y108.045 E2.26055
G1 X130.834 Y109.261 E2.31893
G1 X130.843 Y109.544 E2.33249
G1 X130.843 Y110.431 E2.37497
G1 X130.834 Y110.736 E2.38958
G1 X130.751 Y111.967 E2.44868
G1 X130.672 Y112.647 E2.48146
G1 X130.404 Y114.254 E2.55949
G1 X130.271 Y114.85 E2.58874
G1 X129.975 Y115.969 E2.64418
G1 X129.816 Y116.461 E2.66894
G1 X129.606 Y117.076 E2.70007
G1 X129.206 Y118.11 E2.75317
G1 X129.01 Y118.548 E2.77615
G1 X128.682 Y119.239 E2.81278
G1 X128.194 Y120.18 E2.86355
G1 X127.926 Y120.634 E2.8888
G1 X127.556 Y121.229 E2.92236
G1 X126.673 Y122.505 E2.99668
G1 X126.275 Y123.021 E3.02789
G1 X125.555 Y123.88 E3.08157
G1 X125.168 Y124.294 E3.10871
G1 X124.677 Y124.798 E3.14242
G1 X124.003 Y125.443 E3.1871
G1 X123.527 Y125.855 E3.21725
G1 X122.96 Y126.319 E3.25234
G1 X121.688 Y127.255 E3.32798
G1 X121.17 Y127.596 E3.35768
G1 X120.197 Y128.183 E3.4121
G1 X119.723 Y128.435 E3.43781
G1 X119.133 Y128.734 E3.46949
G1 X118.134 Y129.195 E3.52219
G1 X117.649 Y129.388 E3.54719
G1 X116.931 Y129.652 E3.58383
G1 X115.422 Y130.123 E3.65954
G1 X114.751 Y130.291 E3.69267
G1 X113.702 Y130.515 E3.74404
G1 X113.231 Y130.59 E3.76689
G1 X112.495 Y130.69 E3.80246
G1 X110.92 Y130.821 E3.87816
G1 X110.235 Y130.84 E3.91098
G1 X109.15 Y130.829 E3.96294
G1 X108.645 Y130.798 E3.98718
G1 X107.96 Y130.742 E4.02009
G1 X106.87 Y130.611 E4.07267
G1 X106.336 Y130.519 E4.09863
G1 X105.675 Y130.389 E4.13089
G1 X104.607 Y130.139 E4.18343
G1 X104.099 Y129.989 E4.2088
G1 X103.411 Y129.771 E4.24336
G1 X101.938 Y129.219 E4.3187
G1 X101.339 Y128.958 E4.34999
G1 X100.354 Y128.482 E4.40239
G1 X99.835 Y128.196 E4.43077
G1 X99.242 Y127.85 E4.46365
G1 X97.944 Y127 E4.53797
G1 X97.403 Y126.604 E4.57008
G1 X96.549 Y125.927 E4.62227
G1 X96.143 Y125.568 E4.64823
G1 X95.64 Y125.105 E4.68097
G1 X94.854 Y124.325 E4.73401
G1 X94.497 Y123.93 E4.75951
G1 X94.053 Y123.415 E4.79207
G1 X93.068 Y122.153 E4.86875
G1 X92.69 Y121.609 E4.90048
G1 X92.08 Y120.653 E4.95479
G1 X91.831 Y120.21 E4.97913
G1 X91.512 Y119.621 E5.01121
G1 X91.008 Y118.595 E5.06596
G1 X90.831 Y118.181 E5.08752
G1 X90.555 Y117.492 E5.12307
G1 X90.05 Y116.024 E5.19743
G1 X89.864 Y115.375 E5.22976
G1 X89.601 Y114.299 E5.28281
G1 X89.492 Y113.718 E5.31112
G1 X89.387 Y113.073 E5.34242
G1 X89.248 Y111.981 E5.39515
G1 X89.214 Y111.517 E5.41743
G1 X89.176 Y110.767 E5.4534
G1 X89.174 Y109.194 E5.52873
G1 X89.21 Y108.535 E5.56034
G1 X89.308 Y107.455 E5.61228
G1 X89.378 Y106.969 E5.6358
G1 X89.493 Y106.269 E5.66977
G1 X89.715 Y105.184 E5.72282
G1 X89.902 Y104.484 E5.75752
G1 X90.053 Y103.959 E5.78368
G1 X90.58 Y102.434 E5.86096
G1 X90.826 Y101.83 E5.8922
G1 X91.263 Y100.857 E5.94328
G1 X91.486 Y100.425 E5.96657
G1 X91.826 Y99.797 E6.00077
G1 X92.381 Y98.855 E6.05313
G1 X92.668 Y98.423 E6.07797
G1 X93.091 Y97.818 E6.11333
G1 X94.074 Y96.555 E6.18998
G1 X94.504 Y96.063 E6.22128
G1 X95.223 Y95.294 E6.2717
G0 F12000 X96 Y94.564
G1 F1800 X96 Y125.436 E7.7503
G1 F2700 E2.7503
G1 F600 Z0.344
G0 F12000 X97.6 Y126.748 Z0.344
G1 F600 Z0.144
G1 F2700 E7.7503
G1 F1800 X97.6 Y93.251 E9.35463
G1 F2700 E4.35463
G1 F600 Z0.344
G0 F12000 X99.2 Y92.173 Z0.344
G1 F600 Z0.144
G1 F2700 E9.35463
G1 F1800 X99.2 Y127.822 E11.06202
G1 F2700 E6.06202
G1 F600 Z0.344
G0 F12000 X100.8 Y128.697 Z0.344
G1 F600 Z0.144
G1 F2700 E11.06202
G1 F1800 X100.8 Y91.295 E12.85338
G1 F2700 E7.85338
G1 F600 Z0.344
G0 F12000 X102.4 Y90.609 Z0.344
G1 F600 Z0.144
G1 F2700 E12.85338
G1 F1800 X102.4 Y129.392 E14.71087
G1 F2700 E9.71087
G1 F600 Z0.344
G0 F12000 X104 Y129.957 Z0.344
G1 F600 Z0.144
G1 F2700 E14.71087
G1 F1800 X104 Y90.042 E16.62259
G1 F2700 E11.62259
G1 F600 Z0.344
G0 F12000 X105.6 Y89.628 Z0.344
G1 F600 Z0.144
G1 F2700 E16.62259
G1 F1800 X105.6 Y130.371 E18.57395
G1 F2700 E13.57395
G1 F600 Z0.344
G0 F12000 X107.2 Y130.65 Z0.344
G1 F600 Z0.144
G1 F2700 E18.57395
G1 F1800 X107.2 Y89.364 E20.55133
G1 F2700 E15.55133
G1 F600 Z0.344
G0 F12000 X108.8 Y89.195 Z0.344
G1 F600 Z0.144
G1 F2700 E20.55133
G1 F1800 X108.8 Y130.807 E22.54432
G1 F2700 E17.54432
G1 F600 Z0.344
G0 F12000 X110.4 Y130.836 Z0.344
G1 F600 Z0.144
G1 F2700 E22.54432
G1 F1800 X110.4 Y89.164 E24.54018
G1 F2700 E19.54018
G1 F600 Z0.344
G0 F12000 X112 Y89.248 Z0.344
G1 F600 Z0.144
G1 F2700 E24.54018
G1 F1800 X112 Y130.732 E26.52704
G1 F2700 E21.52704
G1 F600 Z0.344
G0 F12000 X113.6 Y130.532 Z0.344
G1 F600 Z0.144
G1 F2700 E26.52704
G1 F1800 X113.6 Y89.475 E28.49345
G1 F2700 E23.49345
G1 F600 Z0.344
G0 F12000 X115.2 Y89.82 Z0.344
G1 F600 Z0.144
G1 F2700 E28.49345
G1 F1800 X115.2 Y130.179 E30.42643
G1 F2700 E25.42643
G1 F600 Z0.344
G0 F12000 X116.8 Y129.693 Z0.344
G1 F600 Z0.144
G1 F2700 E30.42643
G1 F1800 X116.8 Y90.298 E32.31324
G1 F2700 E27.31324
G1 F600 Z0.344
G0 F12000 X118.4 Y90.927 Z0.344
G1 F600 Z0.144
G1 F2700 E32.31324
G1 F1800 X118.4 Y129.073 E34.14022
G1 F2700 E29.14022
G1 F600 Z0.344
G0 F12000 X120 Y128.288 Z0.344
G1 F600 Z0.144
G1 F2700 E34.14022
G1 F1800 X120 Y91.718 E35.89173
G1 F2700 E30.89173
G1 F600 Z0.344
G0 F12000 X121.6 Y92.687 Z0.344
G1 F600 Z0.144
G1 F2700 E35.89173
G1 F1800 X121.6 Y127.313 E37.55013
G1 F2700 E32.55013
G1 F600 Z0.344
G0 F12000 X123.2 Y126.123 Z0.344
G1 F600 Z0.144
G1 F2700 E37.55013
G1 F1800 X123.2 Y93.875 E39.09463
G1 F2700 E34.09463
G1 F600 Z0.344
G0 F12000 X124.8 Y95.328 Z0.344
G1 F600 Z0.144
G1 F2700 E39.09463
G1 F1800 X124.8 Y124.672 E40.50005
G1 F2700 E35.50005
G1 F600 Z0.344
G0 F12000 X126.4 Y122.859 Z0.344
G1 F600 Z0.144
G1 F2700 E40.50005
G1 F1800 X126.4 Y97.146 E41.73157
G1 F2700 E36.73157
G1 F600 Z0.344
G0 F12000 X128 Y99.502 Z0.344
G1 F600 Z0.144
G1 F2700 E41.73157
G1 F1800 X128 Y120.509 E42.73769
G1 F2700 E37.73769
G1 F600 Z0.344
G0 F12000 X129.6 Y117.092 Z0.344
G1 F600 Z0.144
G1 F2700 E42.73769
G1 F1800 X129.6 Y102.913 E43.41679
G1 F2700 E38.41679
G1 F600 Z0.344
G0 F12000 X94.4 Y96.181 Z0.344
G1 F600 Z0.144
G1 F2700 E43.41679
G1 F1800 X94.4 Y123.817 E44.7404
G1 F2700 E39.7404
G1 F600 Z0.344
G0 F12000 X92.8 Y121.767 Z0.344
G1 F600 Z0.144
G1 F2700 E44.7404
G1 F1800 X92.8 Y98.234 E45.8675
G1 F2700 E40.8675
G1 F600 Z0.344
G0 F12000 X91.2 Y100.997 Z0.344
G1 F600 Z0.144
G1 F2700 E45.8675
G1 F1800 X91.2 Y118.985 E46.72903
G1 F2700 E41.72903
G1 F600 Z0.344
G0 F12000 X89.6 Y114.293 Z0.344
G1 F600 Z0.144
G1 F2700 E46.72903
G1 F1800 X89.6 Y105.746 E47.13839
G1 F2700 E42.13839
G1 F600 Z0.344
G0 F12000 X93.081 Y122.101 Z0.344
;TIME_ELAPSED:49.773317
;LAYER:-5
M140 S60
G0 X93.081 Y122.101 Z0.524
;TYPE:SUPPORT
G1 F600 Z0.324
G1 F2700 E47.13839
G1 F1800 X97.891 Y126.911 E47.58636
G1 X97.428 Y126.57 E47.62423
G1 X96.565 Y125.887 E47.6967
G1 X96.17 Y125.537 E47.73146
G1 X95.661 Y125.07 E47.77695
G1 X94.876 Y124.288 E47.84992
G1 X94.527 Y123.902 E47.88419
G1 X94.077 Y123.381 E47.92953
G1 X93.101 Y122.129 E48.03407
G1 F2700 E43.03407
G1 F600 Z0.524
G0 F12000 X97.891 Y126.911 Z0.524
G1 F600 Z0.324
G1 F2700 E48.03407
G1 F1800 X97.966 Y126.966 E48.04019
G1 X99.275 Y127.822 E48.14319
G1 X99.858 Y128.162 E48.18764
G1 X100.373 Y128.446 E48.22637
G1 X101.347 Y128.916 E48.29759
G1 X101.482 Y128.974 E48.30727
G1 X91.013 Y118.506 E49.28223
G1 X90.866 Y118.162 E49.30687
G1 X90.595 Y117.487 E49.35477
G1 X90.109 Y116.074 E49.45317
G1 X103.926 Y129.891 E50.73999
G1 X104.11 Y129.949 E50.7527
G1 X104.605 Y130.096 E50.7867
G1 X105.684 Y130.349 E50.85969
G1 X105.967 Y130.404 E50.87867
G1 X89.591 Y114.029 E52.40377
G1 X89.531 Y113.704 E52.42554
G1 X89.427 Y113.067 E52.46804
G1 X89.319 Y112.229 E52.52369
G1 X107.767 Y130.677 E54.24181
G1 X107.963 Y130.701 E54.25481
G1 X108.647 Y130.757 E54.30001
G1 X109.151 Y130.788 E54.33326
G1 X109.407 Y130.79 E54.35012
G1 X89.214 Y110.597 E56.23076
G1 X89.214 Y109.194 E56.32315
G1 X89.22 Y109.076 E56.33093
G1 X110.923 Y130.779 E58.3522
G1 X112.333 Y130.662 E58.44538
G1 X89.329 Y107.657 E60.58786
G1 X89.347 Y107.459 E60.60095
G1 X89.416 Y106.975 E60.63315
G1 X89.523 Y106.324 E60.67659
G1 X113.677 Y130.478 E62.92613
G1 X113.695 Y130.475 E62.92733
G1 X114.741 Y130.251 E62.99778
G1 X114.93 Y130.203 E63.01062
G1 X89.788 Y105.061 E65.35217
G1 X89.934 Y104.514 E65.38946
G1 X90.095 Y103.96 E65.42745
G1 X90.125 Y103.871 E65.43364
G1 X116.116 Y129.862 E67.85426
G1 X116.919 Y129.613 E67.90962
G1 X117.265 Y129.484 E67.93394
G1 X90.517 Y102.736 E70.42507
G1 X90.617 Y102.448 E70.44514
G1 X90.858 Y101.854 E70.48736
G1 X90.953 Y101.644 E70.50254
G1 X118.355 Y129.046 E73.05457
G1 X119.11 Y128.699 E73.10929
G1 X119.392 Y128.556 E73.13011
G1 X91.438 Y100.602 E75.73356
G1 X91.52 Y100.443 E75.74534
G1 X91.864 Y99.808 E75.7929
G1 X91.978 Y99.615 E75.80766
G1 X120.384 Y128.021 E78.4532
G1 X121.147 Y127.562 E78.51184
G1 X121.331 Y127.44 E78.52638
G1 X92.554 Y98.664 E81.20642
G1 X92.7 Y98.445 E81.22376
G1 X93.117 Y97.849 E81.27166
G1 X93.182 Y97.764 E81.27871
G1 X122.225 Y126.807 E83.98357
G1 X122.936 Y126.285 E84.04166
G1 X123.098 Y126.152 E84.05546
G1 X93.85 Y96.905 E86.77937
G1 X94.112 Y96.57 E86.80738
G1 X94.533 Y96.088 E86.84953
G1 X94.546 Y96.073 E86.85083
G1 X123.927 Y125.454 E89.58718
G1 X123.975 Y125.412 E89.59138
G1 X124.655 Y124.761 E89.65337
G1 X124.708 Y124.708 E89.65831
G1 X95.287 Y95.287 E92.39838
G1 X95.637 Y94.951 E92.43033
G1 X96.075 Y94.547 E92.46957
G1 X125.455 Y123.928 E95.20587
G1 X125.524 Y123.853 E95.21258
G1 X125.591 Y123.778 E95.2192
G1 X126.155 Y123.1 E95.27728
G1 X96.897 Y93.842 E98.00217
G1 X96.998 Y93.755 E98.01095
G1 X97.37 Y93.469 E98.04185
G1 X97.763 Y93.181 E98.07394
G1 X126.813 Y122.231 E100.77946
G1 X127.438 Y121.328 E100.85178
G1 X98.667 Y92.558 E103.53126
G1 X98.872 Y92.418 E103.54761
G1 X99.274 Y92.174 E103.57858
G1 X99.615 Y91.979 E103.60445
G1 X128.024 Y120.387 E106.25022
G1 X128.165 Y120.147 E106.26855
G1 X128.556 Y119.392 E106.32455
G1 X100.607 Y91.443 E108.92752
G1 X100.863 Y91.307 E108.94661
G1 X101.336 Y91.088 E108.98094
G1 X101.645 Y90.954 E109.00312
G1 X129.05 Y118.359 E111.55543
G1 X129.168 Y118.093 E111.5746
G1 X129.487 Y117.268 E111.63285
G1 X102.742 Y90.523 E114.12369
G1 X103.475 Y90.249 E114.17523
G1 X103.871 Y90.125 E114.20256
G1 X129.879 Y116.133 E116.62476
G1 X129.936 Y115.957 E116.63695
G1 X130.207 Y114.933 E116.7067
G1 X105.063 Y89.789 E119.04844
G1 X105.141 Y89.767 E119.05378
G1 X105.686 Y89.65 E119.09049
G1 X106.326 Y89.526 E119.13342
G1 X130.462 Y113.661 E121.38123
G1 X130.631 Y112.639 E121.44945
G1 X130.666 Y112.338 E121.46941
G1 X107.668 Y89.34 E123.61128
G1 X107.965 Y89.299 E123.63103
G1 X108.584 Y89.246 E123.67194
G1 X109.078 Y89.222 E123.70451
G1 X130.78 Y110.925 E125.72573
G1 X130.793 Y110.734 E125.73834
G1 X130.802 Y110.43 E125.75837
G1 X130.802 Y109.543 E125.81678
G1 X130.798 Y109.415 E125.82522
G1 X110.592 Y89.209 E127.70706
G1 X110.901 Y89.217 E127.72742
G1 X111.983 Y89.286 E127.79882
G1 X112.224 Y89.314 E127.8148
G1 X130.678 Y107.768 E129.53348
G1 X130.628 Y107.32 E129.56316
G1 X130.56 Y106.816 E129.59666
G1 X130.401 Y105.964 E129.65373
G1 X114.028 Y89.59 E131.17865
G1 X114.247 Y89.629 E131.1933
G1 X114.773 Y89.751 E131.22886
G1 X115.451 Y89.923 E131.27492
G1 X116.07 Y90.105 E131.31741
G1 X129.879 Y103.914 E132.60349
G1 X129.784 Y103.579 E132.62642
G1 X129.549 Y102.889 E132.67442
G1 X129.375 Y102.417 E132.70755
G1 X128.976 Y101.483 E132.77443
G1 X118.508 Y91.016 E133.74931
G1 X118.627 Y91.066 E133.75781
G1 X119.081 Y91.283 E133.79094
G1 X119.703 Y91.599 E133.83689
G1 X120.659 Y92.129 E133.90887
G1 X121.075 Y92.389 E133.94118
G1 X121.684 Y92.79 E133.9892
G1 X122.164 Y93.145 E134.02852
G1 X126.861 Y97.841 E134.46592
G0 F12000 X126.644 Y97.529
G1 F1800 X126.193 Y96.945 E134.51451
G1 X125.892 Y96.571 E134.54612
G1 X125.781 Y96.442 E134.55733
G1 X125.158 Y95.755 E134.61841
G1 X124.666 Y95.247 E134.66498
G1 X124.299 Y94.885 E134.69893
G1 X123.47 Y94.149 E134.77193
G1 X122.979 Y93.746 E134.81376
G1 X122.164 Y93.145 E134.88045
G1 F2700 E129.88045
G1 F600 Z0.524
G0 F12000 X126.362 Y96.8 Z0.524
;TIME_ELAPSED:97.745692
;LAYER:-4
G0 X126.362 Y96.8 Z0.644
;TYPE:SUPPORT-INTERFACE
G1 F600 Z0.444
G1 F2700 E134.88045
G1 F2400 X93.657 Y96.8 E135.59838
G1 X93.943 Y96.432 E135.60861
G1 X94.006 Y96.36 E135.61071
G1 X126 Y96.36 E136.31303
G1 X125.604 Y95.92 E136.32603
G1 X94.391 Y95.92 E137.01121
G1 X94.804 Y95.48 E137.02445
G1 X125.2 Y95.48 E137.6917
G1 X124.826 Y95.096 E137.70346
G1 X124.77 Y95.04 E137.7052
G1 X95.228 Y95.04 E138.3537
G1 X95.464 Y94.813 E138.36089
G1 X95.696 Y94.6 E138.3678
G1 X124.312 Y94.6 E138.99597
G1 X123.816 Y94.16 E139.01053
G1 X96.186 Y94.16 E139.61705
G1 X96.702 Y93.72 E139.63194
G1 X123.298 Y93.72 E140.21576
G1 X123.11 Y93.566 E140.2211
G1 X122.722 Y93.28 E140.23168
G1 X97.259 Y93.28 E140.79064
G1 X97.783 Y92.893 E140.80494
G1 X97.862 Y92.84 E140.80702
G1 X122.124 Y92.84 E141.33962
G1 X121.811 Y92.61 E141.34814
G1 X121.493 Y92.4 E141.35651
G1 X98.51 Y92.4 E141.86102
G1 X98.765 Y92.227 E141.86779
G1 X99.144 Y91.997 E141.87752
G1 X99.209 Y91.96 E141.87916
G1 X120.805 Y91.96 E142.35323
G1 X120.766 Y91.936 E142.35423
