;FLAVOR:Marlin
;TIME:3203
;Filament used: 1.27971m
;Layer height: 0.12
;MINX:87.571
;MINY:88.93
;MINZ:0.144
;MAXX:132.78
;MAXY:131.08
;MAXZ:16.874
;Generated with Cura_SteamEngine 4.2.1
M140 S60
M105
M190 S60
M104 S200
M105
M109 S200
M82 ;absolute extrusion mode
M201 X500.00 Y500.00 Z100.00 E5000.00 ;Setup machine max acceleration
M203 X500.00 Y500.00 Z10.00 E50.00 ;Setup machine max feedrate
M204 P500.00 R1000.00 T500.00 ;Setup Print/Retract/Travel acceleration
M205 X8.00 Y8.00 Z0.40 E5.00 ;Setup Jerk
M220 S100 ;Reset Feedrate
M221 S100 ;Reset Flowrate

G28 ;Home

G92 E0 ;Reset Extruder
G1 Z2.0 F3000 ;Move Z Axis up
G1 X10.1 Y20 Z0.28 F5000.0 ;Move to start position
G1 X10.1 Y200.0 Z0.28 F1500.0 E15 ;Draw the first line
G1 X10.4 Y200.0 Z0.28 F5000.0 ;Move to side a little
G1 X10.4 Y20 Z0.28 F1500.0 E30 ;Draw the second line
G92 E0 ;Reset Extruder
G1 Z2.0 F3000 ;Move Z Axis up

G92 E0
G92 E0
G1 F2700 E-5
;LAYER_COUNT:133
;LAYER:-6
M107
G0 F9000 X92.077 Y95.693 Z0.144
;TYPE:SUPPORT-INTERFACE
G1 F2700 E0
G1 F1350 X92.7 Y95.103 E0.0411
G1 X92.846 Y94.975 E0.05039
G1 X93.822 Y94.192 E0.11032
G1 X94.598 Y93.655 E0.15552
G1 X94.746 Y93.56 E0.16394
G1 X95.513 Y93.108 E0.20658
G1 X95.674 Y93.02 E0.21537
G1 X96.463 Y92.63 E0.25752
G1 X96.64 Y92.551 E0.26681
G1 X97.451 Y92.221 E0.30874
G1 X97.632 Y92.155 E0.31797
G1 X98.458 Y91.887 E0.35956
G1 X98.646 Y91.834 E0.36892
G1 X99.505 Y91.622 E0.41129
G1 X99.665 Y91.59 E0.41911
G1 X100.542 Y91.441 E0.46171
G1 X100.812 Y91.405 E0.47476
G1 X101.47 Y91.274 E0.50689
G1 X102.117 Y91.059 E0.53955
G1 X102.905 Y90.672 E0.58159
G1 X103.716 Y90.296 E0.62441
G1 X103.894 Y90.221 E0.63366
G1 X104.716 Y89.911 E0.67573
G1 X104.882 Y89.855 E0.68412
G1 X105.891 Y89.561 E0.73446
G1 X106.797 Y89.364 E0.77887
G1 X106.937 Y89.339 E0.78568
G1 X107.848 Y89.208 E0.82976
G1 X108.005 Y89.192 E0.83732
G1 X108.895 Y89.131 E0.88004
G1 X109.069 Y89.125 E0.88838
G1 X109.956 Y89.129 E0.93086
G1 X110.139 Y89.136 E0.93964
G1 X111.189 Y89.222 E0.99009
G1 X112.085 Y89.359 E1.03351
G1 X112.863 Y89.417 E1.07087
G1 X112.946 Y89.417 E1.07485
G1 X113.347 Y89.38 E1.09413
G1 X113.353 Y89.413 E1.09574
G1 X114.876 Y89.19 E1.16946
G1 X115.802 Y89.12 E1.21394
G1 X115.954 Y89.114 E1.22122
G1 X116.864 Y89.11 E1.26481
G1 X117.014 Y89.115 E1.272
G1 X117.918 Y89.179 E1.3154
G1 X118.092 Y89.198 E1.32378
G1 X118.977 Y89.325 E1.36661
G1 X119.128 Y89.352 E1.37395
G1 X120.176 Y89.588 E1.4254
G1 X121.188 Y89.895 E1.47605
G1 X122.048 Y90.221 E1.5201
G1 X122.198 Y90.285 E1.52791
G1 X122.996 Y90.657 E1.57008
G1 X123.174 Y90.747 E1.57964
G1 X123.919 Y91.162 E1.62048
G1 X124.108 Y91.277 E1.63108
G1 X124.846 Y91.761 E1.67335
G1 X124.961 Y91.843 E1.68011
G1 X125.68 Y92.395 E1.72352
G1 X125.812 Y92.503 E1.73169
G1 X126.479 Y93.096 E1.77444
G1 X126.624 Y93.234 E1.78403
G1 X127.225 Y93.855 E1.82542
G1 X127.34 Y93.983 E1.83366
G1 X127.918 Y94.672 E1.87673
G1 X128.024 Y94.807 E1.88495
G1 X128.636 Y95.666 E1.93547
G1 X129.286 Y96.718 E1.99469
G1 X129.294 Y96.718 E1.99508
G1 X129.607 Y97.181 E2.02184
G1 X129.662 Y97.25 E2.02607
G1 X129.762 Y97.384 E2.03408
G1 X130.258 Y98.103 E2.07591
G1 X130.374 Y98.287 E2.08633
G1 X130.817 Y99.043 E2.1283
G1 X130.894 Y99.185 E2.13603
G1 X131.353 Y100.13 E2.18635
G1 X131.695 Y100.975 E2.23001
G1 X131.754 Y101.14 E2.2384
G1 X132.026 Y101.987 E2.28101
G1 X132.072 Y102.149 E2.28908
G1 X132.284 Y103.023 E2.33215
G1 X132.317 Y103.181 E2.33988
G1 X132.465 Y104.073 E2.38319
G1 X132.489 Y104.259 E2.39217
G1 X132.571 Y105.143 E2.43469
G1 X132.579 Y105.295 E2.44198
G1 X132.6 Y106.028 E2.4771
G1 X132.6 Y107.984 E2.57078
G1 X132.587 Y108.345 E2.58808
G1 X132.586 Y108.681 E2.60418
G1 X132.6 Y109.173 E2.62775
G1 X132.6 Y110.815 E2.70639
G1 X132.584 Y111.268 E2.7281
G1 X132.586 Y111.691 E2.74836
G1 X132.6 Y112.055 E2.76581
G1 X132.6 Y113.957 E2.8569
G1 X132.564 Y114.963 E2.90512
G1 X132.554 Y115.098 E2.9116
G1 X132.452 Y116.015 E2.95579
G1 X132.427 Y116.19 E2.96426
G1 X132.265 Y117.068 E3.00702
G1 X132.235 Y117.202 E3.0136
G1 X132.004 Y118.087 E3.0574
G1 X131.952 Y118.259 E3.06601
G1 X131.665 Y119.101 E3.10861
G1 X131.602 Y119.267 E3.11712
G1 X131.261 Y120.07 E3.1589
G1 X131.18 Y120.245 E3.16814
G1 X130.764 Y121.053 E3.21166
G1 X130.224 Y121.949 E3.26177
G1 X130.124 Y122.1 E3.27044
G1 X129.569 Y122.872 E3.31598
G1 X129.422 Y123.094 E3.32873
G1 X129.407 Y123.084 E3.3296
G1 X128.674 Y124.287 E3.39707
G1 X128.574 Y124.438 E3.40574
G1 X128.063 Y125.152 E3.44779
G1 X127.95 Y125.3 E3.45671
G1 X127.374 Y125.991 E3.4998
G1 X127.273 Y126.104 E3.50706
G1 X126.648 Y126.753 E3.55021
G1 X126.523 Y126.873 E3.55851
G1 X125.853 Y127.475 E3.60165
G1 X125.736 Y127.572 E3.60893
G1 X125.024 Y128.122 E3.65202
G1 X124.865 Y128.235 E3.66136
G1 X124.127 Y128.725 E3.70379
G1 X124.001 Y128.801 E3.71084
G1 X123.066 Y129.321 E3.76208
G1 X122.244 Y129.707 E3.80557
G1 X122.099 Y129.768 E3.8131
G1 X121.24 Y130.097 E3.85716
G1 X121.09 Y130.149 E3.86476
G1 X120.24 Y130.404 E3.90727
G1 X120.067 Y130.45 E3.91584
G1 X119.172 Y130.651 E3.95977
G1 X119.042 Y130.674 E3.9661
G1 X118.137 Y130.808 E4.00991
G1 X117.969 Y130.826 E4.01801
G1 X117.074 Y130.893 E4.06099
G1 X116.909 Y130.899 E4.0689
G1 X116.022 Y130.899 E4.11138
G1 X115.831 Y130.892 E4.12054
G1 X114.948 Y130.828 E4.16294
G1 X114.778 Y130.809 E4.17113
G1 X113.417 Y130.61 E4.23701
G1 X113.414 Y130.624 E4.23769
G1 X113.263 Y130.605 E4.24498
G1 X112.584 Y130.607 E4.2775
G1 X112.139 Y130.656 E4.29895
G1 X111.187 Y130.802 E4.34507
G1 X111.047 Y130.818 E4.35182
G1 X110.145 Y130.888 E4.39515
G1 X109.961 Y130.895 E4.40397
G1 X109.082 Y130.9 E4.44607
G1 X108.899 Y130.894 E4.45484
G1 X108.019 Y130.834 E4.49709
G1 X107.823 Y130.813 E4.50653
G1 X106.969 Y130.692 E4.54784
G1 X106.786 Y130.659 E4.55675
G1 X105.905 Y130.468 E4.59992
G1 X105.742 Y130.427 E4.60797
G1 X104.891 Y130.175 E4.65048
G1 X104.715 Y130.116 E4.65937
G1 X103.904 Y129.81 E4.70088
G1 X103.73 Y129.737 E4.70992
G1 X102.921 Y129.363 E4.75261
G1 X102.775 Y129.289 E4.76045
G1 X102.617 Y129.202 E4.76909
G1 X102.011 Y128.916 E4.80118
G1 X101.361 Y128.703 E4.83394
G1 X100.628 Y128.569 E4.86963
G1 X100.497 Y128.554 E4.87595
G1 X100.333 Y128.53 E4.88388
G1 X99.436 Y128.365 E4.92757
G1 X99.313 Y128.337 E4.93361
G1 X98.271 Y128.059 E4.98526
G1 X97.269 Y127.713 E5.03603
G1 X96.428 Y127.356 E5.07979
G1 X96.276 Y127.285 E5.08782
G1 X95.345 Y126.801 E5.13808
G1 X94.551 Y126.316 E5.18264
G1 X94.42 Y126.23 E5.19015
G1 X93.528 Y125.586 E5.24284
G1 X92.789 Y124.976 E5.28873
G1 X92.649 Y124.851 E5.29772
G1 X91.999 Y124.23 E5.34078
G1 X91.901 Y124.128 E5.34755
G1 X91.293 Y123.455 E5.39099
G1 X91.161 Y123.297 E5.40085
G1 X90.642 Y122.628 E5.44141
G1 X90.528 Y122.471 E5.4507
G1 X90.022 Y121.711 E5.49443
G1 X89.945 Y121.585 E5.5015
G1 X89.504 Y120.805 E5.54442
G1 X89.432 Y120.667 E5.55187
G1 X88.977 Y119.695 E5.60327
G1 X88.641 Y118.825 E5.64794
G1 X88.598 Y118.699 E5.65432
G1 X88.271 Y117.604 E5.70905
G1 X88.053 Y116.677 E5.75466
G1 X88.021 Y116.512 E5.76271
G1 X87.877 Y115.602 E5.80683
G1 X87.862 Y115.475 E5.81296
G1 X87.777 Y114.417 E5.8638
G1 X87.762 Y113.794 E5.89364
G1 X87.759 Y111.977 E5.98067
G1 X87.793 Y111.004 E6.0273
G1 X87.81 Y110.758 E6.03911
G1 X87.824 Y110.384 E6.05703
G1 X87.824 Y109.59 E6.09506
G1 X87.803 Y109.128 E6.11721
G1 X87.774 Y108.755 E6.13513
G1 X87.755 Y108.097 E6.16666
G1 X87.752 Y106.806 E6.22849
G1 X87.763 Y106.015 E6.26638
G1 X87.811 Y105.063 E6.31203
G1 X87.829 Y104.863 E6.32165
G1 X87.939 Y103.976 E6.36446
G1 X87.97 Y103.796 E6.3732
G1 X88.25 Y102.494 E6.43699
G1 X88.343 Y102.135 E6.45475
G1 X88.627 Y101.222 E6.50055
G1 X88.676 Y101.085 E6.50751
G1 X89 Y100.257 E6.5501
G1 X89.074 Y100.087 E6.55898
G1 X89.466 Y99.269 E6.60242
G1 X89.542 Y99.124 E6.61026
G1 X89.98 Y98.36 E6.65244
G1 X90.077 Y98.204 E6.66124
G1 X90.588 Y97.447 E6.70498
G1 X90.685 Y97.314 E6.71287
G1 X91.224 Y96.629 E6.75461
G1 X91.348 Y96.482 E6.76382
G1 X91.931 Y95.842 E6.80529
G1 X92.077 Y95.693 E6.81528
G0 F9000 X92.8 Y95.015
G1 F1350 X92.8 Y124.985 E8.25068
G1 F2700 E3.25068
G1 F600 Z0.344
G0 F9000 X94.4 Y126.215 Z0.344
G1 F600 Z0.144
G1 F2700 E8.25068
G1 F1350 X94.4 Y93.792 E9.80357
G1 F2700 E4.80357
G1 F600 Z0.344
G0 F9000 X96 Y92.858 Z0.344
G1 F600 Z0.144
G1 F2700 E9.80357
G1 F1350 X96 Y127.141 E11.44554
G1 F2700 E6.44554
G1 F600 Z0.344
G0 F9000 X97.6 Y127.827 Z0.344
G1 F600 Z0.144
G1 F2700 E11.44554
G1 F1350 X97.6 Y92.166 E13.15351
G1 F2700 E8.15351
G1 F600 Z0.344
G0 F9000 X99.2 Y91.697 Z0.344
G1 F600 Z0.144
G1 F2700 E13.15351
G1 F1350 X99.2 Y128.306 E14.90688
G1 F2700 E9.90688
G1 F600 Z0.344
G0 F9000 X100.8 Y128.6 Z0.344
G1 F600 Z0.144
G1 F2700 E14.90688
G1 F1350 X100.8 Y91.406 E16.68827
G1 F2700 E11.68827
G1 F600 Z0.344
G0 F9000 X102.4 Y90.92 Z0.344
G1 F600 Z0.144
G1 F2700 E16.68827
G1 F1350 X102.4 Y129.099 E18.51684
G1 F2700 E13.51684
G1 F600 Z0.344
G0 F9000 X104 Y129.846 Z0.344
G1 F600 Z0.144
G1 F2700 E18.51684
G1 F1350 X104 Y90.181 E20.41658
G1 F2700 E15.41658
G1 F600 Z0.344
G0 F9000 X105.6 Y89.645 Z0.344
G1 F600 Z0.144
G1 F2700 E20.41658
G1 F1350 X105.6 Y130.384 E22.36776
G1 F2700 E17.36776
G1 F600 Z0.344
G0 F9000 X107.2 Y130.724 Z0.344
G1 F600 Z0.144
G1 F2700 E22.36776
G1 F1350 X107.2 Y89.301 E24.35169
G1 F2700 E19.35169
G1 F600 Z0.344
G0 F9000 X108.8 Y89.137 Z0.344
G1 F600 Z0.144
G1 F2700 E24.35169
G1 F1350 X108.8 Y130.887 E26.35129
G1 F2700 E21.35129
G1 F600 Z0.344
G0 F9000 X110.4 Y130.869 Z0.344
G1 F600 Z0.144
G1 F2700 E26.35129
G1 F1350 X110.4 Y89.158 E28.34902
G1 F2700 E23.34902
G1 F600 Z0.344
G0 F9000 X112 Y89.347 Z0.344
G1 F600 Z0.144
G1 F2700 E28.34902
G1 F1350 X112 Y130.678 E30.32856
G1 F2700 E25.32856
G1 F600 Z0.344
G0 F9000 X113.6 Y130.636 Z0.344
G1 F600 Z0.144
G1 F2700 E30.32856
G1 F1350 X113.6 Y89.376 E32.30469
G1 F2700 E27.30469
G1 F600 Z0.344
G0 F9000 X115.2 Y89.165 Z0.344
G1 F600 Z0.144
G1 F2700 E32.30469
G1 F1350 X115.2 Y130.846 E34.30098
G1 F2700 E29.30098
G1 F600 Z0.344
G0 F9000 X116.8 Y130.899 Z0.344
G1 F600 Z0.144
G1 F2700 E34.30098
G1 F1350 X116.8 Y89.11 E36.30245
G1 F2700 E31.30245
G1 F600 Z0.344
G0 F9000 X118.4 Y89.243 Z0.344
G1 F600 Z0.144
G1 F2700 E36.30245
G1 F1350 X118.4 Y130.77 E38.29137
G1 F2700 E33.29137
G1 F600 Z0.344
G0 F9000 X120 Y130.466 Z0.344
G1 F600 Z0.144
G1 F2700 E38.29137
G1 F1350 X120 Y89.549 E40.25107
G1 F2700 E35.25107
G1 F600 Z0.344
G0 F9000 X121.6 Y90.052 Z0.344
G1 F600 Z0.144
G1 F2700 E40.25107
G1 F1350 X121.6 Y129.96 E42.16245
G1 F2700 E37.16245
G1 F600 Z0.344
G0 F9000 X123.2 Y129.247 Z0.344
G1 F600 Z0.144
G1 F2700 E42.16245
G1 F1350 X123.2 Y90.762 E44.00567
G1 F2700 E39.00567
G1 F600 Z0.344
G0 F9000 X124.8 Y91.731 Z0.344
G1 F600 Z0.144
G1 F2700 E44.00567
G1 F1350 X124.8 Y128.279 E45.75612
G1 F2700 E40.75612
G1 F600 Z0.344
G0 F9000 X126.4 Y126.984 Z0.344
G1 F600 Z0.144
G1 F2700 E45.75612
G1 F1350 X126.4 Y93.026 E47.38253
G1 F2700 E42.38253
G1 F600 Z0.344
G0 F9000 X128 Y94.777 Z0.344
G1 F600 Z0.144
G1 F2700 E47.38253
G1 F1350 X128 Y125.235 E48.8413
G1 F2700 E43.8413
G1 F600 Z0.344
G0 F9000 X129.6 Y122.829 Z0.344
G1 F600 Z0.144
G1 F2700 E48.8413
G1 F1350 X129.6 Y97.171 E50.07018
G1 F2700 E45.07018
G1 F600 Z0.344
G0 F9000 X131.2 Y99.815 Z0.344
G1 F600 Z0.144
G1 F2700 E50.07018
G1 F1350 X131.2 Y120.202 E51.04661
G1 F2700 E46.04661
G1 F600 Z0.344
G0 F9000 X91.2 Y123.343 Z0.344
G1 F600 Z0.144
G1 F2700 E51.04661
G1 F1350 X91.2 Y96.659 E52.32463
G1 F2700 E47.32463
G1 F600 Z0.344
G0 F9000 X89.6 Y99.022 Z0.344
G1 F600 Z0.144
G1 F2700 E52.32463
G1 F1350 X89.6 Y120.974 E53.37601
G1 F2700 E48.37601
G1 F600 Z0.344
G0 F9000 X88 Y116.379 Z0.344
G1 F600 Z0.144
G1 F2700 E53.37601
G1 F1350 X88 Y103.656 E53.98537
G1 F2700 E48.98537
G1 F600 Z0.344
G0 F9000 X91.177 Y123.251 Z0.344
;TIME_ELAPSED:67.613613
;LAYER:-5
M140 S60
G0 X91.177 Y123.251 Z0.524
;TYPE:SUPPORT
G1 F600 Z0.324
G1 F2700 E53.98537
G1 F1350 X93.133 Y125.208 E54.16759
G1 X92.812 Y124.942 E54.19504
G1 X92.683 Y124.826 E54.20647
G1 X92.027 Y124.2 E54.26618
G1 X91.92 Y124.089 E54.27633
G1 X91.333 Y123.44 E54.33396
G1 X91.192 Y123.27 E54.34851
G1 F2700 E49.34851
G1 F600 Z0.524
G0 F9000 X93.133 Y125.208 Z0.524
G1 F600 Z0.324
G1 F2700 E54.34851
G1 F1350 X93.553 Y125.553 E54.3843
G1 X94.453 Y126.204 E54.45745
G1 X95.366 Y126.765 E54.52802
G1 X95.488 Y126.834 E54.53725
G1 X96.279 Y127.242 E54.59586
G1 X96.43 Y127.313 E54.60685
G1 X97.012 Y127.559 E54.64846
G1 X88.939 Y119.486 E55.40033
G1 X88.683 Y118.821 E55.44725
G1 X88.64 Y118.698 E55.45583
G1 X88.309 Y117.593 E55.5318
G1 X88.228 Y117.248 E55.55514
G1 X99.261 Y128.281 E56.58268
G1 X99.323 Y128.297 E56.58689
G1 X100.354 Y128.491 E56.65598
G1 X100.506 Y128.515 E56.66611
G1 X100.634 Y128.527 E56.67458
G1 X101.126 Y128.619 E56.70754
G1 X87.894 Y115.386 E57.93993
G1 X87.817 Y114.415 E58.00407
G1 X87.801 Y113.793 E58.04505
G1 X87.8 Y113.765 E58.04689
G1 X103.726 Y129.691 E59.53013
G1 X103.743 Y129.699 E59.53137
G1 X103.907 Y129.767 E59.54306
G1 X104.737 Y130.08 E59.60148
G1 X104.911 Y130.139 E59.61358
G1 X105.749 Y130.386 E59.67111
G1 X105.913 Y130.428 E59.68226
G1 X106.012 Y130.449 E59.68892
G1 X87.798 Y112.236 E61.38521
G1 X87.798 Y111.977 E61.40226
G1 X87.831 Y111.02 E61.46532
G1 X87.85 Y110.76 E61.48249
G1 X107.867 Y130.777 E63.34674
G1 X108.006 Y130.792 E63.35594
G1 X108.902 Y130.852 E63.41508
G1 X109.083 Y130.859 E63.42701
G1 X109.473 Y130.856 E63.45269
G1 X87.847 Y109.23 E65.46679
G1 X87.843 Y109.125 E65.47371
G1 X87.814 Y108.753 E65.49828
G1 X87.795 Y108.096 E65.54157
G1 X87.793 Y107.649 E65.57101
G1 X110.93 Y130.785 E67.72578
G1 X111.043 Y130.777 E67.73324
G1 X111.178 Y130.762 E67.74219
G1 X112.132 Y130.616 E67.80574
G1 X112.272 Y130.6 E67.81502
G1 X87.801 Y106.129 E70.09408
G1 X87.803 Y106.014 E70.10166
G1 X87.85 Y105.066 E70.16417
G1 X87.868 Y104.867 E70.17732
G1 X87.889 Y104.69 E70.18906
G1 X113.827 Y130.628 E72.60475
G1 X114.789 Y130.77 E72.66879
G1 X114.935 Y130.786 E72.67846
G1 X115.557 Y130.831 E72.71953
G1 X88.101 Y103.374 E75.27664
G1 X88.287 Y102.503 E75.33529
G1 X88.38 Y102.146 E75.35959
G1 X88.384 Y102.13 E75.36067
G1 X117.103 Y130.85 E78.03541
G1 X117.978 Y130.784 E78.0932
G1 X118.126 Y130.768 E78.103
G1 X118.494 Y130.712 E78.12751
G1 X88.76 Y100.979 E80.89669
G1 X89.043 Y100.256 E80.94782
G1 X89.11 Y100.102 E80.95888
G1 X89.207 Y99.899 E80.9737
G1 X119.781 Y130.472 E83.8211
G1 X120.062 Y130.41 E83.84005
G1 X120.224 Y130.367 E83.85109
G1 X120.976 Y130.14 E83.90282
G1 X89.722 Y98.886 E86.8136
G1 X90.021 Y98.367 E86.85305
G1 X90.11 Y98.224 E86.86414
G1 X90.302 Y97.939 E86.88677
G1 X122.089 Y129.726 E89.84719
G1 X122.227 Y129.669 E89.85703
G1 X123.049 Y129.284 E89.9168
G1 X123.129 Y129.239 E89.92285
G1 X90.941 Y97.051 E92.92062
G1 X91.264 Y96.642 E92.95494
G1 X91.377 Y96.507 E92.96653
G1 X91.638 Y96.22 E92.99208
G1 X124.106 Y128.688 E96.01592
G1 X124.843 Y128.2 E96.07413
G1 X125 Y128.088 E96.08684
G1 X125.018 Y128.073 E96.08838
G1 X92.393 Y95.448 E99.12685
G1 X92.725 Y95.132 E99.15703
G1 X92.863 Y95.01 E99.16916
G1 X93.207 Y94.735 E99.19816
G1 X125.874 Y127.402 E102.24054
G1 X126.497 Y126.842 E102.29571
G1 X126.619 Y126.724 E102.30689
G1 X126.671 Y126.671 E102.31178
G1 X94.069 Y94.069 E105.3481
G1 X94.617 Y93.688 E105.39206
G1 X94.779 Y93.585 E105.4047
G1 X94.989 Y93.461 E105.42076
G1 X127.408 Y125.881 E108.44009
G1 X127.921 Y125.268 E108.49273
G1 X128.03 Y125.128 E108.50442
G1 X128.094 Y125.039 E108.51163
G1 X95.971 Y92.916 E111.50335
G1 X96.465 Y92.672 E111.53963
G1 X96.66 Y92.585 E111.5537
G1 X97.021 Y92.439 E111.57934
G1 X128.718 Y124.136 E114.53138
G1 X129.298 Y123.188 E114.60457
G1 X98.141 Y92.032 E117.50627
